(G-CODE GENERATED BY FLATCAM v8.994 - www.flatcam.org - Version Date: 2020/11/7)

(Name: RackZ80_Processor.drl_cnc)
(Type: G-code from Geometry)
(Units: MM)

(Created on Sonntag, 04 April 2021 at 00:11)

(This preprocessor is the default preprocessor used by FlatCAM.)
(It is made to work with MACH3 compatible motion controllers.)


(TOOLS DIAMETER: )
(Tool: 1 -> Dia: 0.8)
(Tool: 2 -> Dia: 1.0)
(Tool: 3 -> Dia: 2.7)

(FEEDRATE Z: )
(Tool: 1 -> Feedrate: 1000.0)
(Tool: 2 -> Feedrate: 1000.0)
(Tool: 3 -> Feedrate: 1000.0)

(FEEDRATE RAPIDS: )
(Tool: 1 -> Feedrate Rapids: 1500)
(Tool: 2 -> Feedrate Rapids: 1500)
(Tool: 3 -> Feedrate Rapids: 1500)

(Z_CUT: )
(Tool: 1 -> Z_Cut: -2.0)
(Tool: 2 -> Z_Cut: -2.0)
(Tool: 3 -> Z_Cut: -2.0)

(Tools Offset: )
(Tool: 1 -> Offset Z: 0.0)

(Z_MOVE: )
(Tool: 1 -> Z_Move: 2)
(Tool: 2 -> Z_Move: 2)
(Tool: 3 -> Z_Move: 2)

(Z Toolchange: 70.0 mm)
(X,Y Toolchange: 0.0000, 0.0000 mm)
(Z Start: None mm)
(Z End: 0.5 mm)
(X,Y End: None mm)
(Steps per circle: 64)
(Preprocessor Excellon: default)

(X range:    2.2500 ...  158.5900  mm)
(Y range:  -95.8500 ...   -3.1950  mm)

(Spindle Speed: 10000 RPM)
G21
G90
G94

G01 F1000.00

M5
G00 Z70.0000
T1
G00 X0.0000 Y0.0000                
M6
(MSG, Change to Tool Dia = 0.8000 ||| Total drills for tool T1 = 383)
M0
G00 Z70.0000

G01 F1000.00
M03 S10000
G00 X4.8400 Y-86.1450
G01 Z-2.0000
G01 Z0
G00 Z2.0000
G00 X7.3800 Y-86.1450
G01 Z-2.0000
G01 Z0
G00 Z2.0000
G00 X17.5400 Y-86.7800
G01 Z-2.0000
G01 Z0
G00 Z2.0000
G00 X17.5400 Y-89.3200
G01 Z-2.0000
G01 Z0
G00 Z2.0000
G00 X18.8100 Y-94.4000
G01 Z-2.0000
G01 Z0
G00 Z2.0000
G00 X23.8100 Y-94.4000
G01 Z-2.0000
G01 Z0
G00 Z2.0000
G00 X25.1600 Y-89.3200
G01 Z-2.0000
G01 Z0
G00 Z2.0000
G00 X25.1600 Y-86.7800
G01 Z-2.0000
G01 Z0
G00 Z2.0000
G00 X25.1600 Y-84.2400
G01 Z-2.0000
G01 Z0
G00 Z2.0000
G00 X25.1600 Y-81.7000
G01 Z-2.0000
G01 Z0
G00 Z2.0000
G00 X25.1600 Y-79.1600
G01 Z-2.0000
G01 Z0
G00 Z2.0000
G00 X25.1600 Y-76.6200
G01 Z-2.0000
G01 Z0
G00 Z2.0000
G00 X25.1600 Y-74.0800
G01 Z-2.0000
G01 Z0
G00 Z2.0000
G00 X21.3500 Y-70.2700
G01 Z-2.0000
G01 Z0
G00 Z2.0000
G00 X26.4300 Y-66.4200
G01 Z-2.0000
G01 Z0
G00 Z2.0000
G00 X26.4300 Y-63.9200
G01 Z-2.0000
G01 Z0
G00 Z2.0000
G00 X32.8600 Y-59.4750
G01 Z-2.0000
G01 Z0
G00 Z2.0000
G00 X37.8600 Y-59.4750
G01 Z-2.0000
G01 Z0
G00 Z2.0000
G00 X35.3200 Y-71.5400
G01 Z-2.0000
G01 Z0
G00 Z2.0000
G00 X35.3200 Y-74.0800
G01 Z-2.0000
G01 Z0
G00 Z2.0000
G00 X35.3200 Y-76.6200
G01 Z-2.0000
G01 Z0
G00 Z2.0000
G00 X35.3200 Y-79.1600
G01 Z-2.0000
G01 Z0
G00 Z2.0000
G00 X35.3200 Y-81.7000
G01 Z-2.0000
G01 Z0
G00 Z2.0000
G00 X35.3200 Y-84.2400
G01 Z-2.0000
G01 Z0
G00 Z2.0000
G00 X35.3200 Y-86.7800
G01 Z-2.0000
G01 Z0
G00 Z2.0000
G00 X35.3200 Y-89.3200
G01 Z-2.0000
G01 Z0
G00 Z2.0000
G00 X30.2400 Y-91.8600
G01 Z-2.0000
G01 Z0
G00 Z2.0000
G00 X36.5900 Y-94.4000
G01 Z-2.0000
G01 Z0
G00 Z2.0000
G00 X41.5900 Y-94.4000
G01 Z-2.0000
G01 Z0
G00 Z2.0000
G00 X42.9400 Y-89.3200
G01 Z-2.0000
G01 Z0
G00 Z2.0000
G00 X42.9400 Y-86.7800
G01 Z-2.0000
G01 Z0
G00 Z2.0000
G00 X42.9400 Y-84.2400
G01 Z-2.0000
G01 Z0
G00 Z2.0000
G00 X42.9400 Y-81.7000
G01 Z-2.0000
G01 Z0
G00 Z2.0000
G00 X42.9400 Y-79.1600
G01 Z-2.0000
G01 Z0
G00 Z2.0000
G00 X42.9400 Y-76.6200
G01 Z-2.0000
G01 Z0
G00 Z2.0000
G00 X42.9400 Y-74.0800
G01 Z-2.0000
G01 Z0
G00 Z2.0000
G00 X42.9400 Y-71.5400
G01 Z-2.0000
G01 Z0
G00 Z2.0000
G00 X46.7500 Y-69.0000
G01 Z-2.0000
G01 Z0
G00 Z2.0000
G00 X49.2900 Y-69.0000
G01 Z-2.0000
G01 Z0
G00 Z2.0000
G00 X53.1000 Y-74.0800
G01 Z-2.0000
G01 Z0
G00 Z2.0000
G00 X53.1000 Y-76.6200
G01 Z-2.0000
G01 Z0
G00 Z2.0000
G00 X53.1000 Y-79.1600
G01 Z-2.0000
G01 Z0
G00 Z2.0000
G00 X53.1000 Y-81.7000
G01 Z-2.0000
G01 Z0
G00 Z2.0000
G00 X53.1000 Y-84.2400
G01 Z-2.0000
G01 Z0
G00 Z2.0000
G00 X53.1000 Y-86.7800
G01 Z-2.0000
G01 Z0
G00 Z2.0000
G00 X53.1000 Y-89.3200
G01 Z-2.0000
G01 Z0
G00 Z2.0000
G00 X54.3700 Y-94.4000
G01 Z-2.0000
G01 Z0
G00 Z2.0000
G00 X59.3700 Y-94.4000
G01 Z-2.0000
G01 Z0
G00 Z2.0000
G00 X60.7200 Y-89.3200
G01 Z-2.0000
G01 Z0
G00 Z2.0000
G00 X60.7200 Y-86.7800
G01 Z-2.0000
G01 Z0
G00 Z2.0000
G00 X60.7200 Y-84.2400
G01 Z-2.0000
G01 Z0
G00 Z2.0000
G00 X60.7200 Y-81.7000
G01 Z-2.0000
G01 Z0
G00 Z2.0000
G00 X60.7200 Y-79.1600
G01 Z-2.0000
G01 Z0
G00 Z2.0000
G00 X60.7200 Y-76.6200
G01 Z-2.0000
G01 Z0
G00 Z2.0000
G00 X60.7200 Y-74.0800
G01 Z-2.0000
G01 Z0
G00 Z2.0000
G00 X70.8800 Y-74.0800
G01 Z-2.0000
G01 Z0
G00 Z2.0000
G00 X70.8800 Y-76.6200
G01 Z-2.0000
G01 Z0
G00 Z2.0000
G00 X70.8800 Y-79.1600
G01 Z-2.0000
G01 Z0
G00 Z2.0000
G00 X70.8800 Y-81.7000
G01 Z-2.0000
G01 Z0
G00 Z2.0000
G00 X70.8800 Y-84.2400
G01 Z-2.0000
G01 Z0
G00 Z2.0000
G00 X70.8800 Y-86.7800
G01 Z-2.0000
G01 Z0
G00 Z2.0000
G00 X70.8800 Y-89.3200
G01 Z-2.0000
G01 Z0
G00 Z2.0000
G00 X72.1500 Y-94.4000
G01 Z-2.0000
G01 Z0
G00 Z2.0000
G00 X77.1500 Y-94.4000
G01 Z-2.0000
G01 Z0
G00 Z2.0000
G00 X78.5000 Y-89.3200
G01 Z-2.0000
G01 Z0
G00 Z2.0000
G00 X78.5000 Y-86.7800
G01 Z-2.0000
G01 Z0
G00 Z2.0000
G00 X78.5000 Y-84.2400
G01 Z-2.0000
G01 Z0
G00 Z2.0000
G00 X78.5000 Y-81.7000
G01 Z-2.0000
G01 Z0
G00 Z2.0000
G00 X78.5000 Y-79.1600
G01 Z-2.0000
G01 Z0
G00 Z2.0000
G00 X78.5000 Y-76.6200
G01 Z-2.0000
G01 Z0
G00 Z2.0000
G00 X78.5000 Y-74.0800
G01 Z-2.0000
G01 Z0
G00 Z2.0000
G00 X88.6600 Y-66.4600
G01 Z-2.0000
G01 Z0
G00 Z2.0000
G00 X88.6600 Y-69.0000
G01 Z-2.0000
G01 Z0
G00 Z2.0000
G00 X88.6600 Y-71.5400
G01 Z-2.0000
G01 Z0
G00 Z2.0000
G00 X88.6600 Y-74.0800
G01 Z-2.0000
G01 Z0
G00 Z2.0000
G00 X88.6600 Y-76.6200
G01 Z-2.0000
G01 Z0
G00 Z2.0000
G00 X88.6600 Y-79.1600
G01 Z-2.0000
G01 Z0
G00 Z2.0000
G00 X88.6600 Y-81.7000
G01 Z-2.0000
G01 Z0
G00 Z2.0000
G00 X88.6600 Y-84.2400
G01 Z-2.0000
G01 Z0
G00 Z2.0000
G00 X88.6600 Y-86.7800
G01 Z-2.0000
G01 Z0
G00 Z2.0000
G00 X88.6600 Y-89.3200
G01 Z-2.0000
G01 Z0
G00 Z2.0000
G00 X89.9300 Y-94.4000
G01 Z-2.0000
G01 Z0
G00 Z2.0000
G00 X94.9300 Y-94.4000
G01 Z-2.0000
G01 Z0
G00 Z2.0000
G00 X96.2800 Y-89.3200
G01 Z-2.0000
G01 Z0
G00 Z2.0000
G00 X96.2800 Y-86.7800
G01 Z-2.0000
G01 Z0
G00 Z2.0000
G00 X96.2800 Y-84.2400
G01 Z-2.0000
G01 Z0
G00 Z2.0000
G00 X96.2800 Y-81.7000
G01 Z-2.0000
G01 Z0
G00 Z2.0000
G00 X96.2800 Y-79.1600
G01 Z-2.0000
G01 Z0
G00 Z2.0000
G00 X96.2800 Y-76.6200
G01 Z-2.0000
G01 Z0
G00 Z2.0000
G00 X96.2800 Y-74.0800
G01 Z-2.0000
G01 Z0
G00 Z2.0000
G00 X96.2800 Y-71.5400
G01 Z-2.0000
G01 Z0
G00 Z2.0000
G00 X96.2800 Y-69.0000
G01 Z-2.0000
G01 Z0
G00 Z2.0000
G00 X96.2800 Y-66.4600
G01 Z-2.0000
G01 Z0
G00 Z2.0000
G00 X103.9000 Y-64.5550
G01 Z-2.0000
G01 Z0
G00 Z2.0000
G00 X103.9000 Y-66.4730
G01 Z-2.0000
G01 Z0
G00 Z2.0000
G00 X106.4400 Y-74.0800
G01 Z-2.0000
G01 Z0
G00 Z2.0000
G00 X106.4400 Y-76.6200
G01 Z-2.0000
G01 Z0
G00 Z2.0000
G00 X106.4400 Y-79.1600
G01 Z-2.0000
G01 Z0
G00 Z2.0000
G00 X106.4400 Y-81.7000
G01 Z-2.0000
G01 Z0
G00 Z2.0000
G00 X106.4400 Y-84.2400
G01 Z-2.0000
G01 Z0
G00 Z2.0000
G00 X106.4400 Y-86.7800
G01 Z-2.0000
G01 Z0
G00 Z2.0000
G00 X106.4400 Y-89.3200
G01 Z-2.0000
G01 Z0
G00 Z2.0000
G00 X107.7100 Y-94.4000
G01 Z-2.0000
G01 Z0
G00 Z2.0000
G00 X112.7100 Y-94.4000
G01 Z-2.0000
G01 Z0
G00 Z2.0000
G00 X114.0600 Y-89.3200
G01 Z-2.0000
G01 Z0
G00 Z2.0000
G00 X114.0600 Y-86.7800
G01 Z-2.0000
G01 Z0
G00 Z2.0000
G00 X114.0600 Y-84.2400
G01 Z-2.0000
G01 Z0
G00 Z2.0000
G00 X114.0600 Y-81.7000
G01 Z-2.0000
G01 Z0
G00 Z2.0000
G00 X114.0600 Y-79.1600
G01 Z-2.0000
G01 Z0
G00 Z2.0000
G00 X114.0600 Y-76.6200
G01 Z-2.0000
G01 Z0
G00 Z2.0000
G00 X114.0600 Y-74.0800
G01 Z-2.0000
G01 Z0
G00 Z2.0000
G00 X121.6800 Y-66.4600
G01 Z-2.0000
G01 Z0
G00 Z2.0000
G00 X121.6800 Y-64.5420
G01 Z-2.0000
G01 Z0
G00 Z2.0000
G00 X126.7600 Y-69.0000
G01 Z-2.0000
G01 Z0
G00 Z2.0000
G00 X126.7600 Y-71.5400
G01 Z-2.0000
G01 Z0
G00 Z2.0000
G00 X126.7600 Y-74.0800
G01 Z-2.0000
G01 Z0
G00 Z2.0000
G00 X126.7600 Y-76.6200
G01 Z-2.0000
G01 Z0
G00 Z2.0000
G00 X126.7600 Y-79.1600
G01 Z-2.0000
G01 Z0
G00 Z2.0000
G00 X126.7600 Y-81.7000
G01 Z-2.0000
G01 Z0
G00 Z2.0000
G00 X126.7600 Y-84.2400
G01 Z-2.0000
G01 Z0
G00 Z2.0000
G00 X126.7600 Y-86.7800
G01 Z-2.0000
G01 Z0
G00 Z2.0000
G00 X126.7600 Y-89.3200
G01 Z-2.0000
G01 Z0
G00 Z2.0000
G00 X126.7600 Y-91.8600
G01 Z-2.0000
G01 Z0
G00 Z2.0000
G00 X128.0300 Y-94.4000
G01 Z-2.0000
G01 Z0
G00 Z2.0000
G00 X133.0300 Y-94.4000
G01 Z-2.0000
G01 Z0
G00 Z2.0000
G00 X134.3800 Y-91.8600
G01 Z-2.0000
G01 Z0
G00 Z2.0000
G00 X134.3800 Y-89.3200
G01 Z-2.0000
G01 Z0
G00 Z2.0000
G00 X134.3800 Y-86.7800
G01 Z-2.0000
G01 Z0
G00 Z2.0000
G00 X134.3800 Y-84.2400
G01 Z-2.0000
G01 Z0
G00 Z2.0000
G00 X134.3800 Y-81.7000
G01 Z-2.0000
G01 Z0
G00 Z2.0000
G00 X134.3800 Y-79.1600
G01 Z-2.0000
G01 Z0
G00 Z2.0000
G00 X134.3800 Y-76.6200
G01 Z-2.0000
G01 Z0
G00 Z2.0000
G00 X134.3800 Y-74.0800
G01 Z-2.0000
G01 Z0
G00 Z2.0000
G00 X134.3800 Y-71.5400
G01 Z-2.0000
G01 Z0
G00 Z2.0000
G00 X134.3800 Y-69.0000
G01 Z-2.0000
G01 Z0
G00 Z2.0000
G00 X145.8100 Y-66.4600
G01 Z-2.0000
G01 Z0
G00 Z2.0000
G00 X145.8100 Y-64.5420
G01 Z-2.0000
G01 Z0
G00 Z2.0000
G00 X135.5700 Y-62.6500
G01 Z-2.0000
G01 Z0
G00 Z2.0000
G00 X136.9200 Y-60.1100
G01 Z-2.0000
G01 Z0
G00 Z2.0000
G00 X136.9200 Y-57.5700
G01 Z-2.0000
G01 Z0
G00 Z2.0000
G00 X136.9200 Y-55.0300
G01 Z-2.0000
G01 Z0
G00 Z2.0000
G00 X136.9200 Y-52.4900
G01 Z-2.0000
G01 Z0
G00 Z2.0000
G00 X136.9200 Y-49.9500
G01 Z-2.0000
G01 Z0
G00 Z2.0000
G00 X136.9200 Y-47.4100
G01 Z-2.0000
G01 Z0
G00 Z2.0000
G00 X136.9200 Y-44.8700
G01 Z-2.0000
G01 Z0
G00 Z2.0000
G00 X136.9200 Y-42.3300
G01 Z-2.0000
G01 Z0
G00 Z2.0000
G00 X136.9200 Y-39.7900
G01 Z-2.0000
G01 Z0
G00 Z2.0000
G00 X136.9200 Y-37.2500
G01 Z-2.0000
G01 Z0
G00 Z2.0000
G00 X143.9050 Y-22.0100
G01 Z-2.0000
G01 Z0
G00 Z2.0000
G00 X145.1750 Y-11.8500
G01 Z-2.0000
G01 Z0
G00 Z2.0000
G00 X146.4450 Y-4.8650
G01 Z-2.0000
G01 Z0
G00 Z2.0000
G00 X143.9050 Y-3.5950
G01 Z-2.0000
G01 Z0
G00 Z2.0000
G00 X134.3800 Y-4.8650
G01 Z-2.0000
G01 Z0
G00 Z2.0000
G00 X133.1100 Y-11.8500
G01 Z-2.0000
G01 Z0
G00 Z2.0000
G00 X128.0300 Y-8.0400
G01 Z-2.0000
G01 Z0
G00 Z2.0000
G00 X128.0300 Y-10.5800
G01 Z-2.0000
G01 Z0
G00 Z2.0000
G00 X128.0300 Y-13.1200
G01 Z-2.0000
G01 Z0
G00 Z2.0000
G00 X128.0300 Y-15.6600
G01 Z-2.0000
G01 Z0
G00 Z2.0000
G00 X128.0300 Y-18.2000
G01 Z-2.0000
G01 Z0
G00 Z2.0000
G00 X128.0300 Y-20.7400
G01 Z-2.0000
G01 Z0
G00 Z2.0000
G00 X128.0300 Y-23.2800
G01 Z-2.0000
G01 Z0
G00 Z2.0000
G00 X128.0300 Y-25.8200
G01 Z-2.0000
G01 Z0
G00 Z2.0000
G00 X128.0300 Y-28.3600
G01 Z-2.0000
G01 Z0
G00 Z2.0000
G00 X128.0300 Y-30.9000
G01 Z-2.0000
G01 Z0
G00 Z2.0000
G00 X126.7600 Y-33.4400
G01 Z-2.0000
G01 Z0
G00 Z2.0000
G00 X129.3000 Y-37.2500
G01 Z-2.0000
G01 Z0
G00 Z2.0000
G00 X129.3000 Y-39.7900
G01 Z-2.0000
G01 Z0
G00 Z2.0000
G00 X129.3000 Y-42.3300
G01 Z-2.0000
G01 Z0
G00 Z2.0000
G00 X129.3000 Y-44.8700
G01 Z-2.0000
G01 Z0
G00 Z2.0000
G00 X129.3000 Y-47.4100
G01 Z-2.0000
G01 Z0
G00 Z2.0000
G00 X129.3000 Y-49.9500
G01 Z-2.0000
G01 Z0
G00 Z2.0000
G00 X129.3000 Y-52.4900
G01 Z-2.0000
G01 Z0
G00 Z2.0000
G00 X129.3000 Y-55.0300
G01 Z-2.0000
G01 Z0
G00 Z2.0000
G00 X129.3000 Y-57.5700
G01 Z-2.0000
G01 Z0
G00 Z2.0000
G00 X129.3000 Y-60.1100
G01 Z-2.0000
G01 Z0
G00 Z2.0000
G00 X130.5700 Y-62.6500
G01 Z-2.0000
G01 Z0
G00 Z2.0000
G00 X118.5050 Y-58.8400
G01 Z-2.0000
G01 Z0
G00 Z2.0000
G00 X113.4250 Y-57.5700
G01 Z-2.0000
G01 Z0
G00 Z2.0000
G00 X115.9650 Y-55.0300
G01 Z-2.0000
G01 Z0
G00 Z2.0000
G00 X118.5050 Y-52.4900
G01 Z-2.0000
G01 Z0
G00 Z2.0000
G00 X122.9500 Y-56.3000
G01 Z-2.0000
G01 Z0
G00 Z2.0000
G00 X125.4900 Y-53.7600
G01 Z-2.0000
G01 Z0
G00 Z2.0000
G00 X124.2200 Y-48.6800
G01 Z-2.0000
G01 Z0
G00 Z2.0000
G00 X121.6800 Y-51.2200
G01 Z-2.0000
G01 Z0
G00 Z2.0000
G00 X119.7750 Y-49.9500
G01 Z-2.0000
G01 Z0
G00 Z2.0000
G00 X117.2350 Y-47.4100
G01 Z-2.0000
G01 Z0
G00 Z2.0000
G00 X114.6950 Y-47.4100
G01 Z-2.0000
G01 Z0
G00 Z2.0000
G00 X109.6150 Y-35.9800
G01 Z-2.0000
G01 Z0
G00 Z2.0000
G00 X110.8850 Y-33.4400
G01 Z-2.0000
G01 Z0
G00 Z2.0000
G00 X114.6950 Y-34.7100
G01 Z-2.0000
G01 Z0
G00 Z2.0000
G00 X114.6950 Y-38.5200
G01 Z-2.0000
G01 Z0
G00 Z2.0000
G00 X119.7750 Y-39.7900
G01 Z-2.0000
G01 Z0
G00 Z2.0000
G00 X118.5050 Y-37.2500
G01 Z-2.0000
G01 Z0
G00 Z2.0000
G00 X117.2350 Y-34.7100
G01 Z-2.0000
G01 Z0
G00 Z2.0000
G00 X121.7600 Y-33.4400
G01 Z-2.0000
G01 Z0
G00 Z2.0000
G00 X120.4100 Y-30.9000
G01 Z-2.0000
G01 Z0
G00 Z2.0000
G00 X120.4100 Y-28.3600
G01 Z-2.0000
G01 Z0
G00 Z2.0000
G00 X120.4100 Y-25.8200
G01 Z-2.0000
G01 Z0
G00 Z2.0000
G00 X120.4100 Y-23.2800
G01 Z-2.0000
G01 Z0
G00 Z2.0000
G00 X120.4100 Y-20.7400
G01 Z-2.0000
G01 Z0
G00 Z2.0000
G00 X120.4100 Y-18.2000
G01 Z-2.0000
G01 Z0
G00 Z2.0000
G00 X120.4100 Y-15.6600
G01 Z-2.0000
G01 Z0
G00 Z2.0000
G00 X120.4100 Y-13.1200
G01 Z-2.0000
G01 Z0
G00 Z2.0000
G00 X120.4100 Y-10.5800
G01 Z-2.0000
G01 Z0
G00 Z2.0000
G00 X120.4100 Y-8.0400
G01 Z-2.0000
G01 Z0
G00 Z2.0000
G00 X112.1550 Y-8.0400
G01 Z-2.0000
G01 Z0
G00 Z2.0000
G00 X108.3450 Y-3.5950
G01 Z-2.0000
G01 Z0
G00 Z2.0000
G00 X105.8050 Y-13.1200
G01 Z-2.0000
G01 Z0
G00 Z2.0000
G00 X105.8050 Y-16.9300
G01 Z-2.0000
G01 Z0
G00 Z2.0000
G00 X104.5350 Y-20.7400
G01 Z-2.0000
G01 Z0
G00 Z2.0000
G00 X107.0750 Y-23.2800
G01 Z-2.0000
G01 Z0
G00 Z2.0000
G00 X112.1550 Y-23.2800
G01 Z-2.0000
G01 Z0
G00 Z2.0000
G00 X112.1550 Y-25.8200
G01 Z-2.0000
G01 Z0
G00 Z2.0000
G00 X113.4250 Y-29.6300
G01 Z-2.0000
G01 Z0
G00 Z2.0000
G00 X104.5350 Y-28.3600
G01 Z-2.0000
G01 Z0
G00 Z2.0000
G00 X100.0900 Y-32.1700
G01 Z-2.0000
G01 Z0
G00 Z2.0000
G00 X100.0900 Y-34.7100
G01 Z-2.0000
G01 Z0
G00 Z2.0000
G00 X100.0900 Y-37.2500
G01 Z-2.0000
G01 Z0
G00 Z2.0000
G00 X100.0900 Y-39.7900
G01 Z-2.0000
G01 Z0
G00 Z2.0000
G00 X100.0900 Y-42.3300
G01 Z-2.0000
G01 Z0
G00 Z2.0000
G00 X100.0900 Y-44.8700
G01 Z-2.0000
G01 Z0
G00 Z2.0000
G00 X103.2650 Y-46.1400
G01 Z-2.0000
G01 Z0
G00 Z2.0000
G00 X100.0900 Y-47.4100
G01 Z-2.0000
G01 Z0
G00 Z2.0000
G00 X100.0900 Y-49.9500
G01 Z-2.0000
G01 Z0
G00 Z2.0000
G00 X100.0900 Y-52.4900
G01 Z-2.0000
G01 Z0
G00 Z2.0000
G00 X100.0900 Y-55.0300
G01 Z-2.0000
G01 Z0
G00 Z2.0000
G00 X84.8500 Y-44.8700
G01 Z-2.0000
G01 Z0
G00 Z2.0000
G00 X84.8500 Y-47.4100
G01 Z-2.0000
G01 Z0
G00 Z2.0000
G00 X84.8500 Y-49.9500
G01 Z-2.0000
G01 Z0
G00 Z2.0000
G00 X84.8500 Y-52.4900
G01 Z-2.0000
G01 Z0
G00 Z2.0000
G00 X84.8500 Y-55.0300
G01 Z-2.0000
G01 Z0
G00 Z2.0000
G00 X80.4050 Y-56.3000
G01 Z-2.0000
G01 Z0
G00 Z2.0000
G00 X79.1350 Y-62.6500
G01 Z-2.0000
G01 Z0
G00 Z2.0000
G00 X75.9600 Y-58.2050
G01 Z-2.0000
G01 Z0
G00 Z2.0000
G00 X74.0550 Y-55.0300
G01 Z-2.0000
G01 Z0
G00 Z2.0000
G00 X77.8650 Y-53.7600
G01 Z-2.0000
G01 Z0
G00 Z2.0000
G00 X76.5950 Y-51.2200
G01 Z-2.0000
G01 Z0
G00 Z2.0000
G00 X75.3250 Y-48.6800
G01 Z-2.0000
G01 Z0
G00 Z2.0000
G00 X75.3250 Y-44.8700
G01 Z-2.0000
G01 Z0
G00 Z2.0000
G00 X76.5950 Y-42.3300
G01 Z-2.0000
G01 Z0
G00 Z2.0000
G00 X76.5950 Y-39.7900
G01 Z-2.0000
G01 Z0
G00 Z2.0000
G00 X74.0550 Y-39.7900
G01 Z-2.0000
G01 Z0
G00 Z2.0000
G00 X74.0550 Y-37.2500
G01 Z-2.0000
G01 Z0
G00 Z2.0000
G00 X77.8650 Y-34.7100
G01 Z-2.0000
G01 Z0
G00 Z2.0000
G00 X75.3250 Y-32.1700
G01 Z-2.0000
G01 Z0
G00 Z2.0000
G00 X77.8650 Y-29.6300
G01 Z-2.0000
G01 Z0
G00 Z2.0000
G00 X79.1350 Y-27.0900
G01 Z-2.0000
G01 Z0
G00 Z2.0000
G00 X77.8650 Y-24.5500
G01 Z-2.0000
G01 Z0
G00 Z2.0000
G00 X75.3250 Y-24.5500
G01 Z-2.0000
G01 Z0
G00 Z2.0000
G00 X84.8500 Y-22.0100
G01 Z-2.0000
G01 Z0
G00 Z2.0000
G00 X84.8500 Y-24.5500
G01 Z-2.0000
G01 Z0
G00 Z2.0000
G00 X84.8500 Y-27.0900
G01 Z-2.0000
G01 Z0
G00 Z2.0000
G00 X84.8500 Y-29.6300
G01 Z-2.0000
G01 Z0
G00 Z2.0000
G00 X84.8500 Y-32.1700
G01 Z-2.0000
G01 Z0
G00 Z2.0000
G00 X84.8500 Y-34.7100
G01 Z-2.0000
G01 Z0
G00 Z2.0000
G00 X84.8500 Y-37.2500
G01 Z-2.0000
G01 Z0
G00 Z2.0000
G00 X84.8500 Y-39.7900
G01 Z-2.0000
G01 Z0
G00 Z2.0000
G00 X84.8500 Y-42.3300
G01 Z-2.0000
G01 Z0
G00 Z2.0000
G00 X100.0900 Y-29.6300
G01 Z-2.0000
G01 Z0
G00 Z2.0000
G00 X100.0900 Y-27.0900
G01 Z-2.0000
G01 Z0
G00 Z2.0000
G00 X100.0900 Y-24.5500
G01 Z-2.0000
G01 Z0
G00 Z2.0000
G00 X100.0900 Y-22.0100
G01 Z-2.0000
G01 Z0
G00 Z2.0000
G00 X100.0900 Y-19.4700
G01 Z-2.0000
G01 Z0
G00 Z2.0000
G00 X100.0900 Y-16.9300
G01 Z-2.0000
G01 Z0
G00 Z2.0000
G00 X100.0900 Y-14.3900
G01 Z-2.0000
G01 Z0
G00 Z2.0000
G00 X100.0900 Y-11.8500
G01 Z-2.0000
G01 Z0
G00 Z2.0000
G00 X100.0900 Y-9.3100
G01 Z-2.0000
G01 Z0
G00 Z2.0000
G00 X100.0900 Y-6.7700
G01 Z-2.0000
G01 Z0
G00 Z2.0000
G00 X95.0100 Y-3.5950
G01 Z-2.0000
G01 Z0
G00 Z2.0000
G00 X90.0100 Y-3.5950
G01 Z-2.0000
G01 Z0
G00 Z2.0000
G00 X84.8500 Y-6.7700
G01 Z-2.0000
G01 Z0
G00 Z2.0000
G00 X84.8500 Y-9.3100
G01 Z-2.0000
G01 Z0
G00 Z2.0000
G00 X84.8500 Y-11.8500
G01 Z-2.0000
G01 Z0
G00 Z2.0000
G00 X84.8500 Y-14.3900
G01 Z-2.0000
G01 Z0
G00 Z2.0000
G00 X84.8500 Y-16.9300
G01 Z-2.0000
G01 Z0
G00 Z2.0000
G00 X84.8500 Y-19.4700
G01 Z-2.0000
G01 Z0
G00 Z2.0000
G00 X80.4050 Y-20.7400
G01 Z-2.0000
G01 Z0
G00 Z2.0000
G00 X79.1350 Y-18.2000
G01 Z-2.0000
G01 Z0
G00 Z2.0000
G00 X76.5950 Y-19.4700
G01 Z-2.0000
G01 Z0
G00 Z2.0000
G00 X74.0550 Y-16.9300
G01 Z-2.0000
G01 Z0
G00 Z2.0000
G00 X72.7850 Y-8.0400
G01 Z-2.0000
G01 Z0
G00 Z2.0000
G00 X70.2450 Y-8.0400
G01 Z-2.0000
G01 Z0
G00 Z2.0000
G00 X63.2600 Y-5.5000
G01 Z-2.0000
G01 Z0
G00 Z2.0000
G00 X63.2600 Y-9.3100
G01 Z-2.0000
G01 Z0
G00 Z2.0000
G00 X63.2600 Y-13.1200
G01 Z-2.0000
G01 Z0
G00 Z2.0000
G00 X68.3400 Y-14.3900
G01 Z-2.0000
G01 Z0
G00 Z2.0000
G00 X68.3400 Y-16.9300
G01 Z-2.0000
G01 Z0
G00 Z2.0000
G00 X68.3400 Y-19.4700
G01 Z-2.0000
G01 Z0
G00 Z2.0000
G00 X68.3400 Y-22.0100
G01 Z-2.0000
G01 Z0
G00 Z2.0000
G00 X68.3400 Y-24.5500
G01 Z-2.0000
G01 Z0
G00 Z2.0000
G00 X68.3400 Y-27.0900
G01 Z-2.0000
G01 Z0
G00 Z2.0000
G00 X68.3400 Y-29.6300
G01 Z-2.0000
G01 Z0
G00 Z2.0000
G00 X68.3400 Y-32.1700
G01 Z-2.0000
G01 Z0
G00 Z2.0000
G00 X68.3400 Y-34.7100
G01 Z-2.0000
G01 Z0
G00 Z2.0000
G00 X68.3400 Y-37.2500
G01 Z-2.0000
G01 Z0
G00 Z2.0000
G00 X68.3400 Y-39.7900
G01 Z-2.0000
G01 Z0
G00 Z2.0000
G00 X68.3400 Y-42.3300
G01 Z-2.0000
G01 Z0
G00 Z2.0000
G00 X68.3400 Y-44.8700
G01 Z-2.0000
G01 Z0
G00 Z2.0000
G00 X68.3400 Y-47.4100
G01 Z-2.0000
G01 Z0
G00 Z2.0000
G00 X68.3400 Y-49.9500
G01 Z-2.0000
G01 Z0
G00 Z2.0000
G00 X68.3400 Y-52.4900
G01 Z-2.0000
G01 Z0
G00 Z2.0000
G00 X68.3400 Y-55.0300
G01 Z-2.0000
G01 Z0
G00 Z2.0000
G00 X67.7050 Y-60.1100
G01 Z-2.0000
G01 Z0
G00 Z2.0000
G00 X63.2600 Y-59.4750
G01 Z-2.0000
G01 Z0
G00 Z2.0000
G00 X58.2600 Y-59.4750
G01 Z-2.0000
G01 Z0
G00 Z2.0000
G00 X53.1000 Y-55.0300
G01 Z-2.0000
G01 Z0
G00 Z2.0000
G00 X53.1000 Y-52.4900
G01 Z-2.0000
G01 Z0
G00 Z2.0000
G00 X53.1000 Y-49.9500
G01 Z-2.0000
G01 Z0
G00 Z2.0000
G00 X53.1000 Y-47.4100
G01 Z-2.0000
G01 Z0
G00 Z2.0000
G00 X53.1000 Y-44.8700
G01 Z-2.0000
G01 Z0
G00 Z2.0000
G00 X53.1000 Y-42.3300
G01 Z-2.0000
G01 Z0
G00 Z2.0000
G00 X42.9400 Y-55.0300
G01 Z-2.0000
G01 Z0
G00 Z2.0000
G00 X42.9400 Y-52.4900
G01 Z-2.0000
G01 Z0
G00 Z2.0000
G00 X42.9400 Y-49.9500
G01 Z-2.0000
G01 Z0
G00 Z2.0000
G00 X42.9400 Y-47.4100
G01 Z-2.0000
G01 Z0
G00 Z2.0000
G00 X42.9400 Y-44.8700
G01 Z-2.0000
G01 Z0
G00 Z2.0000
G00 X42.9400 Y-42.3300
G01 Z-2.0000
G01 Z0
G00 Z2.0000
G00 X42.9400 Y-39.7900
G01 Z-2.0000
G01 Z0
G00 Z2.0000
G00 X42.9400 Y-37.2500
G01 Z-2.0000
G01 Z0
G00 Z2.0000
G00 X42.9400 Y-34.7100
G01 Z-2.0000
G01 Z0
G00 Z2.0000
G00 X42.9400 Y-32.1700
G01 Z-2.0000
G01 Z0
G00 Z2.0000
G00 X42.9400 Y-29.6300
G01 Z-2.0000
G01 Z0
G00 Z2.0000
G00 X42.9400 Y-27.0900
G01 Z-2.0000
G01 Z0
G00 Z2.0000
G00 X49.2900 Y-30.9000
G01 Z-2.0000
G01 Z0
G00 Z2.0000
G00 X53.1000 Y-39.7900
G01 Z-2.0000
G01 Z0
G00 Z2.0000
G00 X53.1000 Y-37.2500
G01 Z-2.0000
G01 Z0
G00 Z2.0000
G00 X53.1000 Y-34.7100
G01 Z-2.0000
G01 Z0
G00 Z2.0000
G00 X53.1000 Y-32.1700
G01 Z-2.0000
G01 Z0
G00 Z2.0000
G00 X53.1000 Y-29.6300
G01 Z-2.0000
G01 Z0
G00 Z2.0000
G00 X53.1000 Y-27.0900
G01 Z-2.0000
G01 Z0
G00 Z2.0000
G00 X53.1000 Y-24.5500
G01 Z-2.0000
G01 Z0
G00 Z2.0000
G00 X53.1000 Y-22.0100
G01 Z-2.0000
G01 Z0
G00 Z2.0000
G00 X53.1000 Y-19.4700
G01 Z-2.0000
G01 Z0
G00 Z2.0000
G00 X53.1000 Y-16.9300
G01 Z-2.0000
G01 Z0
G00 Z2.0000
G00 X53.1000 Y-13.1200
G01 Z-2.0000
G01 Z0
G00 Z2.0000
G00 X53.1000 Y-9.3100
G01 Z-2.0000
G01 Z0
G00 Z2.0000
G00 X53.1000 Y-5.5000
G01 Z-2.0000
G01 Z0
G00 Z2.0000
G00 X42.9400 Y-5.5000
G01 Z-2.0000
G01 Z0
G00 Z2.0000
G00 X40.4000 Y-5.5000
G01 Z-2.0000
G01 Z0
G00 Z2.0000
G00 X37.8600 Y-5.5000
G01 Z-2.0000
G01 Z0
G00 Z2.0000
G00 X35.3200 Y-5.5000
G01 Z-2.0000
G01 Z0
G00 Z2.0000
G00 X32.7800 Y-5.5000
G01 Z-2.0000
G01 Z0
G00 Z2.0000
G00 X30.2400 Y-5.5000
G01 Z-2.0000
G01 Z0
G00 Z2.0000
G00 X27.7000 Y-5.5000
G01 Z-2.0000
G01 Z0
G00 Z2.0000
G00 X27.7000 Y-13.1200
G01 Z-2.0000
G01 Z0
G00 Z2.0000
G00 X30.2400 Y-13.1200
G01 Z-2.0000
G01 Z0
G00 Z2.0000
G00 X32.7800 Y-13.1200
G01 Z-2.0000
G01 Z0
G00 Z2.0000
G00 X35.3200 Y-13.1200
G01 Z-2.0000
G01 Z0
G00 Z2.0000
G00 X37.8600 Y-13.1200
G01 Z-2.0000
G01 Z0
G00 Z2.0000
G00 X40.4000 Y-13.1200
G01 Z-2.0000
G01 Z0
G00 Z2.0000
G00 X42.9400 Y-13.1200
G01 Z-2.0000
G01 Z0
G00 Z2.0000
G00 X42.9400 Y-22.0100
G01 Z-2.0000
G01 Z0
G00 Z2.0000
G00 X42.9400 Y-24.5500
G01 Z-2.0000
G01 Z0
G00 Z2.0000
G00 X27.7000 Y-22.0100
G01 Z-2.0000
G01 Z0
G00 Z2.0000
G00 X27.7000 Y-24.5500
G01 Z-2.0000
G01 Z0
G00 Z2.0000
G00 X27.7000 Y-27.0900
G01 Z-2.0000
G01 Z0
G00 Z2.0000
G00 X27.7000 Y-29.6300
G01 Z-2.0000
G01 Z0
G00 Z2.0000
G00 X27.7000 Y-32.1700
G01 Z-2.0000
G01 Z0
G00 Z2.0000
G00 X27.7000 Y-34.7100
G01 Z-2.0000
G01 Z0
G00 Z2.0000
G00 X27.7000 Y-37.2500
G01 Z-2.0000
G01 Z0
G00 Z2.0000
G00 X27.7000 Y-39.7900
G01 Z-2.0000
G01 Z0
G00 Z2.0000
G00 X27.7000 Y-42.3300
G01 Z-2.0000
G01 Z0
G00 Z2.0000
G00 X27.7000 Y-44.8700
G01 Z-2.0000
G01 Z0
G00 Z2.0000
G00 X27.7000 Y-47.4100
G01 Z-2.0000
G01 Z0
G00 Z2.0000
G00 X27.7000 Y-49.9500
G01 Z-2.0000
G01 Z0
G00 Z2.0000
G00 X27.7000 Y-52.4900
G01 Z-2.0000
G01 Z0
G00 Z2.0000
G00 X27.7000 Y-55.0300
G01 Z-2.0000
G01 Z0
G00 Z2.0000
G00 X21.3500 Y-60.1100
G01 Z-2.0000
G01 Z0
G00 Z2.0000
G00 X17.5400 Y-60.1100
G01 Z-2.0000
G01 Z0
G00 Z2.0000
G00 X13.7300 Y-60.1100
G01 Z-2.0000
G01 Z0
G00 Z2.0000
G00 X9.9200 Y-60.1100
G01 Z-2.0000
G01 Z0
G00 Z2.0000
G00 X6.1100 Y-60.1100
G01 Z-2.0000
G01 Z0
G00 Z2.0000
G00 X6.1100 Y-70.2700
G01 Z-2.0000
G01 Z0
G00 Z2.0000
G00 X9.9200 Y-70.2700
G01 Z-2.0000
G01 Z0
G00 Z2.0000
G00 X13.7300 Y-70.2700
G01 Z-2.0000
G01 Z0
G00 Z2.0000
G00 X17.5400 Y-70.2700
G01 Z-2.0000
G01 Z0
G00 Z2.0000
G00 X17.5400 Y-74.0800
G01 Z-2.0000
G01 Z0
G00 Z2.0000
G00 X17.5400 Y-76.6200
G01 Z-2.0000
G01 Z0
G00 Z2.0000
G00 X17.5400 Y-79.1600
G01 Z-2.0000
G01 Z0
G00 Z2.0000
G00 X17.5400 Y-81.7000
G01 Z-2.0000
G01 Z0
G00 Z2.0000
G00 X17.5400 Y-84.2400
G01 Z-2.0000
G01 Z0
G00 Z2.0000
G00 X7.3800 Y-83.6050
G01 Z-2.0000
G01 Z0
G00 Z2.0000
G00 X4.8400 Y-83.6050
G01 Z-2.0000
G01 Z0
G00 Z2.0000
M05
G00 Z0.50


