(G-CODE GENERATED BY FLATCAM v8.994 - www.flatcam.org - Version Date: 2020/11/7)

(Name: RackZ80_Processor.drl_mill_cnc)
(Type: G-code from Geometry)
(Units: MM)

(Created on Sonntag, 04 April 2021 at 00:12)

(This preprocessor is used with a motion controller loaded with GRBL firmware.)
(It is configured to be compatible with almost any version of GRBL firmware.)

(TOOL DIAMETER: 1.0 mm)
(Feedrate_XY: 60.0 mm/min)
(Feedrate_Z: 60.0 mm/min)
(Feedrate rapids 1500.0 mm/min)

(Z_Cut: -2.0 mm)
(Z_Move: 2.0 mm)
(Z Start: None mm)
(Z End: 15.0 mm)
(X,Y End: None mm)
(Steps per circle: 64)
(Steps per circle: 64)
(Preprocessor Geometry: grbl_11)

(X range:    2.7500 ...  158.0900  mm)
(Y range:  -95.3500 ...   -4.6500  mm)

(Spindle Speed: 10000.0 RPM)
G21
G90
G17
G94


G01 F60.00

M5             
G00 Z15.0000
G00 X0.0000 Y0.0000                
T1
M6
(MSG, Change to Tool Dia = 1.0000)
M0
G00 Z15.0000

M03 S10000.0
G01 F60.00
G00 X4.4500 Y-5.5000
G01 F60.00
G01 Z-2.0000
G01 F60.00
G01 X4.4459 Y-5.5833 F60.00
G01 X4.4337 Y-5.6658 F60.00
G01 X4.4134 Y-5.7467 F60.00
G01 X4.3853 Y-5.8253 F60.00
G01 X4.3496 Y-5.9007 F60.00
G01 X4.3067 Y-5.9722 F60.00
G01 X4.2571 Y-6.0392 F60.00
G01 X4.2010 Y-6.1010 F60.00
G01 X4.1392 Y-6.1571 F60.00
G01 X4.0722 Y-6.2067 F60.00
G01 X4.0007 Y-6.2496 F60.00
G01 X3.9253 Y-6.2853 F60.00
G01 X3.8467 Y-6.3134 F60.00
G01 X3.7658 Y-6.3337 F60.00
G01 X3.6833 Y-6.3459 F60.00
G01 X3.6000 Y-6.3500 F60.00
G01 X3.5167 Y-6.3459 F60.00
G01 X3.4342 Y-6.3337 F60.00
G01 X3.3533 Y-6.3134 F60.00
G01 X3.2747 Y-6.2853 F60.00
G01 X3.1993 Y-6.2496 F60.00
G01 X3.1278 Y-6.2067 F60.00
G01 X3.0608 Y-6.1571 F60.00
G01 X2.9990 Y-6.1010 F60.00
G01 X2.9429 Y-6.0392 F60.00
G01 X2.8933 Y-5.9722 F60.00
G01 X2.8504 Y-5.9007 F60.00
G01 X2.8147 Y-5.8253 F60.00
G01 X2.7866 Y-5.7467 F60.00
G01 X2.7663 Y-5.6658 F60.00
G01 X2.7541 Y-5.5833 F60.00
G01 X2.7500 Y-5.5000 F60.00
G01 X2.7541 Y-5.4167 F60.00
G01 X2.7663 Y-5.3342 F60.00
G01 X2.7866 Y-5.2533 F60.00
G01 X2.8147 Y-5.1747 F60.00
G01 X2.8504 Y-5.0993 F60.00
G01 X2.8933 Y-5.0278 F60.00
G01 X2.9429 Y-4.9608 F60.00
G01 X2.9990 Y-4.8990 F60.00
G01 X3.0608 Y-4.8429 F60.00
G01 X3.1278 Y-4.7933 F60.00
G01 X3.1993 Y-4.7504 F60.00
G01 X3.2747 Y-4.7147 F60.00
G01 X3.3533 Y-4.6866 F60.00
G01 X3.4342 Y-4.6663 F60.00
G01 X3.5167 Y-4.6541 F60.00
G01 X3.6000 Y-4.6500 F60.00
G01 X3.6833 Y-4.6541 F60.00
G01 X3.7658 Y-4.6663 F60.00
G01 X3.8467 Y-4.6866 F60.00
G01 X3.9253 Y-4.7147 F60.00
G01 X4.0007 Y-4.7504 F60.00
G01 X4.0722 Y-4.7933 F60.00
G01 X4.1392 Y-4.8429 F60.00
G01 X4.2010 Y-4.8990 F60.00
G01 X4.2571 Y-4.9608 F60.00
G01 X4.3067 Y-5.0278 F60.00
G01 X4.3496 Y-5.0993 F60.00
G01 X4.3853 Y-5.1747 F60.00
G01 X4.4134 Y-5.2533 F60.00
G01 X4.4337 Y-5.3342 F60.00
G01 X4.4459 Y-5.4167 F60.00
G01 X4.4500 Y-5.5000 F60.00
G00 Z2.0000
G00 X13.0000 Y-22.0000
G01 F60.00
G01 Z-2.0000
G01 F60.00
G01 X13.0000 Y-22.0000 F60.00
G01 X13.0000 Y-22.0000 F60.00
G01 X13.0000 Y-22.0000 F60.00
G01 X13.0000 Y-22.0000 F60.00
G00 Z2.0000
G00 X13.0000 Y-26.7000
G01 F60.00
G01 Z-2.0000
G01 F60.00
G01 X13.0000 Y-26.7000 F60.00
G01 X13.0000 Y-26.7000 F60.00
G01 X13.0000 Y-26.7000 F60.00
G01 X13.0000 Y-26.7000 F60.00
G00 Z2.0000
G00 X13.0000 Y-31.4000
G01 F60.00
G01 Z-2.0000
G01 F60.00
G01 X13.0000 Y-31.4000 F60.00
G01 X13.0000 Y-31.4000 F60.00
G01 X13.0000 Y-31.4000 F60.00
G01 X13.0000 Y-31.4000 F60.00
G00 Z2.0000
G00 X13.0000 Y-44.0000
G01 F60.00
G01 Z-2.0000
G01 F60.00
G01 X13.0000 Y-44.0000 F60.00
G01 X13.0000 Y-44.0000 F60.00
G01 X13.0000 Y-44.0000 F60.00
G01 X13.0000 Y-44.0000 F60.00
G00 Z2.0000
G00 X13.0000 Y-48.7000
G01 F60.00
G01 Z-2.0000
G01 F60.00
G01 X13.0000 Y-48.7000 F60.00
G01 X13.0000 Y-48.7000 F60.00
G01 X13.0000 Y-48.7000 F60.00
G01 X13.0000 Y-48.7000 F60.00
G00 Z2.0000
G00 X13.0000 Y-53.4000
G01 F60.00
G01 Z-2.0000
G01 F60.00
G01 X13.0000 Y-53.4000 F60.00
G01 X13.0000 Y-53.4000 F60.00
G01 X13.0000 Y-53.4000 F60.00
G01 X13.0000 Y-53.4000 F60.00
G00 Z2.0000
G00 X4.4500 Y-94.5000
G01 F60.00
G01 Z-2.0000
G01 F60.00
G01 X4.4459 Y-94.5833 F60.00
G01 X4.4337 Y-94.6658 F60.00
G01 X4.4134 Y-94.7467 F60.00
G01 X4.3853 Y-94.8253 F60.00
G01 X4.3496 Y-94.9007 F60.00
G01 X4.3067 Y-94.9722 F60.00
G01 X4.2571 Y-95.0392 F60.00
G01 X4.2010 Y-95.1010 F60.00
G01 X4.1392 Y-95.1571 F60.00
G01 X4.0722 Y-95.2067 F60.00
G01 X4.0007 Y-95.2496 F60.00
G01 X3.9253 Y-95.2853 F60.00
G01 X3.8467 Y-95.3134 F60.00
G01 X3.7658 Y-95.3337 F60.00
G01 X3.6833 Y-95.3459 F60.00
G01 X3.6000 Y-95.3500 F60.00
G01 X3.5167 Y-95.3459 F60.00
G01 X3.4342 Y-95.3337 F60.00
G01 X3.3533 Y-95.3134 F60.00
G01 X3.2747 Y-95.2853 F60.00
G01 X3.1993 Y-95.2496 F60.00
G01 X3.1278 Y-95.2067 F60.00
G01 X3.0608 Y-95.1571 F60.00
G01 X2.9990 Y-95.1010 F60.00
G01 X2.9429 Y-95.0392 F60.00
G01 X2.8933 Y-94.9722 F60.00
G01 X2.8504 Y-94.9007 F60.00
G01 X2.8147 Y-94.8253 F60.00
G01 X2.7866 Y-94.7467 F60.00
G01 X2.7663 Y-94.6658 F60.00
G01 X2.7541 Y-94.5833 F60.00
G01 X2.7500 Y-94.5000 F60.00
G01 X2.7541 Y-94.4167 F60.00
G01 X2.7663 Y-94.3342 F60.00
G01 X2.7866 Y-94.2533 F60.00
G01 X2.8147 Y-94.1747 F60.00
G01 X2.8504 Y-94.0993 F60.00
G01 X2.8933 Y-94.0278 F60.00
G01 X2.9429 Y-93.9608 F60.00
G01 X2.9990 Y-93.8990 F60.00
G01 X3.0608 Y-93.8429 F60.00
G01 X3.1278 Y-93.7933 F60.00
G01 X3.1993 Y-93.7504 F60.00
G01 X3.2747 Y-93.7147 F60.00
G01 X3.3533 Y-93.6866 F60.00
G01 X3.4342 Y-93.6663 F60.00
G01 X3.5167 Y-93.6541 F60.00
G01 X3.6000 Y-93.6500 F60.00
G01 X3.6833 Y-93.6541 F60.00
G01 X3.7658 Y-93.6663 F60.00
G01 X3.8467 Y-93.6866 F60.00
G01 X3.9253 Y-93.7147 F60.00
G01 X4.0007 Y-93.7504 F60.00
G01 X4.0722 Y-93.7933 F60.00
G01 X4.1392 Y-93.8429 F60.00
G01 X4.2010 Y-93.8990 F60.00
G01 X4.2571 Y-93.9608 F60.00
G01 X4.3067 Y-94.0278 F60.00
G01 X4.3496 Y-94.0993 F60.00
G01 X4.3853 Y-94.1747 F60.00
G01 X4.4134 Y-94.2533 F60.00
G01 X4.4337 Y-94.3342 F60.00
G01 X4.4459 Y-94.4167 F60.00
G01 X4.4500 Y-94.5000 F60.00
G00 Z2.0000
G00 X149.6200 Y-89.3200
G01 F60.00
G01 Z-2.0000
G01 F60.00
G01 X149.6200 Y-89.3200 F60.00
G01 X149.6200 Y-89.3200 F60.00
G01 X149.6200 Y-89.3200 F60.00
G01 X149.6200 Y-89.3200 F60.00
G00 Z2.0000
G00 X149.6200 Y-86.7800
G01 F60.00
G01 Z-2.0000
G01 F60.00
G01 X149.6200 Y-86.7800 F60.00
G01 X149.6200 Y-86.7800 F60.00
G01 X149.6200 Y-86.7800 F60.00
G01 X149.6200 Y-86.7800 F60.00
G00 Z2.0000
G00 X149.6200 Y-84.2400
G01 F60.00
G01 Z-2.0000
G01 F60.00
G01 X149.6200 Y-84.2400 F60.00
G01 X149.6200 Y-84.2400 F60.00
G01 X149.6200 Y-84.2400 F60.00
G01 X149.6200 Y-84.2400 F60.00
G00 Z2.0000
G00 X149.6200 Y-81.7000
G01 F60.00
G01 Z-2.0000
G01 F60.00
G01 X149.6200 Y-81.7000 F60.00
G01 X149.6200 Y-81.7000 F60.00
G01 X149.6200 Y-81.7000 F60.00
G01 X149.6200 Y-81.7000 F60.00
G00 Z2.0000
G00 X149.6200 Y-79.1600
G01 F60.00
G01 Z-2.0000
G01 F60.00
G01 X149.6200 Y-79.1600 F60.00
G01 X149.6200 Y-79.1600 F60.00
G01 X149.6200 Y-79.1600 F60.00
G01 X149.6200 Y-79.1600 F60.00
G00 Z2.0000
G00 X149.6200 Y-76.6200
G01 F60.00
G01 Z-2.0000
G01 F60.00
G01 X149.6200 Y-76.6200 F60.00
G01 X149.6200 Y-76.6200 F60.00
G01 X149.6200 Y-76.6200 F60.00
G01 X149.6200 Y-76.6200 F60.00
G00 Z2.0000
G00 X149.6200 Y-74.0800
G01 F60.00
G01 Z-2.0000
G01 F60.00
G01 X149.6200 Y-74.0800 F60.00
G01 X149.6200 Y-74.0800 F60.00
G01 X149.6200 Y-74.0800 F60.00
G01 X149.6200 Y-74.0800 F60.00
G00 Z2.0000
G00 X149.6200 Y-71.5400
G01 F60.00
G01 Z-2.0000
G01 F60.00
G01 X149.6200 Y-71.5400 F60.00
G01 X149.6200 Y-71.5400 F60.00
G01 X149.6200 Y-71.5400 F60.00
G01 X149.6200 Y-71.5400 F60.00
G00 Z2.0000
G00 X149.6200 Y-69.0000
G01 F60.00
G01 Z-2.0000
G01 F60.00
G01 X149.6200 Y-69.0000 F60.00
G01 X149.6200 Y-69.0000 F60.00
G01 X149.6200 Y-69.0000 F60.00
G01 X149.6200 Y-69.0000 F60.00
G00 Z2.0000
G00 X149.6200 Y-66.4600
G01 F60.00
G01 Z-2.0000
G01 F60.00
G01 X149.6200 Y-66.4600 F60.00
G01 X149.6200 Y-66.4600 F60.00
G01 X149.6200 Y-66.4600 F60.00
G01 X149.6200 Y-66.4600 F60.00
G00 Z2.0000
G00 X149.6200 Y-63.9200
G01 F60.00
G01 Z-2.0000
G01 F60.00
G01 X149.6200 Y-63.9200 F60.00
G01 X149.6200 Y-63.9200 F60.00
G01 X149.6200 Y-63.9200 F60.00
G01 X149.6200 Y-63.9200 F60.00
G00 Z2.0000
G00 X149.6200 Y-61.3800
G01 F60.00
G01 Z-2.0000
G01 F60.00
G01 X149.6200 Y-61.3800 F60.00
G01 X149.6200 Y-61.3800 F60.00
G01 X149.6200 Y-61.3800 F60.00
G01 X149.6200 Y-61.3800 F60.00
G00 Z2.0000
G00 X149.6200 Y-58.8400
G01 F60.00
G01 Z-2.0000
G01 F60.00
G01 X149.6200 Y-58.8400 F60.00
G01 X149.6200 Y-58.8400 F60.00
G01 X149.6200 Y-58.8400 F60.00
G01 X149.6200 Y-58.8400 F60.00
G00 Z2.0000
G00 X149.6200 Y-56.3000
G01 F60.00
G01 Z-2.0000
G01 F60.00
G01 X149.6200 Y-56.3000 F60.00
G01 X149.6200 Y-56.3000 F60.00
G01 X149.6200 Y-56.3000 F60.00
G01 X149.6200 Y-56.3000 F60.00
G00 Z2.0000
G00 X149.6200 Y-53.7600
G01 F60.00
G01 Z-2.0000
G01 F60.00
G01 X149.6200 Y-53.7600 F60.00
G01 X149.6200 Y-53.7600 F60.00
G01 X149.6200 Y-53.7600 F60.00
G01 X149.6200 Y-53.7600 F60.00
G00 Z2.0000
G00 X149.6200 Y-51.2200
G01 F60.00
G01 Z-2.0000
G01 F60.00
G01 X149.6200 Y-51.2200 F60.00
G01 X149.6200 Y-51.2200 F60.00
G01 X149.6200 Y-51.2200 F60.00
G01 X149.6200 Y-51.2200 F60.00
G00 Z2.0000
G00 X149.6200 Y-48.6800
G01 F60.00
G01 Z-2.0000
G01 F60.00
G01 X149.6200 Y-48.6800 F60.00
G01 X149.6200 Y-48.6800 F60.00
G01 X149.6200 Y-48.6800 F60.00
G01 X149.6200 Y-48.6800 F60.00
G00 Z2.0000
G00 X149.6200 Y-46.1400
G01 F60.00
G01 Z-2.0000
G01 F60.00
G01 X149.6200 Y-46.1400 F60.00
G01 X149.6200 Y-46.1400 F60.00
G01 X149.6200 Y-46.1400 F60.00
G01 X149.6200 Y-46.1400 F60.00
G00 Z2.0000
G00 X149.6200 Y-43.6000
G01 F60.00
G01 Z-2.0000
G01 F60.00
G01 X149.6200 Y-43.6000 F60.00
G01 X149.6200 Y-43.6000 F60.00
G01 X149.6200 Y-43.6000 F60.00
G01 X149.6200 Y-43.6000 F60.00
G00 Z2.0000
G00 X149.6200 Y-41.0600
G01 F60.00
G01 Z-2.0000
G01 F60.00
G01 X149.6200 Y-41.0600 F60.00
G01 X149.6200 Y-41.0600 F60.00
G01 X149.6200 Y-41.0600 F60.00
G01 X149.6200 Y-41.0600 F60.00
G00 Z2.0000
G00 X149.6200 Y-38.5200
G01 F60.00
G01 Z-2.0000
G01 F60.00
G01 X149.6200 Y-38.5200 F60.00
G01 X149.6200 Y-38.5200 F60.00
G01 X149.6200 Y-38.5200 F60.00
G01 X149.6200 Y-38.5200 F60.00
G00 Z2.0000
G00 X149.6200 Y-35.9800
G01 F60.00
G01 Z-2.0000
G01 F60.00
G01 X149.6200 Y-35.9800 F60.00
G01 X149.6200 Y-35.9800 F60.00
G01 X149.6200 Y-35.9800 F60.00
G01 X149.6200 Y-35.9800 F60.00
G00 Z2.0000
G00 X149.6200 Y-33.4400
G01 F60.00
G01 Z-2.0000
G01 F60.00
G01 X149.6200 Y-33.4400 F60.00
G01 X149.6200 Y-33.4400 F60.00
G01 X149.6200 Y-33.4400 F60.00
G01 X149.6200 Y-33.4400 F60.00
G00 Z2.0000
G00 X149.6200 Y-30.9000
G01 F60.00
G01 Z-2.0000
G01 F60.00
G01 X149.6200 Y-30.9000 F60.00
G01 X149.6200 Y-30.9000 F60.00
G01 X149.6200 Y-30.9000 F60.00
G01 X149.6200 Y-30.9000 F60.00
G00 Z2.0000
G00 X149.6200 Y-28.3600
G01 F60.00
G01 Z-2.0000
G01 F60.00
G01 X149.6200 Y-28.3600 F60.00
G01 X149.6200 Y-28.3600 F60.00
G01 X149.6200 Y-28.3600 F60.00
G01 X149.6200 Y-28.3600 F60.00
G00 Z2.0000
G00 X149.6200 Y-25.8200
G01 F60.00
G01 Z-2.0000
G01 F60.00
G01 X149.6200 Y-25.8200 F60.00
G01 X149.6200 Y-25.8200 F60.00
G01 X149.6200 Y-25.8200 F60.00
G01 X149.6200 Y-25.8200 F60.00
G00 Z2.0000
G00 X149.6200 Y-23.2800
G01 F60.00
G01 Z-2.0000
G01 F60.00
G01 X149.6200 Y-23.2800 F60.00
G01 X149.6200 Y-23.2800 F60.00
G01 X149.6200 Y-23.2800 F60.00
G01 X149.6200 Y-23.2800 F60.00
G00 Z2.0000
G00 X149.6200 Y-20.7400
G01 F60.00
G01 Z-2.0000
G01 F60.00
G01 X149.6200 Y-20.7400 F60.00
G01 X149.6200 Y-20.7400 F60.00
G01 X149.6200 Y-20.7400 F60.00
G01 X149.6200 Y-20.7400 F60.00
G00 Z2.0000
G00 X149.6200 Y-18.2000
G01 F60.00
G01 Z-2.0000
G01 F60.00
G01 X149.6200 Y-18.2000 F60.00
G01 X149.6200 Y-18.2000 F60.00
G01 X149.6200 Y-18.2000 F60.00
G01 X149.6200 Y-18.2000 F60.00
G00 Z2.0000
G00 X149.6200 Y-15.6600
G01 F60.00
G01 Z-2.0000
G01 F60.00
G01 X149.6200 Y-15.6600 F60.00
G01 X149.6200 Y-15.6600 F60.00
G01 X149.6200 Y-15.6600 F60.00
G01 X149.6200 Y-15.6600 F60.00
G00 Z2.0000
G00 X149.6200 Y-13.1200
G01 F60.00
G01 Z-2.0000
G01 F60.00
G01 X149.6200 Y-13.1200 F60.00
G01 X149.6200 Y-13.1200 F60.00
G01 X149.6200 Y-13.1200 F60.00
G01 X149.6200 Y-13.1200 F60.00
G00 Z2.0000
G00 X149.6200 Y-10.5800
G01 F60.00
G01 Z-2.0000
G01 F60.00
G01 X149.6200 Y-10.5800 F60.00
G01 X149.6200 Y-10.5800 F60.00
G01 X149.6200 Y-10.5800 F60.00
G01 X149.6200 Y-10.5800 F60.00
G00 Z2.0000
G00 X154.7000 Y-10.5800
G01 F60.00
G01 Z-2.0000
G01 F60.00
G01 X154.7000 Y-10.5800 F60.00
G01 X154.7000 Y-10.5800 F60.00
G01 X154.7000 Y-10.5800 F60.00
G01 X154.7000 Y-10.5800 F60.00
G00 Z2.0000
G00 X154.7000 Y-13.1200
G01 F60.00
G01 Z-2.0000
G01 F60.00
G01 X154.7000 Y-13.1200 F60.00
G01 X154.7000 Y-13.1200 F60.00
G01 X154.7000 Y-13.1200 F60.00
G01 X154.7000 Y-13.1200 F60.00
G00 Z2.0000
G00 X154.7000 Y-15.6600
G01 F60.00
G01 Z-2.0000
G01 F60.00
G01 X154.7000 Y-15.6600 F60.00
G01 X154.7000 Y-15.6600 F60.00
G01 X154.7000 Y-15.6600 F60.00
G01 X154.7000 Y-15.6600 F60.00
G00 Z2.0000
G00 X154.7000 Y-18.2000
G01 F60.00
G01 Z-2.0000
G01 F60.00
G01 X154.7000 Y-18.2000 F60.00
G01 X154.7000 Y-18.2000 F60.00
G01 X154.7000 Y-18.2000 F60.00
G01 X154.7000 Y-18.2000 F60.00
G00 Z2.0000
G00 X154.7000 Y-20.7400
G01 F60.00
G01 Z-2.0000
G01 F60.00
G01 X154.7000 Y-20.7400 F60.00
G01 X154.7000 Y-20.7400 F60.00
G01 X154.7000 Y-20.7400 F60.00
G01 X154.7000 Y-20.7400 F60.00
G00 Z2.0000
G00 X154.7000 Y-23.2800
G01 F60.00
G01 Z-2.0000
G01 F60.00
G01 X154.7000 Y-23.2800 F60.00
G01 X154.7000 Y-23.2800 F60.00
G01 X154.7000 Y-23.2800 F60.00
G01 X154.7000 Y-23.2800 F60.00
G00 Z2.0000
G00 X154.7000 Y-25.8200
G01 F60.00
G01 Z-2.0000
G01 F60.00
G01 X154.7000 Y-25.8200 F60.00
G01 X154.7000 Y-25.8200 F60.00
G01 X154.7000 Y-25.8200 F60.00
G01 X154.7000 Y-25.8200 F60.00
G00 Z2.0000
G00 X154.7000 Y-28.3600
G01 F60.00
G01 Z-2.0000
G01 F60.00
G01 X154.7000 Y-28.3600 F60.00
G01 X154.7000 Y-28.3600 F60.00
G01 X154.7000 Y-28.3600 F60.00
G01 X154.7000 Y-28.3600 F60.00
G00 Z2.0000
G00 X154.7000 Y-30.9000
G01 F60.00
G01 Z-2.0000
G01 F60.00
G01 X154.7000 Y-30.9000 F60.00
G01 X154.7000 Y-30.9000 F60.00
G01 X154.7000 Y-30.9000 F60.00
G01 X154.7000 Y-30.9000 F60.00
G00 Z2.0000
G00 X154.7000 Y-33.4400
G01 F60.00
G01 Z-2.0000
G01 F60.00
G01 X154.7000 Y-33.4400 F60.00
G01 X154.7000 Y-33.4400 F60.00
G01 X154.7000 Y-33.4400 F60.00
G01 X154.7000 Y-33.4400 F60.00
G00 Z2.0000
G00 X154.7000 Y-35.9800
G01 F60.00
G01 Z-2.0000
G01 F60.00
G01 X154.7000 Y-35.9800 F60.00
G01 X154.7000 Y-35.9800 F60.00
G01 X154.7000 Y-35.9800 F60.00
G01 X154.7000 Y-35.9800 F60.00
G00 Z2.0000
G00 X154.7000 Y-38.5200
G01 F60.00
G01 Z-2.0000
G01 F60.00
G01 X154.7000 Y-38.5200 F60.00
G01 X154.7000 Y-38.5200 F60.00
G01 X154.7000 Y-38.5200 F60.00
G01 X154.7000 Y-38.5200 F60.00
G00 Z2.0000
G00 X154.7000 Y-41.0600
G01 F60.00
G01 Z-2.0000
G01 F60.00
G01 X154.7000 Y-41.0600 F60.00
G01 X154.7000 Y-41.0600 F60.00
G01 X154.7000 Y-41.0600 F60.00
G01 X154.7000 Y-41.0600 F60.00
G00 Z2.0000
G00 X154.7000 Y-43.6000
G01 F60.00
G01 Z-2.0000
G01 F60.00
G01 X154.7000 Y-43.6000 F60.00
G01 X154.7000 Y-43.6000 F60.00
G01 X154.7000 Y-43.6000 F60.00
G01 X154.7000 Y-43.6000 F60.00
G00 Z2.0000
G00 X154.7000 Y-46.1400
G01 F60.00
G01 Z-2.0000
G01 F60.00
G01 X154.7000 Y-46.1400 F60.00
G01 X154.7000 Y-46.1400 F60.00
G01 X154.7000 Y-46.1400 F60.00
G01 X154.7000 Y-46.1400 F60.00
G00 Z2.0000
G00 X154.7000 Y-48.6800
G01 F60.00
G01 Z-2.0000
G01 F60.00
G01 X154.7000 Y-48.6800 F60.00
G01 X154.7000 Y-48.6800 F60.00
G01 X154.7000 Y-48.6800 F60.00
G01 X154.7000 Y-48.6800 F60.00
G00 Z2.0000
G00 X154.7000 Y-51.2200
G01 F60.00
G01 Z-2.0000
G01 F60.00
G01 X154.7000 Y-51.2200 F60.00
G01 X154.7000 Y-51.2200 F60.00
G01 X154.7000 Y-51.2200 F60.00
G01 X154.7000 Y-51.2200 F60.00
G00 Z2.0000
G00 X154.7000 Y-53.7600
G01 F60.00
G01 Z-2.0000
G01 F60.00
G01 X154.7000 Y-53.7600 F60.00
G01 X154.7000 Y-53.7600 F60.00
G01 X154.7000 Y-53.7600 F60.00
G01 X154.7000 Y-53.7600 F60.00
G00 Z2.0000
G00 X154.7000 Y-56.3000
G01 F60.00
G01 Z-2.0000
G01 F60.00
G01 X154.7000 Y-56.3000 F60.00
G01 X154.7000 Y-56.3000 F60.00
G01 X154.7000 Y-56.3000 F60.00
G01 X154.7000 Y-56.3000 F60.00
G00 Z2.0000
G00 X154.7000 Y-58.8400
G01 F60.00
G01 Z-2.0000
G01 F60.00
G01 X154.7000 Y-58.8400 F60.00
G01 X154.7000 Y-58.8400 F60.00
G01 X154.7000 Y-58.8400 F60.00
G01 X154.7000 Y-58.8400 F60.00
G00 Z2.0000
G00 X154.7000 Y-61.3800
G01 F60.00
G01 Z-2.0000
G01 F60.00
G01 X154.7000 Y-61.3800 F60.00
G01 X154.7000 Y-61.3800 F60.00
G01 X154.7000 Y-61.3800 F60.00
G01 X154.7000 Y-61.3800 F60.00
G00 Z2.0000
G00 X154.7000 Y-63.9200
G01 F60.00
G01 Z-2.0000
G01 F60.00
G01 X154.7000 Y-63.9200 F60.00
G01 X154.7000 Y-63.9200 F60.00
G01 X154.7000 Y-63.9200 F60.00
G01 X154.7000 Y-63.9200 F60.00
G00 Z2.0000
G00 X154.7000 Y-66.4600
G01 F60.00
G01 Z-2.0000
G01 F60.00
G01 X154.7000 Y-66.4600 F60.00
G01 X154.7000 Y-66.4600 F60.00
G01 X154.7000 Y-66.4600 F60.00
G01 X154.7000 Y-66.4600 F60.00
G00 Z2.0000
G00 X154.7000 Y-69.0000
G01 F60.00
G01 Z-2.0000
G01 F60.00
G01 X154.7000 Y-69.0000 F60.00
G01 X154.7000 Y-69.0000 F60.00
G01 X154.7000 Y-69.0000 F60.00
G01 X154.7000 Y-69.0000 F60.00
G00 Z2.0000
G00 X154.7000 Y-71.5400
G01 F60.00
G01 Z-2.0000
G01 F60.00
G01 X154.7000 Y-71.5400 F60.00
G01 X154.7000 Y-71.5400 F60.00
G01 X154.7000 Y-71.5400 F60.00
G01 X154.7000 Y-71.5400 F60.00
G00 Z2.0000
G00 X154.7000 Y-74.0800
G01 F60.00
G01 Z-2.0000
G01 F60.00
G01 X154.7000 Y-74.0800 F60.00
G01 X154.7000 Y-74.0800 F60.00
G01 X154.7000 Y-74.0800 F60.00
G01 X154.7000 Y-74.0800 F60.00
G00 Z2.0000
G00 X154.7000 Y-76.6200
G01 F60.00
G01 Z-2.0000
G01 F60.00
G01 X154.7000 Y-76.6200 F60.00
G01 X154.7000 Y-76.6200 F60.00
G01 X154.7000 Y-76.6200 F60.00
G01 X154.7000 Y-76.6200 F60.00
G00 Z2.0000
G00 X154.7000 Y-79.1600
G01 F60.00
G01 Z-2.0000
G01 F60.00
G01 X154.7000 Y-79.1600 F60.00
G01 X154.7000 Y-79.1600 F60.00
G01 X154.7000 Y-79.1600 F60.00
G01 X154.7000 Y-79.1600 F60.00
G00 Z2.0000
G00 X154.7000 Y-81.7000
G01 F60.00
G01 Z-2.0000
G01 F60.00
G01 X154.7000 Y-81.7000 F60.00
G01 X154.7000 Y-81.7000 F60.00
G01 X154.7000 Y-81.7000 F60.00
G01 X154.7000 Y-81.7000 F60.00
G00 Z2.0000
G00 X154.7000 Y-84.2400
G01 F60.00
G01 Z-2.0000
G01 F60.00
G01 X154.7000 Y-84.2400 F60.00
G01 X154.7000 Y-84.2400 F60.00
G01 X154.7000 Y-84.2400 F60.00
G01 X154.7000 Y-84.2400 F60.00
G00 Z2.0000
G00 X154.7000 Y-86.7800
G01 F60.00
G01 Z-2.0000
G01 F60.00
G01 X154.7000 Y-86.7800 F60.00
G01 X154.7000 Y-86.7800 F60.00
G01 X154.7000 Y-86.7800 F60.00
G01 X154.7000 Y-86.7800 F60.00
G00 Z2.0000
G00 X154.7000 Y-89.3200
G01 F60.00
G01 Z-2.0000
G01 F60.00
G01 X154.7000 Y-89.3200 F60.00
G01 X154.7000 Y-89.3200 F60.00
G01 X154.7000 Y-89.3200 F60.00
G01 X154.7000 Y-89.3200 F60.00
G00 Z2.0000
G00 X158.0900 Y-94.4000
G01 F60.00
G01 Z-2.0000
G01 F60.00
G01 X158.0859 Y-94.4833 F60.00
G01 X158.0737 Y-94.5658 F60.00
G01 X158.0534 Y-94.6467 F60.00
G01 X158.0253 Y-94.7253 F60.00
G01 X157.9896 Y-94.8007 F60.00
G01 X157.9467 Y-94.8722 F60.00
G01 X157.8971 Y-94.9392 F60.00
G01 X157.8410 Y-95.0010 F60.00
G01 X157.7792 Y-95.0571 F60.00
G01 X157.7122 Y-95.1067 F60.00
G01 X157.6407 Y-95.1496 F60.00
G01 X157.5653 Y-95.1853 F60.00
G01 X157.4867 Y-95.2134 F60.00
G01 X157.4058 Y-95.2337 F60.00
G01 X157.3233 Y-95.2459 F60.00
G01 X157.2400 Y-95.2500 F60.00
G01 X157.1567 Y-95.2459 F60.00
G01 X157.0742 Y-95.2337 F60.00
G01 X156.9933 Y-95.2134 F60.00
G01 X156.9147 Y-95.1853 F60.00
G01 X156.8393 Y-95.1496 F60.00
G01 X156.7678 Y-95.1067 F60.00
G01 X156.7008 Y-95.0571 F60.00
G01 X156.6390 Y-95.0010 F60.00
G01 X156.5829 Y-94.9392 F60.00
G01 X156.5333 Y-94.8722 F60.00
G01 X156.4904 Y-94.8007 F60.00
G01 X156.4547 Y-94.7253 F60.00
G01 X156.4266 Y-94.6467 F60.00
G01 X156.4063 Y-94.5658 F60.00
G01 X156.3941 Y-94.4833 F60.00
G01 X156.3900 Y-94.4000 F60.00
G01 X156.3941 Y-94.3167 F60.00
G01 X156.4063 Y-94.2342 F60.00
G01 X156.4266 Y-94.1533 F60.00
G01 X156.4547 Y-94.0747 F60.00
G01 X156.4904 Y-93.9993 F60.00
G01 X156.5333 Y-93.9278 F60.00
G01 X156.5829 Y-93.8608 F60.00
G01 X156.6390 Y-93.7990 F60.00
G01 X156.7008 Y-93.7429 F60.00
G01 X156.7678 Y-93.6933 F60.00
G01 X156.8393 Y-93.6504 F60.00
G01 X156.9147 Y-93.6147 F60.00
G01 X156.9933 Y-93.5866 F60.00
G01 X157.0742 Y-93.5663 F60.00
G01 X157.1567 Y-93.5541 F60.00
G01 X157.2400 Y-93.5500 F60.00
G01 X157.3233 Y-93.5541 F60.00
G01 X157.4058 Y-93.5663 F60.00
G01 X157.4867 Y-93.5866 F60.00
G01 X157.5653 Y-93.6147 F60.00
G01 X157.6407 Y-93.6504 F60.00
G01 X157.7122 Y-93.6933 F60.00
G01 X157.7792 Y-93.7429 F60.00
G01 X157.8410 Y-93.7990 F60.00
G01 X157.8971 Y-93.8608 F60.00
G01 X157.9467 Y-93.9278 F60.00
G01 X157.9896 Y-93.9993 F60.00
G01 X158.0253 Y-94.0747 F60.00
G01 X158.0534 Y-94.1533 F60.00
G01 X158.0737 Y-94.2342 F60.00
G01 X158.0859 Y-94.3167 F60.00
G01 X158.0900 Y-94.4000 F60.00
G00 Z2.0000
G00 X158.0900 Y-5.5000
G01 F60.00
G01 Z-2.0000
G01 F60.00
G01 X158.0859 Y-5.5833 F60.00
G01 X158.0737 Y-5.6658 F60.00
G01 X158.0534 Y-5.7467 F60.00
G01 X158.0253 Y-5.8253 F60.00
G01 X157.9896 Y-5.9007 F60.00
G01 X157.9467 Y-5.9722 F60.00
G01 X157.8971 Y-6.0392 F60.00
G01 X157.8410 Y-6.1010 F60.00
G01 X157.7792 Y-6.1571 F60.00
G01 X157.7122 Y-6.2067 F60.00
G01 X157.6407 Y-6.2496 F60.00
G01 X157.5653 Y-6.2853 F60.00
G01 X157.4867 Y-6.3134 F60.00
G01 X157.4058 Y-6.3337 F60.00
G01 X157.3233 Y-6.3459 F60.00
G01 X157.2400 Y-6.3500 F60.00
G01 X157.1567 Y-6.3459 F60.00
G01 X157.0742 Y-6.3337 F60.00
G01 X156.9933 Y-6.3134 F60.00
G01 X156.9147 Y-6.2853 F60.00
G01 X156.8393 Y-6.2496 F60.00
G01 X156.7678 Y-6.2067 F60.00
G01 X156.7008 Y-6.1571 F60.00
G01 X156.6390 Y-6.1010 F60.00
G01 X156.5829 Y-6.0392 F60.00
G01 X156.5333 Y-5.9722 F60.00
G01 X156.4904 Y-5.9007 F60.00
G01 X156.4547 Y-5.8253 F60.00
G01 X156.4266 Y-5.7467 F60.00
G01 X156.4063 Y-5.6658 F60.00
G01 X156.3941 Y-5.5833 F60.00
G01 X156.3900 Y-5.5000 F60.00
G01 X156.3941 Y-5.4167 F60.00
G01 X156.4063 Y-5.3342 F60.00
G01 X156.4266 Y-5.2533 F60.00
G01 X156.4547 Y-5.1747 F60.00
G01 X156.4904 Y-5.0993 F60.00
G01 X156.5333 Y-5.0278 F60.00
G01 X156.5829 Y-4.9608 F60.00
G01 X156.6390 Y-4.8990 F60.00
G01 X156.7008 Y-4.8429 F60.00
G01 X156.7678 Y-4.7933 F60.00
G01 X156.8393 Y-4.7504 F60.00
G01 X156.9147 Y-4.7147 F60.00
G01 X156.9933 Y-4.6866 F60.00
G01 X157.0742 Y-4.6663 F60.00
G01 X157.1567 Y-4.6541 F60.00
G01 X157.2400 Y-4.6500 F60.00
G01 X157.3233 Y-4.6541 F60.00
G01 X157.4058 Y-4.6663 F60.00
G01 X157.4867 Y-4.6866 F60.00
G01 X157.5653 Y-4.7147 F60.00
G01 X157.6407 Y-4.7504 F60.00
G01 X157.7122 Y-4.7933 F60.00
G01 X157.7792 Y-4.8429 F60.00
G01 X157.8410 Y-4.8990 F60.00
G01 X157.8971 Y-4.9608 F60.00
G01 X157.9467 Y-5.0278 F60.00
G01 X157.9896 Y-5.0993 F60.00
G01 X158.0253 Y-5.1747 F60.00
G01 X158.0534 Y-5.2533 F60.00
G01 X158.0737 Y-5.3342 F60.00
G01 X158.0859 Y-5.4167 F60.00
G01 X158.0900 Y-5.5000 F60.00
G00 Z2.0000
M05
G00 Z2.0000
G00 Z15.00


