(Exported by FreeCAD)
(Post Processor: grbl_post)
(Output Time:2021-04-15 16:45:06.504366)
(Begin preamble)
G17 G90
G21
(Begin operation: Fixture)
(Path: Fixture)
G54
(Finish operation: Fixture)
(Begin operation: TC: 3.175mm Endmill)
(Path: TC: 3.175mm Endmill)
(TC: 3.175mm Endmill)
(Begin toolchange)
( M6 T1.0 )
M3 S12000.0
(Finish operation: TC: 3.175mm Endmill)
(Begin operation: Adaptive00-LeftMountPocket)
(Path: Adaptive00-LeftMountPocket)
(Adaptive)
(Helix to depth: 1.000000)
G0 Z8.000
G0 X45.815 Y8.784 Z8.000
G0 X45.815 Y8.784 Z6.000
G1 X45.815 Y8.784 Z3.000 F60.000
G1 X45.815 Y8.784 Z3.000 F60.000
G1 X46.015 Y8.670 Z2.980 F60.000
G1 X46.234 Y8.598 Z2.959 F60.000
G1 X46.463 Y8.570 Z2.939 F60.000
G1 X46.693 Y8.587 Z2.918 F60.000
G1 X46.916 Y8.648 Z2.898 F60.000
G1 X47.122 Y8.752 Z2.878 F60.000
G1 X47.303 Y8.894 Z2.857 F60.000
G1 X47.454 Y9.069 Z2.837 F60.000
G1 X47.568 Y9.269 Z2.817 F60.000
G1 X47.640 Y9.488 Z2.796 F60.000
G1 X47.668 Y9.717 Z2.776 F60.000
G1 X47.651 Y9.947 Z2.755 F60.000
G1 X47.590 Y10.170 Z2.735 F60.000
G1 X47.486 Y10.376 Z2.715 F60.000
G1 X47.344 Y10.557 Z2.694 F60.000
G1 X47.169 Y10.708 Z2.674 F60.000
G1 X46.969 Y10.822 Z2.654 F60.000
G1 X46.750 Y10.894 Z2.633 F60.000
G1 X46.521 Y10.922 Z2.613 F60.000
G1 X46.291 Y10.905 Z2.592 F60.000
G1 X46.069 Y10.844 Z2.572 F60.000
G1 X45.863 Y10.740 Z2.552 F60.000
G1 X45.681 Y10.598 Z2.531 F60.000
G1 X45.530 Y10.423 Z2.511 F60.000
G1 X45.416 Y10.223 Z2.490 F60.000
G1 X45.344 Y10.004 Z2.470 F60.000
G1 X45.316 Y9.775 Z2.450 F60.000
G1 X45.333 Y9.545 Z2.429 F60.000
G1 X45.394 Y9.323 Z2.409 F60.000
G1 X45.498 Y9.117 Z2.389 F60.000
G1 X45.640 Y8.935 Z2.368 F60.000
G1 X45.815 Y8.784 Z2.348 F60.000
G1 X46.015 Y8.670 Z2.327 F60.000
G1 X46.234 Y8.598 Z2.307 F60.000
G1 X46.463 Y8.570 Z2.287 F60.000
G1 X46.693 Y8.587 Z2.266 F60.000
G1 X46.916 Y8.648 Z2.246 F60.000
G1 X47.122 Y8.752 Z2.225 F60.000
G1 X47.303 Y8.894 Z2.205 F60.000
G1 X47.454 Y9.069 Z2.185 F60.000
G1 X47.568 Y9.269 Z2.164 F60.000
G1 X47.640 Y9.488 Z2.144 F60.000
G1 X47.668 Y9.717 Z2.124 F60.000
G1 X47.651 Y9.947 Z2.103 F60.000
G1 X47.590 Y10.170 Z2.083 F60.000
G1 X47.486 Y10.376 Z2.062 F60.000
G1 X47.344 Y10.557 Z2.042 F60.000
G1 X47.169 Y10.708 Z2.022 F60.000
G1 X46.969 Y10.822 Z2.001 F60.000
G1 X46.750 Y10.894 Z1.981 F60.000
G1 X46.521 Y10.922 Z1.961 F60.000
G1 X46.291 Y10.905 Z1.940 F60.000
G1 X46.069 Y10.844 Z1.920 F60.000
G1 X45.863 Y10.740 Z1.899 F60.000
G1 X45.681 Y10.598 Z1.879 F60.000
G1 X45.530 Y10.423 Z1.859 F60.000
G1 X45.416 Y10.223 Z1.838 F60.000
G1 X45.344 Y10.004 Z1.818 F60.000
G1 X45.316 Y9.775 Z1.797 F60.000
G1 X45.333 Y9.545 Z1.777 F60.000
G1 X45.394 Y9.323 Z1.757 F60.000
G1 X45.498 Y9.117 Z1.736 F60.000
G1 X45.640 Y8.935 Z1.716 F60.000
G1 X45.815 Y8.784 Z1.696 F60.000
G1 X46.015 Y8.670 Z1.675 F60.000
G1 X46.234 Y8.598 Z1.655 F60.000
G1 X46.463 Y8.570 Z1.634 F60.000
G1 X46.693 Y8.587 Z1.614 F60.000
G1 X46.916 Y8.648 Z1.594 F60.000
G1 X47.122 Y8.752 Z1.573 F60.000
G1 X47.303 Y8.894 Z1.553 F60.000
G1 X47.454 Y9.069 Z1.532 F60.000
G1 X47.568 Y9.269 Z1.512 F60.000
G1 X47.640 Y9.488 Z1.492 F60.000
G1 X47.668 Y9.717 Z1.471 F60.000
G1 X47.651 Y9.947 Z1.451 F60.000
G1 X47.590 Y10.170 Z1.431 F60.000
G1 X47.486 Y10.376 Z1.410 F60.000
G1 X47.344 Y10.557 Z1.390 F60.000
G1 X47.169 Y10.708 Z1.369 F60.000
G1 X46.969 Y10.822 Z1.349 F60.000
G1 X46.750 Y10.894 Z1.329 F60.000
G1 X46.521 Y10.922 Z1.308 F60.000
G1 X46.291 Y10.905 Z1.288 F60.000
G1 X46.069 Y10.844 Z1.268 F60.000
G1 X45.863 Y10.740 Z1.247 F60.000
G1 X45.681 Y10.598 Z1.227 F60.000
G1 X45.530 Y10.423 Z1.206 F60.000
G1 X45.416 Y10.223 Z1.186 F60.000
G1 X45.344 Y10.004 Z1.166 F60.000
G1 X45.316 Y9.775 Z1.145 F60.000
G1 X45.333 Y9.545 Z1.125 F60.000
G1 X45.394 Y9.323 Z1.104 F60.000
G1 X45.498 Y9.117 Z1.084 F60.000
G1 X45.640 Y8.935 Z1.064 F60.000
G1 X45.815 Y8.784 Z1.043 F60.000
G1 X46.015 Y8.670 Z1.023 F60.000
G1 X46.234 Y8.598 Z1.003 F60.000
G1 X46.463 Y8.570 Z1.000 F96.000
G1 X46.693 Y8.587 Z1.000 F96.000
G1 X46.916 Y8.648 Z1.000 F96.000
G1 X47.122 Y8.752 Z1.000 F96.000
G1 X47.303 Y8.894 Z1.000 F96.000
G1 X47.454 Y9.069 Z1.000 F96.000
G1 X47.568 Y9.269 Z1.000 F96.000
G1 X47.640 Y9.488 Z1.000 F96.000
G1 X47.668 Y9.717 Z1.000 F96.000
G1 X47.651 Y9.947 Z1.000 F96.000
G1 X47.590 Y10.170 Z1.000 F96.000
G1 X47.486 Y10.376 Z1.000 F96.000
G1 X47.344 Y10.557 Z1.000 F96.000
G1 X47.169 Y10.708 Z1.000 F96.000
G1 X46.969 Y10.822 Z1.000 F96.000
G1 X46.750 Y10.894 Z1.000 F96.000
G1 X46.521 Y10.922 Z1.000 F96.000
G1 X46.291 Y10.905 Z1.000 F96.000
G1 X46.069 Y10.844 Z1.000 F96.000
G1 X45.863 Y10.740 Z1.000 F96.000
G1 X45.681 Y10.598 Z1.000 F96.000
G1 X45.530 Y10.423 Z1.000 F96.000
G1 X45.416 Y10.223 Z1.000 F96.000
G1 X45.344 Y10.004 Z1.000 F96.000
G1 X45.316 Y9.775 Z1.000 F96.000
G1 X45.333 Y9.545 Z1.000 F96.000
G1 X45.394 Y9.323 Z1.000 F96.000
G1 X45.498 Y9.117 Z1.000 F96.000
G1 X45.640 Y8.935 Z1.000 F96.000
G1 X45.815 Y8.784 Z1.000 F96.000
G1 X46.015 Y8.670 Z1.000 F96.000
G1 X46.234 Y8.598 Z1.000 F96.000
(Adaptive - depth: 1.000000)
G1 X46.492 Y8.560 F96.000
G1 X46.536 Y8.512 F96.000
G1 X46.710 Y8.448 F96.000
G1 X46.889 Y8.437 F96.000
G1 X47.008 Y8.448 F96.000
G1 X47.369 Y8.595 F96.000
G1 X47.540 Y8.730 F96.000
G1 X47.635 Y8.829 F96.000
G1 X47.730 Y8.952 F96.000
G1 X47.837 Y9.139 F96.000
G1 X47.925 Y9.369 F96.000
G1 X47.964 Y9.583 F96.000
G1 X47.976 Y9.770 F96.000
G1 X47.960 Y9.984 F96.000
G1 X47.905 Y10.210 F96.000
G1 X47.821 Y10.405 F96.000
G1 X47.722 Y10.575 F96.000
G1 X47.591 Y10.746 F96.000
G1 X47.413 Y10.913 F96.000
G1 X47.230 Y11.036 F96.000
G1 X47.052 Y11.123 F96.000
G1 X46.841 Y11.187 F96.000
G1 X46.631 Y11.218 F96.000
G1 X46.421 Y11.222 F96.000
G1 X46.206 Y11.198 F96.000
G1 X45.972 Y11.135 F96.000
G1 X45.770 Y11.048 F96.000
G1 X45.579 Y10.925 F96.000
G1 X45.429 Y10.798 F96.000
G1 X45.286 Y10.635 F96.000
G1 X45.171 Y10.456 F96.000
G1 X45.083 Y10.266 F96.000
G1 X45.020 Y10.048 F96.000
G1 X44.992 Y9.833 F96.000
G1 X44.992 Y9.619 F96.000
G1 X45.024 Y9.401 F96.000
G1 X45.087 Y9.194 F96.000
G1 X45.179 Y9.000 F96.000
G1 X45.298 Y8.817 F96.000
G1 X45.440 Y8.659 F96.000
G1 X45.603 Y8.520 F96.000
G1 X45.778 Y8.397 F96.000
G1 X46.024 Y8.258 F96.000
G1 X46.488 Y8.099 F96.000
G1 X46.667 Y8.079 F96.000
G1 X47.056 Y8.119 F96.000
G1 X47.393 Y8.234 F96.000
G1 X47.556 Y8.325 F96.000
G1 X47.687 Y8.417 F96.000
G1 X47.837 Y8.560 F96.000
G1 X47.984 Y8.734 F96.000
G1 X48.119 Y8.956 F96.000
G1 X48.214 Y9.167 F96.000
G1 X48.282 Y9.397 F96.000
G1 X48.313 Y9.619 F96.000
G1 X48.317 Y9.849 F96.000
G1 X48.286 Y10.079 F96.000
G1 X48.226 Y10.302 F96.000
G1 X48.139 Y10.520 F96.000
G1 X48.016 Y10.742 F96.000
G1 X47.861 Y10.952 F96.000
G1 X47.679 Y11.127 F96.000
G1 X47.516 Y11.254 F96.000
G1 X47.306 Y11.369 F96.000
G1 X47.091 Y11.456 F96.000
G1 X46.857 Y11.524 F96.000
G1 X46.595 Y11.560 F96.000
G1 X46.349 Y11.563 F96.000
G1 X46.099 Y11.528 F96.000
G1 X45.889 Y11.472 F96.000
G1 X45.671 Y11.381 F96.000
G1 X45.464 Y11.266 F96.000
G1 X45.246 Y11.103 F96.000
G1 X45.071 Y10.925 F96.000
G1 X44.937 Y10.750 F96.000
G1 X44.813 Y10.540 F96.000
G1 X44.726 Y10.321 F96.000
G1 X44.667 Y10.095 F96.000
G1 X44.631 Y9.861 F96.000
G1 X44.631 Y9.603 F96.000
G1 X44.659 Y9.361 F96.000
G1 X44.718 Y9.123 F96.000
G1 X44.810 Y8.893 F96.000
G1 X44.933 Y8.683 F96.000
G1 X45.063 Y8.508 F96.000
G1 X45.222 Y8.337 F96.000
G1 X45.429 Y8.159 F96.000
G1 X45.679 Y7.984 F96.000
G1 X45.944 Y7.853 F96.000
G1 X46.171 Y7.774 F96.000
G1 X46.405 Y7.722 F96.000
G1 X46.659 Y7.702 F96.000
G1 X46.901 Y7.710 F96.000
G1 X47.163 Y7.758 F96.000
G1 X47.393 Y7.825 F96.000
G1 X47.619 Y7.937 F96.000
G1 X47.806 Y8.056 F96.000
G1 X47.992 Y8.198 F96.000
G1 X48.190 Y8.401 F96.000
G1 X48.353 Y8.611 F96.000
G1 X48.476 Y8.837 F96.000
G1 X48.563 Y9.048 F96.000
G1 X48.635 Y9.290 F96.000
G1 X48.675 Y9.560 F96.000
G1 X48.683 Y9.806 F96.000
G1 X48.659 Y10.060 F96.000
G1 X48.603 Y10.313 F96.000
G1 X48.524 Y10.556 F96.000
G1 X48.401 Y10.817 F96.000
G1 X48.258 Y11.044 F96.000
G1 X48.079 Y11.246 F96.000
G1 X47.909 Y11.401 F96.000
G1 X47.706 Y11.556 F96.000
G1 X47.456 Y11.694 F96.000
G1 X47.222 Y11.794 F96.000
G1 X46.964 Y11.869 F96.000
G1 X46.702 Y11.917 F96.000
G1 X46.417 Y11.933 F96.000
G1 X46.143 Y11.909 F96.000
G1 X45.905 Y11.861 F96.000
G1 X45.651 Y11.778 F96.000
G1 X45.417 Y11.667 F96.000
G1 X45.198 Y11.532 F96.000
G1 X44.992 Y11.373 F96.000
G1 X44.790 Y11.171 F96.000
G1 X44.623 Y10.960 F96.000
G1 X44.480 Y10.730 F96.000
G1 X44.369 Y10.476 F96.000
G1 X44.298 Y10.250 F96.000
G1 X44.250 Y9.992 F96.000
G1 X44.230 Y9.738 F96.000
G1 X44.246 Y9.460 F96.000
G1 X44.290 Y9.202 F96.000
G1 X44.365 Y8.944 F96.000
G1 X44.472 Y8.694 F96.000
G1 X44.603 Y8.464 F96.000
G1 X44.758 Y8.246 F96.000
G1 X44.952 Y8.020 F96.000
G1 X45.183 Y7.813 F96.000
G1 X45.417 Y7.643 F96.000
G1 X45.683 Y7.508 F96.000
G1 X45.897 Y7.421 F96.000
G1 X46.155 Y7.345 F96.000
G1 X46.448 Y7.298 F96.000
G1 X46.738 Y7.282 F96.000
G1 X47.020 Y7.310 F96.000
G1 X47.254 Y7.357 F96.000
G1 X47.508 Y7.440 F96.000
G1 X47.750 Y7.548 F96.000
G1 X48.000 Y7.698 F96.000
G1 X48.218 Y7.865 F96.000
G1 X48.417 Y8.056 F96.000
G1 X48.595 Y8.270 F96.000
G1 X48.746 Y8.500 F96.000
G1 X48.869 Y8.746 F96.000
G1 X48.964 Y9.008 F96.000
G1 X49.028 Y9.278 F96.000
G1 X49.067 Y9.552 F96.000
G1 X49.075 Y9.857 F96.000
G1 X49.052 Y10.143 F96.000
G1 X48.996 Y10.429 F96.000
G1 X48.897 Y10.706 F96.000
G1 X48.794 Y10.925 F96.000
G1 X48.655 Y11.159 F96.000
G1 X48.476 Y11.397 F96.000
G1 X48.266 Y11.623 F96.000
G1 X48.040 Y11.810 F96.000
G1 X47.825 Y11.952 F96.000
G1 X47.571 Y12.083 F96.000
G1 X47.313 Y12.187 F96.000
G1 X47.008 Y12.270 F96.000
G1 X46.718 Y12.313 F96.000
G1 X46.425 Y12.329 F96.000
G1 X46.127 Y12.313 F96.000
G1 X45.837 Y12.254 F96.000
G1 X45.603 Y12.183 F96.000
G1 X45.345 Y12.079 F96.000
G1 X45.063 Y11.929 F96.000
G1 X44.806 Y11.754 F96.000
G1 X44.583 Y11.552 F96.000
G1 X44.409 Y11.361 F96.000
G1 X44.242 Y11.127 F96.000
G1 X44.103 Y10.885 F96.000
G1 X43.984 Y10.611 F96.000
G1 X43.901 Y10.337 F96.000
G1 X43.845 Y10.056 F96.000
G1 X43.821 Y9.766 F96.000
G1 X43.829 Y9.480 F96.000
G1 X43.869 Y9.194 F96.000
G1 X43.940 Y8.913 F96.000
G1 X44.040 Y8.643 F96.000
G1 X44.155 Y8.381 F96.000
G1 X44.345 Y8.067 F96.000
G1 X44.540 Y7.825 F96.000
G1 X44.714 Y7.639 F96.000
G1 X44.948 Y7.444 F96.000
G1 X45.187 Y7.278 F96.000
G1 X45.472 Y7.123 F96.000
G1 X45.754 Y7.008 F96.000
G1 X46.044 Y6.921 F96.000
G1 X46.349 Y6.861 F96.000
G1 X46.655 Y6.849 F96.000
G1 X46.901 Y6.861 F96.000
G1 X47.187 Y6.901 F96.000
G1 X47.492 Y6.984 F96.000
G1 X47.758 Y7.083 F96.000
G1 X48.020 Y7.214 F96.000
G1 X48.274 Y7.373 F96.000
G1 X48.532 Y7.575 F96.000
G1 X48.754 Y7.790 F96.000
G1 X48.944 Y8.036 F96.000
G1 X49.087 Y8.258 F96.000
G1 X49.218 Y8.520 F96.000
G1 X49.329 Y8.786 F96.000
G1 X49.425 Y9.131 F96.000
G1 X49.480 Y9.437 F96.000
G1 X49.496 Y9.750 F96.000
G1 X49.484 Y10.028 F96.000
G1 X49.440 Y10.325 F96.000
G1 X49.361 Y10.615 F96.000
G1 X49.258 Y10.889 F96.000
G1 X49.127 Y11.155 F96.000
G1 X48.956 Y11.437 F96.000
G1 X48.750 Y11.710 F96.000
G1 X48.524 Y11.937 F96.000
G1 X48.317 Y12.111 F96.000
G1 X48.060 Y12.286 F96.000
G1 X47.798 Y12.429 F96.000
G1 X47.496 Y12.556 F96.000
G1 X47.198 Y12.647 F96.000
G1 X46.889 Y12.710 F96.000
G1 X46.571 Y12.742 F96.000
G1 X46.258 Y12.742 F96.000
G1 X45.944 Y12.710 F96.000
G1 X45.635 Y12.639 F96.000
G1 X45.373 Y12.552 F96.000
G1 X45.095 Y12.433 F96.000
G1 X44.802 Y12.270 F96.000
G1 X44.520 Y12.075 F96.000
G1 X44.282 Y11.857 F96.000
G1 X44.103 Y11.663 F96.000
G1 X43.925 Y11.417 F96.000
G1 X43.770 Y11.163 F96.000
G1 X43.627 Y10.857 F96.000
G1 X43.524 Y10.563 F96.000
G1 X43.448 Y10.262 F96.000
G1 X43.405 Y9.944 F96.000
G1 X43.389 Y9.631 F96.000
G1 X43.405 Y9.317 F96.000
G1 X43.452 Y9.008 F96.000
G1 X43.532 Y8.702 F96.000
G1 X43.643 Y8.409 F96.000
G1 X43.782 Y8.127 F96.000
G1 X43.940 Y7.857 F96.000
G1 X44.151 Y7.575 F96.000
G1 X44.369 Y7.333 F96.000
G1 X44.611 Y7.111 F96.000
G1 X44.885 Y6.921 F96.000
G1 X45.131 Y6.778 F96.000
G1 X45.417 Y6.647 F96.000
G1 X45.706 Y6.540 F96.000
G1 X46.063 Y6.452 F96.000
G1 X46.389 Y6.405 F96.000
G1 X46.718 Y6.397 F96.000
G1 X46.992 Y6.413 F96.000
G1 X47.298 Y6.464 F96.000
G1 X47.591 Y6.544 F96.000
G1 X47.909 Y6.663 F96.000
G1 X48.194 Y6.798 F96.000
G1 X48.496 Y6.980 F96.000
G1 X48.766 Y7.179 F96.000
G1 X49.004 Y7.413 F96.000
G1 X49.179 Y7.615 F96.000
G1 X49.365 Y7.865 F96.000
G1 X49.544 Y8.183 F96.000
G1 X49.679 Y8.464 F96.000
G1 X49.802 Y8.806 F96.000
G1 X49.885 Y9.139 F96.000
G1 X49.925 Y9.476 F96.000
G1 X49.937 Y9.750 F96.000
G1 X49.917 Y10.063 F96.000
G1 X49.873 Y10.369 F96.000
G1 X49.786 Y10.714 F96.000
G1 X49.675 Y11.024 F96.000
G1 X49.536 Y11.321 F96.000
G1 X49.365 Y11.611 F96.000
G1 X49.171 Y11.881 F96.000
G1 X48.948 Y12.131 F96.000
G1 X48.706 Y12.357 F96.000
G1 X48.444 Y12.560 F96.000
G1 X48.163 Y12.738 F96.000
G1 X47.865 Y12.889 F96.000
G1 X47.556 Y13.012 F96.000
G1 X47.234 Y13.103 F96.000
G1 X46.587 Y13.175 F96.000
G1 X45.952 Y13.135 F96.000
G1 X45.563 Y13.063 F96.000
G1 X45.187 Y12.944 F96.000
G1 X44.873 Y12.813 F96.000
G1 X44.603 Y12.659 F96.000
G1 X44.373 Y12.504 F96.000
G1 X44.103 Y12.286 F96.000
G1 X43.857 Y12.036 F96.000
G1 X43.651 Y11.790 F96.000
G1 X43.456 Y11.508 F96.000
G1 X43.294 Y11.214 F96.000
G1 X43.159 Y10.909 F96.000
G1 X43.056 Y10.591 F96.000
G1 X42.980 Y10.262 F96.000
G1 X42.937 Y9.929 F96.000
G1 X42.925 Y9.595 F96.000
G1 X42.944 Y9.262 F96.000
G1 X42.996 Y8.933 F96.000
G1 X43.079 Y8.607 F96.000
G1 X43.190 Y8.294 F96.000
G1 X43.325 Y7.988 F96.000
G1 X43.516 Y7.651 F96.000
G1 X43.714 Y7.361 F96.000
G1 X43.948 Y7.095 F96.000
G1 X44.163 Y6.885 F96.000
G1 X44.421 Y6.671 F96.000
G1 X44.730 Y6.468 F96.000
G1 X45.302 Y6.167 F96.000
G1 X45.595 Y6.052 F96.000
G1 X46.250 Y5.917 F96.000
G1 X47.024 Y5.909 F96.000
G1 X47.440 Y5.972 F96.000
G1 X48.246 Y6.254 F96.000
G1 X48.460 Y6.369 F96.000
G1 X48.782 Y6.591 F96.000
G1 X49.087 Y6.833 F96.000
G1 X49.365 Y7.107 F96.000
G1 X49.579 Y7.361 F96.000
G1 X49.782 Y7.643 F96.000
G1 X49.972 Y7.968 F96.000
G1 X50.123 Y8.290 F96.000
G1 X50.234 Y8.631 F96.000
G1 X50.302 Y8.909 F96.000
G1 X50.357 Y9.234 F96.000
G1 X50.389 Y9.623 F96.000
G1 X50.385 Y10.008 F96.000
G1 X50.333 Y10.373 F96.000
G1 X50.274 Y10.651 F96.000
G1 X50.179 Y10.976 F96.000
G1 X50.036 Y11.337 F96.000
G1 X49.869 Y11.675 F96.000
G1 X49.663 Y11.980 F96.000
G1 X49.484 Y12.206 F96.000
G1 X49.254 Y12.460 F96.000
G1 X48.964 Y12.726 F96.000
G1 X48.655 Y12.968 F96.000
G1 X48.329 Y13.159 F96.000
G1 X47.722 Y13.377 F96.000
G1 X46.833 Y13.548 F96.000
G1 X45.944 Y13.552 F96.000
G1 X45.310 Y13.433 F96.000
G1 X44.631 Y13.171 F96.000
G1 X44.171 Y12.909 F96.000
G1 X43.857 Y12.667 F96.000
G1 X43.567 Y12.397 F96.000
G1 X43.353 Y12.159 F96.000
G1 X43.163 Y11.905 F96.000
G1 X42.984 Y11.607 F96.000
G1 X42.833 Y11.317 F96.000
G1 X42.679 Y10.952 F96.000
G1 X42.560 Y10.575 F96.000
G1 X42.492 Y10.202 F96.000
G1 X42.460 Y9.917 F96.000
G1 X42.456 Y9.567 F96.000
G1 X42.476 Y9.234 F96.000
G1 X42.536 Y8.845 F96.000
G1 X42.623 Y8.492 F96.000
G1 X42.738 Y8.147 F96.000
G1 X42.881 Y7.802 F96.000
G1 X43.063 Y7.452 F96.000
G1 X43.282 Y7.139 F96.000
G1 X43.464 Y6.909 F96.000
G1 X43.706 Y6.651 F96.000
G1 X43.988 Y6.397 F96.000
G1 X44.659 Y5.909 F96.000
G1 X44.774 Y5.861 F96.000
G1 X45.071 Y5.853 F96.000
G1 X45.071 Y5.853 F96.000
G1 X45.087 Y5.865 F96.000
G0 X45.095 Y5.881
G1 X45.095 Y5.893 F96.000
G1 X45.091 Y5.893 F96.000
G1 X45.087 Y5.897 F96.000
G1 X45.079 Y5.881 F96.000
G1 X45.123 Y5.853 F96.000
G1 X45.123 Y5.853 F96.000
G1 X45.837 Y5.853 F96.000
G1 X45.837 Y5.853 F96.000
G1 X46.048 Y5.913 F96.000
G0 X46.079 Y5.921
G0 X46.317 Y5.933
G1 X46.353 Y5.933 F96.000
G1 X46.512 Y5.921 F96.000
G1 X46.702 Y5.857 F96.000
G1 X46.770 Y5.853 F96.000
G1 X46.770 Y5.853 F96.000
G1 X46.766 Y5.861 F96.000
G1 X48.139 Y5.865 F96.000
G1 X48.437 Y5.917 F96.000
G1 X48.774 Y6.063 F96.000
G1 X49.278 Y6.393 F96.000
G1 X49.567 Y6.655 F96.000
G1 X49.837 Y6.937 F96.000
G1 X50.079 Y7.242 F96.000
G1 X50.282 Y7.556 F96.000
G1 X50.440 Y7.865 F96.000
G1 X50.563 Y8.159 F96.000
G1 X50.679 Y8.488 F96.000
G1 X50.774 Y8.865 F96.000
G1 X50.837 Y9.250 F96.000
G1 X50.857 Y9.639 F96.000
G1 X50.853 Y9.964 F96.000
G1 X50.813 Y10.337 F96.000
G1 X50.742 Y10.694 F96.000
G1 X50.651 Y11.040 F96.000
G1 X50.516 Y11.405 F96.000
G1 X50.357 Y11.746 F96.000
G1 X50.171 Y12.075 F96.000
G1 X49.937 Y12.389 F96.000
G1 X49.734 Y12.627 F96.000
G1 X49.484 Y12.885 F96.000
G1 X49.187 Y13.143 F96.000
G1 X48.694 Y13.440 F96.000
G1 X48.337 Y13.599 F96.000
G1 X48.147 Y13.643 F96.000
G1 X45.036 Y13.631 F96.000
G1 X44.655 Y13.560 F96.000
G1 X44.167 Y13.361 F96.000
G1 X43.766 Y13.127 F96.000
G1 X43.448 Y12.893 F96.000
G1 X43.159 Y12.623 F96.000
G1 X42.905 Y12.329 F96.000
G1 X42.726 Y12.079 F96.000
G1 X42.560 Y11.813 F96.000
G1 X42.381 Y11.468 F96.000
G1 X42.234 Y11.099 F96.000
G1 X42.123 Y10.750 F96.000
G1 X42.036 Y10.373 F96.000
G1 X41.980 Y9.984 F96.000
G1 X41.972 Y9.603 F96.000
G1 X41.984 Y9.290 F96.000
G1 X42.024 Y8.933 F96.000
G1 X42.099 Y8.544 F96.000
G1 X42.206 Y8.163 F96.000
G1 X42.337 Y7.790 F96.000
G1 X42.500 Y7.429 F96.000
G1 X42.702 Y7.091 F96.000
G1 X42.885 Y6.825 F96.000
G1 X43.127 Y6.536 F96.000
G1 X43.687 Y5.952 F96.000
G1 X43.786 Y5.877 F96.000
G1 X43.841 Y5.853 F96.000
G1 X43.841 Y5.853 F96.000
G1 X43.992 Y5.885 F96.000
G1 X44.052 Y5.917 F96.000
G0 X44.075 Y5.937
G0 X44.496 Y6.218
G0 X45.230 Y6.187
G0 X46.595 Y6.294
G0 X47.103 Y6.187
G0 X47.607 Y6.234
G0 X47.937 Y6.040
G1 X47.964 Y6.024 F96.000
G1 X47.988 Y6.004 F96.000
G1 X48.187 Y5.885 F96.000
G1 X48.353 Y5.853 F96.000
G1 X48.353 Y5.853 F96.000
G1 X48.948 Y5.865 F96.000
G1 X49.187 Y5.913 F96.000
G1 X49.357 Y5.988 F96.000
G1 X49.813 Y6.294 F96.000
G1 X49.909 Y6.373 F96.000
G1 X50.187 Y6.647 F96.000
G1 X50.437 Y6.944 F96.000
G1 X50.655 Y7.266 F96.000
G1 X50.825 Y7.563 F96.000
G1 X50.972 Y7.877 F96.000
G1 X51.103 Y8.218 F96.000
G1 X51.206 Y8.595 F96.000
G1 X51.278 Y8.964 F96.000
G1 X51.321 Y9.345 F96.000
G1 X51.337 Y9.734 F96.000
G1 X51.321 Y10.123 F96.000
G1 X51.274 Y10.512 F96.000
G1 X51.198 Y10.897 F96.000
G1 X51.091 Y11.274 F96.000
G1 X50.944 Y11.635 F96.000
G1 X50.802 Y11.929 F96.000
G1 X50.607 Y12.254 F96.000
G1 X50.401 Y12.560 F96.000
G1 X50.159 Y12.869 F96.000
G1 X49.889 Y13.151 F96.000
G1 X49.325 Y13.567 F96.000
G1 X49.210 Y13.623 F96.000
G1 X49.147 Y13.643 F96.000
G1 X48.575 Y13.643 F96.000
G1 X48.575 Y13.643 F96.000
G1 X48.440 Y13.615 F96.000
G1 X48.357 Y13.560 F96.000
G0 X48.345 Y13.536
G0 X48.329 Y13.421
G0 X48.837 Y6.155
G1 X48.841 Y6.099 F96.000
G1 X48.861 Y5.980 F96.000
G1 X48.893 Y5.925 F96.000
G1 X48.976 Y5.873 F96.000
G1 X49.111 Y5.853 F96.000
G1 X49.111 Y5.853 F96.000
G1 X49.587 Y5.861 F96.000
G1 X49.825 Y5.909 F96.000
G1 X50.040 Y6.016 F96.000
G1 X50.520 Y6.393 F96.000
G1 X50.786 Y6.679 F96.000
G1 X51.020 Y6.988 F96.000
G1 X51.226 Y7.317 F96.000
G1 X51.377 Y7.631 F96.000
G1 X51.496 Y7.913 F96.000
G1 X51.619 Y8.282 F96.000
G1 X51.714 Y8.659 F96.000
G1 X51.782 Y9.044 F96.000
G1 X51.821 Y9.433 F96.000
G1 X51.837 Y9.821 F96.000
G1 X51.821 Y10.210 F96.000
G1 X51.778 Y10.599 F96.000
G1 X51.690 Y10.980 F96.000
G1 X51.595 Y11.298 F96.000
G1 X51.460 Y11.667 F96.000
G1 X51.298 Y12.024 F96.000
G1 X51.111 Y12.369 F96.000
G1 X50.901 Y12.698 F96.000
G1 X50.667 Y13.012 F96.000
G1 X50.401 Y13.298 F96.000
G1 X50.056 Y13.575 F96.000
G1 X50.000 Y13.611 F96.000
G1 X49.940 Y13.635 F96.000
G1 X49.560 Y13.643 F96.000
G1 X49.560 Y13.643 F96.000
G1 X49.425 Y13.615 F96.000
G1 X49.341 Y13.560 F96.000
G0 X49.325 Y13.536
G0 X49.310 Y13.417
G0 X49.484 Y6.155
G1 X49.484 Y6.099 F96.000
G1 X49.496 Y5.980 F96.000
G1 X49.532 Y5.925 F96.000
G1 X49.611 Y5.873 F96.000
G1 X49.746 Y5.853 F96.000
G1 X49.746 Y5.853 F96.000
G1 X50.163 Y5.861 F96.000
G1 X50.401 Y5.905 F96.000
G1 X50.512 Y5.952 F96.000
G1 X50.996 Y6.317 F96.000
G1 X51.302 Y6.647 F96.000
G1 X51.532 Y6.960 F96.000
G1 X51.730 Y7.298 F96.000
G1 X51.873 Y7.599 F96.000
G1 X51.992 Y7.889 F96.000
G1 X52.111 Y8.262 F96.000
G1 X52.210 Y8.639 F96.000
G1 X52.282 Y9.024 F96.000
G1 X52.325 Y9.413 F96.000
G1 X52.345 Y9.802 F96.000
G1 X52.321 Y10.190 F96.000
G1 X52.282 Y10.552 F96.000
G1 X52.206 Y10.937 F96.000
G1 X52.107 Y11.313 F96.000
G1 X51.980 Y11.683 F96.000
G1 X51.829 Y12.044 F96.000
G1 X51.659 Y12.397 F96.000
G1 X51.460 Y12.734 F96.000
G1 X51.242 Y13.060 F96.000
G1 X50.984 Y13.357 F96.000
G1 X50.750 Y13.571 F96.000
G1 X50.635 Y13.635 F96.000
G1 X50.317 Y13.643 F96.000
G1 X50.317 Y13.643 F96.000
G1 X50.183 Y13.615 F96.000
G1 X50.099 Y13.560 F96.000
G0 X50.083 Y13.536
G0 X50.063 Y13.417
G0 X50.115 Y6.155
G1 X50.119 Y6.099 F96.000
G1 X50.127 Y5.980 F96.000
G1 X50.163 Y5.925 F96.000
G1 X50.242 Y5.873 F96.000
G1 X50.377 Y5.853 F96.000
G1 X50.377 Y5.853 F96.000
G1 X50.734 Y5.861 F96.000
G1 X50.972 Y5.909 F96.000
G1 X51.131 Y5.992 F96.000
G1 X51.512 Y6.294 F96.000
G1 X51.599 Y6.381 F96.000
G1 X51.853 Y6.675 F96.000
G1 X52.075 Y6.996 F96.000
G1 X52.266 Y7.337 F96.000
G1 X52.401 Y7.643 F96.000
G1 X52.520 Y7.944 F96.000
G1 X52.639 Y8.317 F96.000
G1 X52.730 Y8.698 F96.000
G1 X52.798 Y9.083 F96.000
G1 X52.837 Y9.472 F96.000
G1 X52.837 Y9.861 F96.000
G1 X52.817 Y10.238 F96.000
G1 X52.770 Y10.627 F96.000
G1 X52.698 Y11.012 F96.000
G1 X52.599 Y11.389 F96.000
G1 X52.480 Y11.762 F96.000
G1 X52.337 Y12.127 F96.000
G1 X52.171 Y12.480 F96.000
G1 X51.984 Y12.825 F96.000
G1 X51.726 Y13.198 F96.000
G1 X51.377 Y13.567 F96.000
G1 X51.329 Y13.607 F96.000
G1 X51.270 Y13.635 F96.000
G1 X50.762 Y13.643 F96.000
G1 X50.762 Y13.643 F96.000
G1 X50.627 Y13.615 F96.000
G1 X50.544 Y13.560 F96.000
G0 X50.528 Y13.536
G0 X50.508 Y13.417
G0 X50.623 Y6.155
G1 X50.627 Y6.099 F96.000
G1 X50.635 Y5.980 F96.000
G1 X50.671 Y5.925 F96.000
G1 X50.750 Y5.873 F96.000
G1 X50.885 Y5.853 F96.000
G1 X50.885 Y5.853 F96.000
G1 X51.242 Y5.861 F96.000
G1 X51.480 Y5.901 F96.000
G1 X51.595 Y5.948 F96.000
G1 X52.028 Y6.286 F96.000
G1 X52.115 Y6.373 F96.000
G1 X52.369 Y6.671 F96.000
G1 X52.587 Y6.992 F96.000
G1 X52.774 Y7.325 F96.000
G1 X52.909 Y7.635 F96.000
G1 X53.028 Y7.944 F96.000
G1 X53.143 Y8.317 F96.000
G1 X53.234 Y8.698 F96.000
G1 X53.298 Y9.083 F96.000
G1 X53.325 Y9.472 F96.000
G1 X53.333 Y9.857 F96.000
G1 X53.317 Y10.246 F96.000
G1 X53.270 Y10.635 F96.000
G1 X53.206 Y11.020 F96.000
G1 X53.115 Y11.401 F96.000
G1 X53.008 Y11.778 F96.000
G1 X52.877 Y12.147 F96.000
G1 X52.722 Y12.508 F96.000
G1 X52.532 Y12.853 F96.000
G1 X52.329 Y13.187 F96.000
G1 X52.036 Y13.520 F96.000
G1 X51.940 Y13.603 F96.000
G1 X51.881 Y13.631 F96.000
G1 X51.817 Y13.643 F96.000
G1 X51.310 Y13.643 F96.000
G1 X51.310 Y13.643 F96.000
G1 X51.175 Y13.615 F96.000
G1 X51.091 Y13.560 F96.000
G0 X51.075 Y13.536
G0 X51.056 Y13.417
G0 X51.194 Y6.155
G1 X51.194 Y6.099 F96.000
G1 X51.206 Y5.980 F96.000
G1 X51.242 Y5.925 F96.000
G1 X51.321 Y5.873 F96.000
G1 X51.456 Y5.853 F96.000
G1 X51.456 Y5.853 F96.000
G1 X51.754 Y5.857 F96.000
G1 X51.992 Y5.901 F96.000
G1 X52.107 Y5.944 F96.000
G1 X52.405 Y6.159 F96.000
G1 X52.623 Y6.369 F96.000
G1 X52.881 Y6.659 F96.000
G1 X53.099 Y6.984 F96.000
G1 X53.282 Y7.317 F96.000
G1 X53.417 Y7.611 F96.000
G1 X53.544 Y7.948 F96.000
G1 X53.655 Y8.321 F96.000
G1 X53.734 Y8.702 F96.000
G1 X53.790 Y9.087 F96.000
G1 X53.825 Y9.476 F96.000
G1 X53.837 Y9.865 F96.000
G1 X53.821 Y10.254 F96.000
G1 X53.786 Y10.643 F96.000
G1 X53.722 Y11.028 F96.000
G1 X53.647 Y11.413 F96.000
G1 X53.544 Y11.790 F96.000
G1 X53.397 Y12.218 F96.000
G1 X52.992 Y12.996 F96.000
G1 X52.663 Y13.448 F96.000
G1 X52.575 Y13.540 F96.000
G1 X52.464 Y13.603 F96.000
G1 X52.083 Y13.643 F96.000
G1 X51.893 Y13.643 F96.000
G1 X51.893 Y13.643 F96.000
G1 X51.758 Y13.615 F96.000
G1 X51.675 Y13.560 F96.000
G0 X51.659 Y13.536
G0 X51.639 Y13.417
G0 X51.698 Y6.155
G1 X51.702 Y6.099 F96.000
G1 X51.710 Y5.980 F96.000
G1 X51.746 Y5.925 F96.000
G1 X51.825 Y5.873 F96.000
G1 X51.960 Y5.853 F96.000
G1 X51.960 Y5.853 F96.000
G1 X52.258 Y5.857 F96.000
G1 X52.496 Y5.901 F96.000
G1 X52.607 Y5.944 F96.000
G1 X52.952 Y6.190 F96.000
G1 X53.246 Y6.492 F96.000
G1 X53.484 Y6.798 F96.000
G1 X53.690 Y7.131 F96.000
G1 X53.865 Y7.480 F96.000
G1 X53.992 Y7.810 F96.000
G1 X54.091 Y8.115 F96.000
G1 X54.187 Y8.492 F96.000
G1 X54.262 Y8.877 F96.000
G1 X54.310 Y9.266 F96.000
G1 X54.337 Y9.655 F96.000
G1 X54.341 Y10.044 F96.000
G1 X54.317 Y10.433 F96.000
G1 X54.278 Y10.821 F96.000
G1 X54.214 Y11.206 F96.000
G1 X54.067 Y11.766 F96.000
G1 X53.536 Y12.901 F96.000
G1 X53.381 Y13.103 F96.000
G1 X53.198 Y13.278 F96.000
G1 X52.925 Y13.452 F96.000
G1 X52.627 Y13.575 F96.000
G1 X52.563 Y13.591 F96.000
G1 X52.563 Y13.591 F96.000
G1 X52.393 Y13.575 F96.000
G1 X52.337 Y13.544 F96.000
G0 X52.321 Y13.524
G0 X52.298 Y13.409
G0 X52.214 Y6.155
G1 X52.214 Y6.099 F96.000
G1 X52.222 Y5.980 F96.000
G1 X52.254 Y5.925 F96.000
G1 X52.333 Y5.873 F96.000
G1 X52.468 Y5.853 F96.000
G1 X52.468 Y5.853 F96.000
G1 X52.766 Y5.857 F96.000
G1 X53.004 Y5.905 F96.000
G1 X53.222 Y6.004 F96.000
G1 X53.552 Y6.270 F96.000
G1 X53.909 Y6.683 F96.000
G1 X54.139 Y7.044 F96.000
G1 X54.448 Y7.710 F96.000
G1 X54.560 Y8.063 F96.000
G1 X54.663 Y8.440 F96.000
G1 X54.754 Y8.821 F96.000
G1 X54.810 Y9.206 F96.000
G1 X54.841 Y9.595 F96.000
G1 X54.853 Y9.984 F96.000
G1 X54.837 Y10.373 F96.000
G1 X54.798 Y10.762 F96.000
G1 X54.671 Y11.385 F96.000
G1 X54.631 Y11.504 F96.000
G1 X54.560 Y11.611 F96.000
G1 X54.560 Y11.611 F96.000
G1 X54.429 Y11.651 F96.000
G1 X54.365 Y11.651 F96.000
G1 X54.337 Y11.647 F96.000
G0 X54.313 Y11.631
G0 X54.266 Y11.528
G0 X52.821 Y6.127
G1 X52.810 Y6.075 F96.000
G1 X52.790 Y5.964 F96.000
G1 X52.817 Y5.917 F96.000
G1 X52.901 Y5.881 F96.000
G1 X53.036 Y5.881 F96.000
G1 X53.036 Y5.881 F96.000
G1 X53.333 Y5.952 F96.000
G1 X53.611 Y6.079 F96.000
G1 X53.948 Y6.333 F96.000
G1 X54.107 Y6.520 F96.000
G1 X54.504 Y7.202 F96.000
G1 X54.857 Y7.698 F96.000
G1 X55.079 Y8.266 F96.000
G1 X55.222 Y8.821 F96.000
G1 X55.294 Y9.206 F96.000
G1 X55.337 Y9.595 F96.000
G1 X55.353 Y9.984 F96.000
G1 X55.341 Y10.373 F96.000
G1 X55.294 Y10.821 F96.000
G1 X55.194 Y11.179 F96.000
G1 X55.171 Y11.238 F96.000
G1 X55.135 Y11.290 F96.000
G1 X54.798 Y11.468 F96.000
G1 X54.798 Y11.468 F96.000
G1 X54.667 Y11.508 F96.000
G1 X54.603 Y11.508 F96.000
G1 X54.579 Y11.500 F96.000
G0 X54.560 Y11.488
G0 X54.536 Y11.381
G0 X54.556 Y7.635
G1 X54.560 Y7.587 F96.000
G1 X54.571 Y7.484 F96.000
G1 X54.587 Y7.464 F96.000
G1 X54.635 Y7.456 F96.000
G1 X54.750 Y7.508 F96.000
G1 X54.806 Y7.552 F96.000
G1 X54.806 Y7.552 F96.000
G1 X54.929 Y7.683 F96.000
G1 X55.290 Y8.016 F96.000
G1 X55.440 Y8.282 F96.000
G1 X55.591 Y8.683 F96.000
G1 X55.706 Y9.056 F96.000
G1 X55.782 Y9.440 F96.000
G1 X55.821 Y9.829 F96.000
G1 X55.825 Y10.206 F96.000
G1 X55.806 Y10.548 F96.000
G1 X55.714 Y10.929 F96.000
G1 X55.603 Y11.151 F96.000
G1 X55.552 Y11.190 F96.000
G1 X55.234 Y11.270 F96.000
G1 X55.234 Y11.270 F96.000
G1 X55.063 Y11.262 F96.000
G1 X55.008 Y11.238 F96.000
G0 X54.992 Y11.218
G0 X54.968 Y11.103
G0 X55.020 Y8.107
G1 X55.024 Y8.067 F96.000
G1 X55.036 Y7.960 F96.000
G1 X55.071 Y7.921 F96.000
G1 X55.163 Y7.913 F96.000
G1 X55.294 Y7.948 F96.000
G1 X55.294 Y7.948 F96.000
G1 X55.548 Y8.111 F96.000
G1 X55.726 Y8.274 F96.000
G1 X55.913 Y8.587 F96.000
G1 X56.139 Y9.175 F96.000
G1 X56.226 Y9.556 F96.000
G1 X56.270 Y9.944 F96.000
G1 X56.270 Y10.230 F96.000
G1 X56.246 Y10.516 F96.000
G1 X56.163 Y10.825 F96.000
G1 X56.048 Y11.044 F96.000
G1 X56.012 Y11.095 F96.000
G1 X55.960 Y11.131 F96.000
G1 X55.706 Y11.159 F96.000
G1 X55.579 Y11.190 F96.000
G1 X55.579 Y11.190 F96.000
G1 X55.409 Y11.183 F96.000
G1 X55.353 Y11.159 F96.000
G0 X55.337 Y11.139
G0 X55.317 Y11.024
G0 X55.405 Y8.337
G1 X55.409 Y8.298 F96.000
G1 X55.425 Y8.190 F96.000
G1 X55.460 Y8.147 F96.000
G1 X55.552 Y8.131 F96.000
G1 X55.683 Y8.159 F96.000
G1 X55.683 Y8.159 F96.000
G1 X55.960 Y8.286 F96.000
G1 X56.060 Y8.353 F96.000
G1 X56.250 Y8.595 F96.000
G1 X56.397 Y8.861 F96.000
G1 X56.544 Y9.222 F96.000
G1 X56.643 Y9.599 F96.000
G1 X56.683 Y9.937 F96.000
G1 X56.683 Y10.190 F96.000
G1 X56.659 Y10.444 F96.000
G1 X56.595 Y10.718 F96.000
G1 X56.488 Y10.940 F96.000
G1 X56.417 Y11.044 F96.000
G1 X56.373 Y11.091 F96.000
G1 X56.317 Y11.123 F96.000
G1 X56.258 Y11.143 F96.000
G1 X56.004 Y11.143 F96.000
G1 X56.004 Y11.143 F96.000
G1 X55.869 Y11.115 F96.000
G1 X55.786 Y11.060 F96.000
G0 X55.770 Y11.036
G0 X55.746 Y10.917
G0 X55.718 Y8.488
G1 X55.718 Y8.444 F96.000
G1 X55.726 Y8.337 F96.000
G1 X55.762 Y8.290 F96.000
G1 X55.849 Y8.254 F96.000
G1 X55.984 Y8.258 F96.000
G1 X55.984 Y8.258 F96.000
G1 X56.222 Y8.321 F96.000
G1 X56.385 Y8.397 F96.000
G1 X56.516 Y8.520 F96.000
G1 X56.758 Y8.869 F96.000
G1 X56.921 Y9.222 F96.000
G1 X57.028 Y9.599 F96.000
G1 X57.067 Y9.889 F96.000
G1 X57.075 Y10.119 F96.000
G1 X57.052 Y10.381 F96.000
G1 X56.996 Y10.635 F96.000
G1 X56.905 Y10.869 F96.000
G1 X56.758 Y11.075 F96.000
G1 X56.706 Y11.115 F96.000
G1 X56.647 Y11.143 F96.000
G1 X56.329 Y11.143 F96.000
G1 X56.329 Y11.143 F96.000
G1 X56.194 Y11.115 F96.000
G1 X56.111 Y11.060 F96.000
G0 X56.095 Y11.036
G0 X56.075 Y10.917
G0 X56.091 Y8.579
G1 X56.095 Y8.536 F96.000
G1 X56.107 Y8.429 F96.000
G1 X56.139 Y8.377 F96.000
G1 X56.222 Y8.337 F96.000
G1 X56.357 Y8.325 F96.000
G1 X56.357 Y8.325 F96.000
G1 X56.655 Y8.397 F96.000
G1 X56.762 Y8.452 F96.000
G1 X56.893 Y8.575 F96.000
G1 X57.111 Y8.869 F96.000
G1 X57.294 Y9.214 F96.000
G1 X57.409 Y9.587 F96.000
G1 X57.444 Y9.825 F96.000
G1 X57.460 Y10.032 F96.000
G1 X57.448 Y10.298 F96.000
G1 X57.393 Y10.575 F96.000
G1 X57.310 Y10.810 F96.000
G1 X57.214 Y10.972 F96.000
G1 X57.135 Y11.071 F96.000
G1 X57.087 Y11.115 F96.000
G1 X57.028 Y11.143 F96.000
G1 X56.710 Y11.143 F96.000
G1 X56.710 Y11.143 F96.000
G1 X56.575 Y11.115 F96.000
G1 X56.492 Y11.060 F96.000
G0 X56.476 Y11.036
G0 X56.452 Y10.917
G0 X56.417 Y8.643
G1 X56.417 Y8.599 F96.000
G1 X56.425 Y8.492 F96.000
G1 X56.456 Y8.437 F96.000
G1 X56.536 Y8.385 F96.000
G1 X56.671 Y8.357 F96.000
G1 X56.671 Y8.357 F96.000
G1 X56.909 Y8.385 F96.000
G1 X57.028 Y8.421 F96.000
G1 X57.131 Y8.484 F96.000
G1 X57.310 Y8.647 F96.000
G1 X57.492 Y8.893 F96.000
G1 X57.679 Y9.238 F96.000
G1 X57.794 Y9.611 F96.000
G1 X57.829 Y9.845 F96.000
G1 X57.837 Y10.044 F96.000
G1 X57.825 Y10.270 F96.000
G1 X57.774 Y10.563 F96.000
G1 X57.679 Y10.825 F96.000
G1 X57.583 Y10.988 F96.000
G1 X57.500 Y11.087 F96.000
G1 X57.448 Y11.123 F96.000
G1 X57.389 Y11.143 F96.000
G1 X57.071 Y11.143 F96.000
G1 X57.071 Y11.143 F96.000
G1 X56.937 Y11.115 F96.000
G1 X56.853 Y11.060 F96.000
G0 X56.837 Y11.036
G0 X56.813 Y10.917
G0 X56.738 Y8.639
G1 X56.738 Y8.595 F96.000
G1 X56.742 Y8.488 F96.000
G1 X56.774 Y8.433 F96.000
G1 X56.853 Y8.381 F96.000
G1 X56.988 Y8.361 F96.000
G1 X56.988 Y8.361 F96.000
G1 X57.226 Y8.373 F96.000
G1 X57.345 Y8.401 F96.000
G1 X57.452 Y8.452 F96.000
G1 X57.683 Y8.659 F96.000
G1 X57.869 Y8.901 F96.000
G1 X58.052 Y9.246 F96.000
G1 X58.167 Y9.619 F96.000
G1 X58.202 Y9.837 F96.000
G1 X58.214 Y10.040 F96.000
G1 X58.202 Y10.294 F96.000
G1 X58.151 Y10.571 F96.000
G1 X58.060 Y10.825 F96.000
G1 X57.964 Y10.988 F96.000
G1 X57.881 Y11.083 F96.000
G1 X57.829 Y11.119 F96.000
G1 X57.770 Y11.143 F96.000
G1 X57.452 Y11.143 F96.000
G1 X57.452 Y11.143 F96.000
G1 X57.317 Y11.115 F96.000
G1 X57.234 Y11.060 F96.000
G0 X57.218 Y11.036
G0 X57.194 Y10.917
G0 X57.119 Y8.639
G1 X57.119 Y8.595 F96.000
G1 X57.123 Y8.488 F96.000
G1 X57.155 Y8.433 F96.000
G1 X57.234 Y8.381 F96.000
G1 X57.369 Y8.361 F96.000
G1 X57.369 Y8.361 F96.000
G1 X57.607 Y8.377 F96.000
G1 X57.726 Y8.405 F96.000
G1 X57.833 Y8.460 F96.000
G1 X58.020 Y8.619 F96.000
G1 X58.210 Y8.857 F96.000
G1 X58.429 Y9.250 F96.000
G1 X58.548 Y9.623 F96.000
G1 X58.583 Y9.861 F96.000
G1 X58.591 Y10.063 F96.000
G1 X58.579 Y10.286 F96.000
G1 X58.528 Y10.575 F96.000
G1 X58.405 Y10.889 F96.000
G1 X58.298 Y11.040 F96.000
G1 X58.254 Y11.087 F96.000
G1 X58.202 Y11.123 F96.000
G1 X58.143 Y11.143 F96.000
G1 X57.825 Y11.143 F96.000
G1 X57.825 Y11.143 F96.000
G1 X57.690 Y11.115 F96.000
G1 X57.607 Y11.060 F96.000
G0 X57.591 Y11.036
G0 X57.563 Y10.917
G0 X57.440 Y8.639
G1 X57.440 Y8.595 F96.000
G1 X57.440 Y8.488 F96.000
G1 X57.472 Y8.433 F96.000
G1 X57.552 Y8.381 F96.000
G1 X57.687 Y8.361 F96.000
G1 X57.687 Y8.361 F96.000
G1 X57.865 Y8.361 F96.000
G1 X58.103 Y8.405 F96.000
G1 X58.214 Y8.452 F96.000
G1 X58.437 Y8.655 F96.000
G1 X58.619 Y8.901 F96.000
G1 X58.806 Y9.242 F96.000
G1 X58.925 Y9.615 F96.000
G1 X58.960 Y9.857 F96.000
G1 X58.968 Y10.060 F96.000
G1 X58.956 Y10.294 F96.000
G1 X58.905 Y10.583 F96.000
G1 X58.810 Y10.845 F96.000
G1 X58.710 Y11.004 F96.000
G1 X58.627 Y11.099 F96.000
G1 X58.571 Y11.131 F96.000
G1 X58.508 Y11.143 F96.000
G1 X58.190 Y11.143 F96.000
G1 X58.190 Y11.143 F96.000
G1 X58.056 Y11.115 F96.000
G1 X57.972 Y11.060 F96.000
G0 X57.956 Y11.036
G0 X57.929 Y10.917
G0 X57.813 Y8.639
G1 X57.813 Y8.595 F96.000
G1 X57.817 Y8.488 F96.000
G1 X57.849 Y8.433 F96.000
G1 X57.929 Y8.381 F96.000
G1 X58.063 Y8.361 F96.000
G1 X58.063 Y8.361 F96.000
G1 X58.361 Y8.373 F96.000
G1 X58.536 Y8.421 F96.000
G1 X58.639 Y8.484 F96.000
G1 X58.817 Y8.647 F96.000
G1 X58.968 Y8.837 F96.000
G1 X59.183 Y9.234 F96.000
G1 X59.298 Y9.607 F96.000
G1 X59.337 Y9.841 F96.000
G1 X59.345 Y10.052 F96.000
G1 X59.337 Y10.274 F96.000
G1 X59.286 Y10.575 F96.000
G1 X59.167 Y10.865 F96.000
G1 X59.063 Y11.024 F96.000
G1 X59.020 Y11.071 F96.000
G1 X58.968 Y11.111 F96.000
G1 X58.909 Y11.139 F96.000
G1 X58.591 Y11.143 F96.000
G1 X58.591 Y11.143 F96.000
G1 X58.456 Y11.115 F96.000
G1 X58.373 Y11.060 F96.000
G0 X58.357 Y11.036
G0 X58.333 Y10.917
G0 X58.258 Y8.639
G1 X58.258 Y8.595 F96.000
G1 X58.262 Y8.488 F96.000
G1 X58.294 Y8.433 F96.000
G1 X58.373 Y8.381 F96.000
G1 X58.508 Y8.361 F96.000
G1 X58.508 Y8.361 F96.000
G1 X58.750 Y8.377 F96.000
G1 X58.869 Y8.405 F96.000
G1 X58.976 Y8.460 F96.000
G1 X59.198 Y8.667 F96.000
G1 X59.448 Y9.012 F96.000
G1 X59.611 Y9.365 F96.000
G1 X59.706 Y9.746 F96.000
G1 X59.726 Y9.976 F96.000
G1 X59.722 Y10.179 F96.000
G1 X59.683 Y10.468 F96.000
G1 X59.583 Y10.762 F96.000
G1 X59.464 Y10.980 F96.000
G1 X59.421 Y11.028 F96.000
G1 X59.369 Y11.067 F96.000
G1 X59.310 Y11.095 F96.000
G1 X58.992 Y11.135 F96.000
G1 X58.992 Y11.135 F96.000
G1 X58.857 Y11.119 F96.000
G1 X58.774 Y11.075 F96.000
G0 X58.754 Y11.052
G0 X58.726 Y10.937
G0 X58.579 Y8.639
G1 X58.579 Y8.595 F96.000
G1 X58.579 Y8.488 F96.000
G1 X58.611 Y8.433 F96.000
G1 X58.690 Y8.381 F96.000
G1 X58.825 Y8.361 F96.000
G1 X58.825 Y8.361 F96.000
G1 X59.063 Y8.377 F96.000
G1 X59.242 Y8.421 F96.000
G1 X59.405 Y8.504 F96.000
G1 X59.579 Y8.671 F96.000
G1 X59.829 Y9.020 F96.000
G1 X59.992 Y9.417 F96.000
G1 X60.063 Y9.774 F96.000
G1 X60.063 Y10.250 F96.000
G1 X60.000 Y10.607 F96.000
G1 X59.944 Y10.718 F96.000
G1 X59.909 Y10.770 F96.000
G1 X59.714 Y10.929 F96.000
G1 X59.488 Y11.044 F96.000
G1 X59.429 Y11.063 F96.000
G1 X59.429 Y11.063 F96.000
G1 X59.258 Y11.067 F96.000
G1 X59.202 Y11.044 F96.000
G0 X59.183 Y11.024
G0 X59.155 Y10.913
G0 X59.008 Y8.627
G1 X59.008 Y8.583 F96.000
G1 X59.012 Y8.476 F96.000
G1 X59.044 Y8.429 F96.000
G1 X59.131 Y8.393 F96.000
G1 X59.266 Y8.393 F96.000
G1 X59.266 Y8.393 F96.000
G1 X59.504 Y8.464 F96.000
G1 X59.726 Y8.575 F96.000
G1 X59.960 Y8.762 F96.000
G1 X60.079 Y8.905 F96.000
G1 X60.266 Y9.218 F96.000
G1 X60.325 Y9.389 F96.000
G1 X60.361 Y9.567 F96.000
G1 X60.357 Y9.984 F96.000
G1 X60.329 Y10.103 F96.000
G1 X60.210 Y10.397 F96.000
G1 X60.079 Y10.611 F96.000
G1 X59.992 Y10.702 F96.000
G1 X59.992 Y10.702 F96.000
G1 X59.869 Y10.762 F96.000
G1 X59.770 Y10.778 F96.000
G0 X59.738 Y10.778
G0 X59.706 Y10.778
G0 X55.881 Y10.742
G0 X54.921 Y10.952
G0 X52.369 Y12.063
G0 X45.905 Y13.210
G0 X45.274 Y13.472
G1 X45.242 Y13.484 F96.000
G1 X45.107 Y13.552 F96.000
G1 X44.956 Y13.623 F96.000
G1 X44.865 Y13.643 F96.000
G1 X44.865 Y13.643 F96.000
G1 X44.230 Y13.631 F96.000
G1 X43.976 Y13.583 F96.000
G1 X43.671 Y13.460 F96.000
G1 X43.163 Y13.143 F96.000
G1 X42.810 Y12.849 F96.000
G1 X42.536 Y12.563 F96.000
G1 X42.294 Y12.250 F96.000
G1 X42.119 Y11.976 F96.000
G1 X41.968 Y11.702 F96.000
G1 X41.813 Y11.349 F96.000
G1 X41.683 Y10.976 F96.000
G1 X41.579 Y10.595 F96.000
G1 X41.508 Y10.206 F96.000
G1 X41.480 Y9.813 F96.000
G1 X41.480 Y9.488 F96.000
G1 X41.500 Y9.115 F96.000
G1 X41.552 Y8.722 F96.000
G1 X41.635 Y8.337 F96.000
G1 X41.742 Y7.956 F96.000
G1 X41.877 Y7.587 F96.000
G1 X42.040 Y7.226 F96.000
G1 X42.226 Y6.881 F96.000
G1 X42.881 Y5.996 F96.000
G1 X42.968 Y5.905 F96.000
G1 X43.020 Y5.869 F96.000
G1 X43.079 Y5.853 F96.000
G1 X43.079 Y5.853 F96.000
G1 X43.202 Y5.873 F96.000
G1 X43.282 Y5.921 F96.000
G0 X43.298 Y5.944
G0 X43.333 Y6.060
G0 X44.310 Y13.317
G1 X44.317 Y13.369 F96.000
G1 X44.329 Y13.512 F96.000
G1 X44.302 Y13.560 F96.000
G1 X44.230 Y13.615 F96.000
G1 X44.107 Y13.643 F96.000
G1 X44.107 Y13.643 F96.000
G1 X43.599 Y13.631 F96.000
G1 X43.345 Y13.583 F96.000
G1 X42.984 Y13.417 F96.000
G1 X42.603 Y13.155 F96.000
G1 X42.254 Y12.849 F96.000
G1 X41.984 Y12.560 F96.000
G1 X41.750 Y12.242 F96.000
G1 X41.575 Y11.952 F96.000
G1 X41.433 Y11.675 F96.000
G1 X41.290 Y11.337 F96.000
G1 X41.167 Y10.960 F96.000
G1 X41.075 Y10.575 F96.000
G1 X41.012 Y10.187 F96.000
G1 X40.976 Y9.794 F96.000
G1 X40.972 Y9.401 F96.000
G1 X41.000 Y9.008 F96.000
G1 X41.056 Y8.619 F96.000
G1 X41.131 Y8.230 F96.000
G1 X41.238 Y7.849 F96.000
G1 X41.365 Y7.476 F96.000
G1 X41.516 Y7.111 F96.000
G1 X41.690 Y6.758 F96.000
G1 X41.885 Y6.417 F96.000
G1 X42.282 Y5.905 F96.000
G1 X42.333 Y5.869 F96.000
G1 X42.393 Y5.853 F96.000
G1 X42.393 Y5.853 F96.000
G1 X42.516 Y5.873 F96.000
G1 X42.595 Y5.921 F96.000
G0 X42.611 Y5.944
G0 X42.647 Y6.060
G0 X43.675 Y13.317
G1 X43.683 Y13.369 F96.000
G1 X43.694 Y13.512 F96.000
G1 X43.667 Y13.560 F96.000
G1 X43.595 Y13.615 F96.000
G1 X43.472 Y13.643 F96.000
G1 X43.472 Y13.643 F96.000
G1 X43.028 Y13.635 F96.000
G1 X42.774 Y13.587 F96.000
G1 X42.357 Y13.385 F96.000
G1 X41.984 Y13.107 F96.000
G1 X41.690 Y12.841 F96.000
G1 X41.433 Y12.540 F96.000
G1 X41.206 Y12.214 F96.000
G1 X41.040 Y11.925 F96.000
G1 X40.901 Y11.631 F96.000
G1 X40.770 Y11.302 F96.000
G1 X40.651 Y10.925 F96.000
G1 X40.567 Y10.540 F96.000
G1 X40.508 Y10.151 F96.000
G1 X40.472 Y9.758 F96.000
G1 X40.468 Y9.365 F96.000
G1 X40.492 Y8.972 F96.000
G1 X40.544 Y8.579 F96.000
G1 X40.611 Y8.190 F96.000
G1 X40.710 Y7.810 F96.000
G1 X40.829 Y7.433 F96.000
G1 X40.972 Y7.063 F96.000
G1 X41.139 Y6.706 F96.000
G1 X41.325 Y6.361 F96.000
G1 X41.631 Y5.937 F96.000
G1 X41.675 Y5.889 F96.000
G1 X41.730 Y5.857 F96.000
G1 X41.730 Y5.857 F96.000
G1 X41.853 Y5.877 F96.000
G1 X41.933 Y5.925 F96.000
G0 X41.948 Y5.948
G0 X41.984 Y6.063
G0 X43.044 Y13.317
G1 X43.052 Y13.369 F96.000
G1 X43.063 Y13.512 F96.000
G1 X43.036 Y13.560 F96.000
G1 X42.964 Y13.615 F96.000
G1 X42.841 Y13.643 F96.000
G1 X42.841 Y13.643 F96.000
G1 X42.524 Y13.639 F96.000
G1 X42.206 Y13.587 F96.000
G1 X41.909 Y13.448 F96.000
G1 X41.480 Y13.135 F96.000
G1 X41.190 Y12.865 F96.000
G1 X40.929 Y12.567 F96.000
G1 X40.702 Y12.242 F96.000
G1 X40.540 Y11.952 F96.000
G1 X40.405 Y11.667 F96.000
G1 X40.270 Y11.329 F96.000
G1 X40.151 Y10.952 F96.000
G1 X40.063 Y10.567 F96.000
G1 X40.004 Y10.179 F96.000
G1 X39.972 Y9.786 F96.000
G1 X39.960 Y9.393 F96.000
G1 X39.972 Y9.000 F96.000
G1 X40.012 Y8.607 F96.000
G1 X40.071 Y8.218 F96.000
G1 X40.155 Y7.833 F96.000
G1 X40.262 Y7.452 F96.000
G1 X40.389 Y7.079 F96.000
G1 X40.540 Y6.714 F96.000
G1 X40.714 Y6.361 F96.000
G1 X41.008 Y5.937 F96.000
G1 X41.052 Y5.889 F96.000
G1 X41.107 Y5.857 F96.000
G1 X41.107 Y5.857 F96.000
G1 X41.230 Y5.877 F96.000
G1 X41.310 Y5.925 F96.000
G0 X41.325 Y5.948
G0 X41.361 Y6.063
G0 X42.468 Y13.317
G1 X42.476 Y13.369 F96.000
G1 X42.492 Y13.512 F96.000
G1 X42.464 Y13.560 F96.000
G1 X42.393 Y13.615 F96.000
G1 X42.270 Y13.643 F96.000
G1 X42.270 Y13.643 F96.000
G1 X41.825 Y13.619 F96.000
G1 X41.635 Y13.571 F96.000
G1 X41.337 Y13.425 F96.000
G1 X40.960 Y13.151 F96.000
G1 X40.631 Y12.829 F96.000
G1 X40.381 Y12.524 F96.000
G1 X40.163 Y12.194 F96.000
G1 X40.004 Y11.909 F96.000
G1 X39.865 Y11.595 F96.000
G1 X39.742 Y11.262 F96.000
G1 X39.627 Y10.885 F96.000
G1 X39.548 Y10.500 F96.000
G1 X39.492 Y10.107 F96.000
G1 X39.452 Y9.714 F96.000
G1 X39.437 Y9.321 F96.000
G1 X39.448 Y8.929 F96.000
G1 X39.480 Y8.536 F96.000
G1 X39.536 Y8.147 F96.000
G1 X39.615 Y7.762 F96.000
G1 X39.718 Y7.381 F96.000
G1 X39.841 Y7.008 F96.000
G1 X39.988 Y6.643 F96.000
G1 X40.298 Y6.071 F96.000
G1 X40.409 Y5.921 F96.000
G1 X40.456 Y5.877 F96.000
G1 X40.512 Y5.853 F96.000
G1 X40.512 Y5.853 F96.000
G1 X40.635 Y5.873 F96.000
G1 X40.714 Y5.921 F96.000
G0 X40.730 Y5.944
G0 X40.766 Y6.060
G0 X41.960 Y13.317
G1 X41.968 Y13.373 F96.000
G1 X41.984 Y13.512 F96.000
G1 X41.956 Y13.560 F96.000
G1 X41.885 Y13.615 F96.000
G1 X41.762 Y13.643 F96.000
G1 X41.762 Y13.643 F96.000
G1 X41.381 Y13.635 F96.000
G1 X41.127 Y13.591 F96.000
G1 X40.829 Y13.448 F96.000
G1 X40.313 Y13.036 F96.000
G1 X39.952 Y12.647 F96.000
G1 X39.726 Y12.325 F96.000
G1 X39.536 Y11.996 F96.000
G1 X39.397 Y11.698 F96.000
G1 X39.274 Y11.381 F96.000
G1 X39.151 Y11.004 F96.000
G1 X39.056 Y10.619 F96.000
G1 X38.988 Y10.230 F96.000
G1 X38.944 Y9.837 F96.000
G1 X38.917 Y9.444 F96.000
G1 X38.913 Y9.052 F96.000
G1 X38.933 Y8.659 F96.000
G1 X38.972 Y8.266 F96.000
G1 X39.036 Y7.877 F96.000
G1 X39.119 Y7.492 F96.000
G1 X39.234 Y7.115 F96.000
G1 X39.365 Y6.742 F96.000
G1 X39.575 Y6.262 F96.000
G1 X39.742 Y5.992 F96.000
G1 X39.837 Y5.913 F96.000
G1 X39.837 Y5.913 F96.000
G1 X39.960 Y5.905 F96.000
G1 X40.048 Y5.933 F96.000
G0 X40.067 Y5.952
G0 X40.107 Y6.063
G0 X41.389 Y13.317
G1 X41.401 Y13.373 F96.000
G1 X41.417 Y13.512 F96.000
G1 X41.389 Y13.560 F96.000
G1 X41.317 Y13.615 F96.000
G1 X41.194 Y13.643 F96.000
G1 X41.194 Y13.643 F96.000
G1 X40.877 Y13.635 F96.000
G1 X40.496 Y13.540 F96.000
G1 X40.099 Y13.302 F96.000
G1 X39.702 Y12.948 F96.000
G1 X39.325 Y12.492 F96.000
G1 X39.024 Y11.980 F96.000
G1 X38.714 Y11.254 F96.000
G1 X38.567 Y10.746 F96.000
G1 X38.492 Y10.357 F96.000
G1 X38.433 Y9.968 F96.000
G1 X38.393 Y9.575 F96.000
G1 X38.373 Y9.183 F96.000
G1 X38.373 Y8.790 F96.000
G1 X38.413 Y8.397 F96.000
G1 X38.464 Y8.004 F96.000
G1 X38.655 Y7.107 F96.000
G1 X38.833 Y6.623 F96.000
G1 X38.897 Y6.512 F96.000
G1 X39.060 Y6.321 F96.000
G1 X39.107 Y6.278 F96.000
G1 X39.107 Y6.278 F96.000
G1 X39.222 Y6.218 F96.000
G1 X39.282 Y6.210 F96.000
G1 X39.310 Y6.214 F96.000
G0 X39.329 Y6.226
G0 X39.373 Y6.325
G0 X40.813 Y13.321
G1 X40.825 Y13.373 F96.000
G1 X40.845 Y13.508 F96.000
G1 X40.821 Y13.556 F96.000
G1 X40.746 Y13.599 F96.000
G1 X40.623 Y13.615 F96.000
G1 X40.623 Y13.615 F96.000
G1 X40.433 Y13.591 F96.000
G1 X40.306 Y13.552 F96.000
G1 X40.063 Y13.448 F96.000
G1 X39.786 Y13.270 F96.000
G1 X39.595 Y13.079 F96.000
G1 X39.401 Y12.810 F96.000
G1 X39.115 Y12.286 F96.000
G1 X38.460 Y11.552 F96.000
G1 X38.302 Y11.258 F96.000
G1 X38.135 Y10.825 F96.000
G1 X38.024 Y10.444 F96.000
G1 X37.940 Y10.060 F96.000
G1 X37.881 Y9.667 F96.000
G1 X37.853 Y9.274 F96.000
G1 X37.845 Y8.881 F96.000
G1 X37.865 Y8.488 F96.000
G1 X37.937 Y7.841 F96.000
G1 X37.960 Y7.782 F96.000
G1 X38.004 Y7.734 F96.000
G1 X38.004 Y7.734 F96.000
G1 X38.115 Y7.663 F96.000
G1 X38.175 Y7.651 F96.000
G1 X38.198 Y7.655 F96.000
G0 X38.218 Y7.663
G0 X38.254 Y7.766
G0 X38.690 Y11.460
G1 X38.694 Y11.504 F96.000
G1 X38.702 Y11.627 F96.000
G1 X38.671 Y11.663 F96.000
G1 X38.587 Y11.671 F96.000
G1 X38.472 Y11.635 F96.000
G1 X38.472 Y11.635 F96.000
G1 X38.198 Y11.452 F96.000
G1 X38.008 Y11.270 F96.000
G1 X37.802 Y10.929 F96.000
G1 X37.690 Y10.690 F96.000
G1 X37.548 Y10.321 F96.000
G1 X37.452 Y9.937 F96.000
G1 X37.385 Y9.548 F96.000
G1 X37.349 Y9.163 F96.000
G1 X37.341 Y8.782 F96.000
G1 X37.377 Y8.262 F96.000
G1 X37.409 Y8.139 F96.000
G1 X37.448 Y8.087 F96.000
G1 X37.448 Y8.087 F96.000
G1 X37.571 Y8.048 F96.000
G1 X37.631 Y8.048 F96.000
G1 X37.655 Y8.056 F96.000
G0 X37.675 Y8.071
G0 X37.718 Y8.179
G0 X38.246 Y11.210
G1 X38.254 Y11.250 F96.000
G1 X38.266 Y11.373 F96.000
G1 X38.238 Y11.405 F96.000
G1 X38.155 Y11.413 F96.000
G1 X38.040 Y11.373 F96.000
G1 X38.040 Y11.373 F96.000
G1 X37.694 Y11.187 F96.000
G1 X37.512 Y10.992 F96.000
G1 X37.266 Y10.595 F96.000
G1 X37.099 Y10.238 F96.000
G1 X36.984 Y9.861 F96.000
G1 X36.909 Y9.480 F96.000
G1 X36.869 Y9.159 F96.000
G1 X36.861 Y8.817 F96.000
G1 X36.909 Y8.468 F96.000
G1 X36.944 Y8.341 F96.000
G1 X36.976 Y8.286 F96.000
G1 X36.976 Y8.286 F96.000
G1 X37.131 Y8.278 F96.000
G1 X37.187 Y8.302 F96.000
G0 X37.206 Y8.321
G0 X37.254 Y8.429
G0 X37.937 Y11.028
G1 X37.944 Y11.063 F96.000
G1 X37.968 Y11.187 F96.000
G1 X37.944 Y11.230 F96.000
G1 X37.865 Y11.262 F96.000
G1 X37.742 Y11.262 F96.000
G1 X37.742 Y11.262 F96.000
G1 X37.488 Y11.187 F96.000
G1 X37.313 Y11.091 F96.000
G1 X37.079 Y10.865 F96.000
G1 X36.885 Y10.599 F96.000
G1 X36.702 Y10.250 F96.000
G1 X36.560 Y9.881 F96.000
G1 X36.464 Y9.496 F96.000
G1 X36.429 Y9.214 F96.000
G1 X36.417 Y8.952 F96.000
G1 X36.456 Y8.647 F96.000
G1 X36.516 Y8.460 F96.000
G1 X36.579 Y8.349 F96.000
G1 X36.579 Y8.349 F96.000
G1 X36.702 Y8.349 F96.000
G1 X36.790 Y8.385 F96.000
G0 X36.810 Y8.405
G0 X36.873 Y8.571
G0 X37.563 Y10.940
G1 X37.571 Y10.976 F96.000
G1 X37.599 Y11.099 F96.000
G1 X37.575 Y11.143 F96.000
G1 X37.496 Y11.175 F96.000
G1 X37.373 Y11.175 F96.000
G1 X37.373 Y11.175 F96.000
G1 X37.119 Y11.115 F96.000
G1 X36.996 Y11.067 F96.000
G1 X36.742 Y10.861 F96.000
G1 X36.524 Y10.611 F96.000
G1 X36.306 Y10.282 F96.000
G1 X36.147 Y9.921 F96.000
G1 X36.067 Y9.643 F96.000
G1 X36.024 Y9.401 F96.000
G1 X36.004 Y9.155 F96.000
G1 X36.032 Y8.794 F96.000
G1 X36.095 Y8.544 F96.000
G1 X36.190 Y8.377 F96.000
G1 X36.190 Y8.377 F96.000
G1 X36.313 Y8.393 F96.000
G1 X36.393 Y8.440 F96.000
G0 X36.413 Y8.464
G0 X36.484 Y8.631
G0 X37.230 Y10.841
G1 X37.242 Y10.877 F96.000
G1 X37.274 Y11.000 F96.000
G1 X37.254 Y11.052 F96.000
G1 X37.179 Y11.103 F96.000
G1 X37.060 Y11.135 F96.000
G1 X37.060 Y11.135 F96.000
G1 X36.869 Y11.123 F96.000
G1 X36.679 Y11.075 F96.000
G1 X36.508 Y10.976 F96.000
G1 X36.214 Y10.706 F96.000
G1 X36.127 Y10.603 F96.000
G1 X35.909 Y10.274 F96.000
G1 X35.746 Y9.913 F96.000
G1 X35.667 Y9.643 F96.000
G1 X35.631 Y9.421 F96.000
G1 X35.611 Y9.194 F96.000
G1 X35.627 Y8.897 F96.000
G1 X35.714 Y8.563 F96.000
G1 X35.810 Y8.397 F96.000
G1 X35.861 Y8.361 F96.000
G1 X35.861 Y8.361 F96.000
G1 X35.984 Y8.377 F96.000
G1 X36.063 Y8.425 F96.000
G0 X36.083 Y8.448
G0 X36.155 Y8.615
G0 X36.913 Y10.841
G1 X36.925 Y10.877 F96.000
G1 X36.956 Y11.000 F96.000
G1 X36.937 Y11.052 F96.000
G1 X36.861 Y11.103 F96.000
G1 X36.742 Y11.135 F96.000
G1 X36.742 Y11.135 F96.000
G1 X36.488 Y11.123 F96.000
G1 X36.298 Y11.075 F96.000
G1 X36.238 Y11.052 F96.000
G1 X35.968 Y10.857 F96.000
G1 X35.738 Y10.615 F96.000
G1 X35.512 Y10.290 F96.000
G1 X35.345 Y9.929 F96.000
G1 X35.274 Y9.683 F96.000
G1 X35.238 Y9.480 F96.000
G1 X35.218 Y9.246 F96.000
G1 X35.234 Y8.952 F96.000
G1 X35.313 Y8.619 F96.000
G1 X35.397 Y8.444 F96.000
G1 X35.433 Y8.393 F96.000
G1 X35.484 Y8.357 F96.000
G1 X35.484 Y8.357 F96.000
G1 X35.607 Y8.377 F96.000
G1 X35.687 Y8.425 F96.000
G0 X35.706 Y8.448
G0 X35.778 Y8.615
G0 X36.536 Y10.841
G1 X36.548 Y10.877 F96.000
G1 X36.579 Y11.000 F96.000
G1 X36.560 Y11.052 F96.000
G1 X36.484 Y11.103 F96.000
G1 X36.365 Y11.135 F96.000
G1 X36.365 Y11.135 F96.000
G1 X36.111 Y11.123 F96.000
G1 X35.921 Y11.075 F96.000
G1 X35.750 Y10.984 F96.000
G1 X35.540 Y10.817 F96.000
G1 X35.357 Y10.623 F96.000
G1 X35.127 Y10.302 F96.000
G1 X34.960 Y9.944 F96.000
G1 X34.893 Y9.706 F96.000
G1 X34.853 Y9.504 F96.000
G1 X34.833 Y9.266 F96.000
G1 X34.845 Y8.976 F96.000
G1 X34.929 Y8.631 F96.000
G1 X35.008 Y8.456 F96.000
G1 X35.044 Y8.401 F96.000
G1 X35.095 Y8.361 F96.000
G1 X35.095 Y8.361 F96.000
G1 X35.218 Y8.377 F96.000
G1 X35.298 Y8.425 F96.000
G0 X35.317 Y8.448
G0 X35.393 Y8.615
G0 X36.155 Y10.841
G1 X36.167 Y10.877 F96.000
G1 X36.198 Y11.000 F96.000
G1 X36.179 Y11.052 F96.000
G1 X36.103 Y11.103 F96.000
G1 X35.984 Y11.135 F96.000
G1 X35.984 Y11.135 F96.000
G1 X35.667 Y11.115 F96.000
G1 X35.480 Y11.056 F96.000
G1 X35.210 Y10.873 F96.000
G1 X34.933 Y10.587 F96.000
G1 X34.710 Y10.262 F96.000
G1 X34.556 Y9.897 F96.000
G1 X34.492 Y9.675 F96.000
G1 X34.460 Y9.468 F96.000
G1 X34.444 Y9.246 F96.000
G1 X34.464 Y8.940 F96.000
G1 X34.552 Y8.607 F96.000
G1 X34.639 Y8.437 F96.000
G1 X34.679 Y8.385 F96.000
G1 X34.734 Y8.357 F96.000
G1 X34.734 Y8.357 F96.000
G1 X34.857 Y8.377 F96.000
G1 X34.937 Y8.425 F96.000
G0 X34.956 Y8.448
G0 X35.028 Y8.615
G0 X35.774 Y10.841
G1 X35.786 Y10.877 F96.000
G1 X35.817 Y11.000 F96.000
G1 X35.798 Y11.052 F96.000
G1 X35.722 Y11.103 F96.000
G1 X35.603 Y11.135 F96.000
G1 X35.603 Y11.135 F96.000
G1 X35.349 Y11.127 F96.000
G1 X35.095 Y11.067 F96.000
G1 X34.821 Y10.885 F96.000
G1 X34.631 Y10.702 F96.000
G1 X34.544 Y10.599 F96.000
G1 X34.325 Y10.270 F96.000
G1 X34.167 Y9.909 F96.000
G1 X34.099 Y9.659 F96.000
G1 X34.067 Y9.452 F96.000
G1 X34.052 Y9.210 F96.000
G1 X34.075 Y8.925 F96.000
G1 X34.143 Y8.667 F96.000
G1 X34.254 Y8.437 F96.000
G1 X34.294 Y8.385 F96.000
G1 X34.349 Y8.357 F96.000
G1 X34.349 Y8.357 F96.000
G1 X34.472 Y8.377 F96.000
G1 X34.552 Y8.425 F96.000
G0 X34.571 Y8.448
G0 X34.643 Y8.615
G0 X35.393 Y10.841
G1 X35.405 Y10.877 F96.000
G1 X35.437 Y11.000 F96.000
G1 X35.417 Y11.052 F96.000
G1 X35.341 Y11.103 F96.000
G1 X35.222 Y11.135 F96.000
G1 X35.222 Y11.135 F96.000
G1 X34.905 Y11.119 F96.000
G1 X34.714 Y11.071 F96.000
G1 X34.437 Y10.893 F96.000
G1 X34.246 Y10.710 F96.000
G1 X34.159 Y10.607 F96.000
G1 X33.933 Y10.282 F96.000
G1 X33.774 Y9.921 F96.000
G1 X33.710 Y9.694 F96.000
G1 X33.679 Y9.492 F96.000
G1 X33.663 Y9.262 F96.000
G1 X33.679 Y8.976 F96.000
G1 X33.766 Y8.635 F96.000
G1 X33.849 Y8.460 F96.000
G1 X33.885 Y8.409 F96.000
G1 X33.933 Y8.369 F96.000
G1 X33.933 Y8.369 F96.000
G1 X34.067 Y8.381 F96.000
G1 X34.131 Y8.409 F96.000
G0 X34.155 Y8.433
G0 X34.210 Y8.540
G0 X34.952 Y10.841
G1 X34.964 Y10.877 F96.000
G1 X34.996 Y11.000 F96.000
G1 X34.976 Y11.052 F96.000
G1 X34.901 Y11.103 F96.000
G1 X34.782 Y11.135 F96.000
G1 X34.782 Y11.135 F96.000
G1 X34.528 Y11.123 F96.000
G1 X34.337 Y11.075 F96.000
G1 X34.056 Y10.897 F96.000
G1 X33.817 Y10.667 F96.000
G1 X33.734 Y10.563 F96.000
G1 X33.520 Y10.230 F96.000
G1 X33.369 Y9.865 F96.000
G1 X33.310 Y9.623 F96.000
G1 X33.282 Y9.417 F96.000
G1 X33.278 Y9.004 F96.000
G1 X33.321 Y8.750 F96.000
G1 X33.385 Y8.567 F96.000
G1 X33.464 Y8.472 F96.000
G1 X33.464 Y8.472 F96.000
G1 X33.615 Y8.440 F96.000
G1 X33.675 Y8.452 F96.000
G0 X33.694 Y8.468
G0 X33.754 Y8.567
G0 X34.567 Y10.841
G1 X34.579 Y10.877 F96.000
G1 X34.615 Y11.000 F96.000
G1 X34.595 Y11.052 F96.000
G1 X34.520 Y11.103 F96.000
G1 X34.401 Y11.135 F96.000
G1 X34.401 Y11.135 F96.000
G1 X34.147 Y11.123 F96.000
G1 X33.956 Y11.075 F96.000
G1 X33.837 Y11.020 F96.000
G1 X33.575 Y10.817 F96.000
G1 X33.274 Y10.468 F96.000
G1 X33.052 Y10.063 F96.000
G1 X32.917 Y9.623 F96.000
G1 X32.869 Y9.242 F96.000
G1 X32.873 Y9.052 F96.000
G1 X32.901 Y8.925 F96.000
G1 X32.933 Y8.869 F96.000
G1 X32.976 Y8.821 F96.000
G1 X32.976 Y8.821 F96.000
G1 X33.119 Y8.738 F96.000
G1 X33.175 Y8.730 F96.000
G0 X33.198 Y8.742
G0 X33.262 Y8.829
G0 X34.175 Y10.869
G1 X34.190 Y10.905 F96.000
G1 X34.234 Y11.020 F96.000
G1 X34.214 Y11.063 F96.000
G1 X34.143 Y11.111 F96.000
G1 X34.020 Y11.135 F96.000
G1 X34.020 Y11.135 F96.000
G1 X33.766 Y11.107 F96.000
G1 X33.512 Y11.028 F96.000
G1 X33.226 Y10.853 F96.000
G1 X32.988 Y10.623 F96.000
G1 X32.798 Y10.349 F96.000
G1 X32.683 Y10.111 F96.000
G1 X32.631 Y9.921 F96.000
G1 X32.639 Y9.476 F96.000
G1 X32.659 Y9.413 F96.000
G1 X32.659 Y9.413 F96.000
G1 X32.726 Y9.298 F96.000
G1 X32.770 Y9.254 F96.000
G1 X32.794 Y9.246 F96.000
G0 X32.810 Y9.246
G0 X32.865 Y9.329
G0 X33.361 Y10.738
G1 X33.373 Y10.774 F96.000
G1 X33.405 Y10.889 F96.000
G1 X33.381 Y10.917 F96.000
G1 X33.302 Y10.913 F96.000
G1 X33.190 Y10.865 F96.000
G1 X33.190 Y10.865 F96.000
G1 X33.032 Y10.738 F96.000
G1 X32.944 Y10.643 F96.000
G1 X32.734 Y10.306 F96.000
G1 X32.734 Y10.306 F96.000
G1 X32.730 Y10.278 F96.000
G0 X32.738 Y10.254
G0 X32.825 Y10.187
G0 X36.234 Y8.742
G0 X36.841 Y8.706
G0 X37.806 Y8.333
G0 X38.671 Y7.647
G0 X39.167 Y6.786
G0 X39.198 Y6.528
G1 X39.202 Y6.492 F96.000
G1 X39.202 Y6.456 F96.000
G1 X39.230 Y6.234 F96.000
G1 X39.278 Y6.147 F96.000
G1 X39.278 Y6.147 F96.000
G1 X39.381 Y6.079 F96.000
G1 X39.381 Y6.079 F96.000
G1 X39.397 Y6.075 F96.000
G0 X39.405 Y6.083
G0 X39.401 Y6.115
G1 X39.389 Y6.131 F96.000
G1 X39.349 Y6.143 F96.000
G1 X39.310 Y6.131 F96.000
G1 X39.317 Y6.083 F96.000
G1 X39.317 Y6.083 F96.000
G1 X39.563 Y5.960 F96.000
G1 X39.778 Y5.889 F96.000
G1 X39.988 Y5.845 F96.000
G1 X40.258 Y5.825 F96.000
G1 X52.813 Y5.829 F96.000
G1 X52.944 Y5.841 F96.000
G1 X53.413 Y5.952 F96.000
G1 X53.714 Y6.103 F96.000
G1 X53.925 Y6.274 F96.000
G1 X54.135 Y6.508 F96.000
G1 X54.179 Y6.571 F96.000
G1 X54.524 Y7.183 F96.000
G1 X54.718 Y7.421 F96.000
G1 X55.036 Y7.738 F96.000
G1 X55.214 Y7.873 F96.000
G1 X55.389 Y7.976 F96.000
G1 X55.810 Y8.175 F96.000
G1 X55.917 Y8.214 F96.000
G1 X56.179 Y8.274 F96.000
G1 X56.595 Y8.329 F96.000
G1 X58.992 Y8.337 F96.000
G1 X59.294 Y8.373 F96.000
G1 X59.496 Y8.437 F96.000
G1 X59.782 Y8.579 F96.000
G1 X59.944 Y8.702 F96.000
G1 X60.036 Y8.794 F96.000
G1 X60.262 Y9.135 F96.000
G1 X60.325 Y9.286 F96.000
G1 X60.349 Y9.369 F96.000
G1 X60.393 Y9.603 F96.000
G1 X60.389 Y9.925 F96.000
G1 X60.361 Y10.091 F96.000
G1 X60.234 Y10.425 F96.000
G1 X60.139 Y10.571 F96.000
G1 X60.016 Y10.714 F96.000
G1 X59.778 Y10.917 F96.000
G1 X59.532 Y11.056 F96.000
G1 X59.302 Y11.127 F96.000
G1 X58.937 Y11.171 F96.000
G1 X55.798 Y11.183 F96.000
G1 X55.504 Y11.230 F96.000
G1 X55.159 Y11.329 F96.000
G1 X54.877 Y11.456 F96.000
G1 X54.516 Y11.671 F96.000
G1 X54.341 Y11.810 F96.000
G1 X54.012 Y12.155 F96.000
G1 X53.881 Y12.337 F96.000
G1 X53.607 Y12.841 F96.000
G1 X53.405 Y13.119 F96.000
G1 X53.175 Y13.333 F96.000
G1 X53.000 Y13.448 F96.000
G1 X52.683 Y13.587 F96.000
G1 X52.500 Y13.631 F96.000
G1 X52.024 Y13.671 F96.000
G1 X40.964 Y13.671 F96.000
G1 X40.504 Y13.631 F96.000
G1 X40.440 Y13.619 F96.000
G1 X40.210 Y13.540 F96.000
G1 X40.000 Y13.444 F96.000
G1 X39.806 Y13.317 F96.000
G1 X39.627 Y13.155 F96.000
G1 X39.516 Y13.028 F96.000
G1 X39.361 Y12.802 F96.000
G1 X39.099 Y12.313 F96.000
G1 X38.968 Y12.135 F96.000
G1 X38.647 Y11.798 F96.000
G1 X38.472 Y11.663 F96.000
G1 X38.008 Y11.389 F96.000
G1 X37.802 Y11.306 F96.000
G1 X37.381 Y11.202 F96.000
G1 X37.159 Y11.167 F96.000
G1 X34.115 Y11.167 F96.000
G1 X33.766 Y11.139 F96.000
G1 X33.524 Y11.075 F96.000
G1 X33.214 Y10.921 F96.000
G1 X33.036 Y10.782 F96.000
G1 X32.933 Y10.675 F96.000
G1 X32.730 Y10.361 F96.000
G1 X32.659 Y10.179 F96.000
G1 X32.603 Y9.913 F96.000
G1 X32.603 Y9.552 F96.000
G1 X32.623 Y9.433 F96.000
G1 X32.742 Y9.115 F96.000
G1 X32.853 Y8.925 F96.000
G1 X32.980 Y8.782 F96.000
G1 X33.218 Y8.579 F96.000
G1 X33.317 Y8.516 F96.000
G1 X33.464 Y8.440 F96.000
G1 X33.726 Y8.361 F96.000
G1 X33.984 Y8.329 F96.000
G1 X36.417 Y8.325 F96.000
G1 X36.579 Y8.306 F96.000
G1 X37.052 Y8.218 F96.000
G1 X37.262 Y8.151 F96.000
G1 X37.782 Y7.873 F96.000
G1 X37.964 Y7.738 F96.000
G1 X38.401 Y7.282 F96.000
G1 X38.548 Y7.067 F96.000
G1 X38.857 Y6.524 F96.000
G1 X39.067 Y6.278 F96.000
G1 X39.317 Y6.083 F96.000
G1 X39.317 Y6.083 F96.000
G0 Z8.000
G0 Z8.000
(Finish operation: Adaptive00-LeftMountPocket)
(Begin operation: Adaptive001-LeftCutout)
(Path: Adaptive001-LeftCutout)
(Adaptive001)
(Helix to depth: 0.000000)
G0 Z8.000
G0 X47.354 Y10.547 Z8.000
G0 X47.354 Y10.547 Z6.000
G1 X47.354 Y10.547 Z3.000 F60.000
G1 X47.354 Y10.547 Z3.000 F60.000
G1 X47.181 Y10.700 Z2.980 F60.000
G1 X46.982 Y10.816 Z2.959 F60.000
G1 X46.764 Y10.891 Z2.939 F60.000
G1 X46.535 Y10.922 Z2.918 F60.000
G1 X46.305 Y10.908 Z2.898 F60.000
G1 X46.082 Y10.849 Z2.878 F60.000
G1 X45.875 Y10.748 Z2.857 F60.000
G1 X45.691 Y10.608 Z2.837 F60.000
G1 X45.538 Y10.435 Z2.817 F60.000
G1 X45.422 Y10.236 Z2.796 F60.000
G1 X45.347 Y10.018 Z2.776 F60.000
G1 X45.316 Y9.789 Z2.755 F60.000
G1 X45.331 Y9.559 Z2.735 F60.000
G1 X45.389 Y9.336 Z2.715 F60.000
G1 X45.491 Y9.129 Z2.694 F60.000
G1 X45.630 Y8.945 Z2.674 F60.000
G1 X45.803 Y8.792 Z2.654 F60.000
G1 X46.002 Y8.676 Z2.633 F60.000
G1 X46.220 Y8.601 Z2.613 F60.000
G1 X46.449 Y8.570 Z2.592 F60.000
G1 X46.679 Y8.584 Z2.572 F60.000
G1 X46.902 Y8.643 Z2.552 F60.000
G1 X47.109 Y8.744 Z2.531 F60.000
G1 X47.293 Y8.884 Z2.511 F60.000
G1 X47.446 Y9.057 Z2.490 F60.000
G1 X47.562 Y9.256 Z2.470 F60.000
G1 X47.637 Y9.474 Z2.450 F60.000
G1 X47.668 Y9.703 Z2.429 F60.000
G1 X47.654 Y9.933 Z2.409 F60.000
G1 X47.595 Y10.156 Z2.389 F60.000
G1 X47.494 Y10.363 Z2.368 F60.000
G1 X47.354 Y10.547 Z2.348 F60.000
G1 X47.181 Y10.700 Z2.327 F60.000
G1 X46.982 Y10.816 Z2.307 F60.000
G1 X46.764 Y10.891 Z2.287 F60.000
G1 X46.535 Y10.922 Z2.266 F60.000
G1 X46.305 Y10.908 Z2.246 F60.000
G1 X46.082 Y10.849 Z2.225 F60.000
G1 X45.875 Y10.748 Z2.205 F60.000
G1 X45.691 Y10.608 Z2.185 F60.000
G1 X45.538 Y10.435 Z2.164 F60.000
G1 X45.422 Y10.236 Z2.144 F60.000
G1 X45.347 Y10.018 Z2.124 F60.000
G1 X45.316 Y9.789 Z2.103 F60.000
G1 X45.331 Y9.559 Z2.083 F60.000
G1 X45.389 Y9.336 Z2.062 F60.000
G1 X45.491 Y9.129 Z2.042 F60.000
G1 X45.630 Y8.945 Z2.022 F60.000
G1 X45.803 Y8.792 Z2.001 F60.000
G1 X46.002 Y8.676 Z1.981 F60.000
G1 X46.220 Y8.601 Z1.961 F60.000
G1 X46.449 Y8.570 Z1.940 F60.000
G1 X46.679 Y8.584 Z1.920 F60.000
G1 X46.902 Y8.643 Z1.899 F60.000
G1 X47.109 Y8.744 Z1.879 F60.000
G1 X47.293 Y8.884 Z1.859 F60.000
G1 X47.446 Y9.057 Z1.838 F60.000
G1 X47.562 Y9.256 Z1.818 F60.000
G1 X47.637 Y9.474 Z1.797 F60.000
G1 X47.668 Y9.703 Z1.777 F60.000
G1 X47.654 Y9.933 Z1.757 F60.000
G1 X47.595 Y10.156 Z1.736 F60.000
G1 X47.494 Y10.363 Z1.716 F60.000
G1 X47.354 Y10.547 Z1.696 F60.000
G1 X47.181 Y10.700 Z1.675 F60.000
G1 X46.982 Y10.816 Z1.655 F60.000
G1 X46.764 Y10.891 Z1.634 F60.000
G1 X46.535 Y10.922 Z1.614 F60.000
G1 X46.305 Y10.908 Z1.594 F60.000
G1 X46.082 Y10.849 Z1.573 F60.000
G1 X45.875 Y10.748 Z1.553 F60.000
G1 X45.691 Y10.608 Z1.532 F60.000
G1 X45.538 Y10.435 Z1.512 F60.000
G1 X45.422 Y10.236 Z1.492 F60.000
G1 X45.347 Y10.018 Z1.471 F60.000
G1 X45.316 Y9.789 Z1.451 F60.000
G1 X45.331 Y9.559 Z1.431 F60.000
G1 X45.389 Y9.336 Z1.410 F60.000
G1 X45.491 Y9.129 Z1.390 F60.000
G1 X45.630 Y8.945 Z1.369 F60.000
G1 X45.803 Y8.792 Z1.349 F60.000
G1 X46.002 Y8.676 Z1.329 F60.000
G1 X46.220 Y8.601 Z1.308 F60.000
G1 X46.449 Y8.570 Z1.288 F60.000
G1 X46.679 Y8.584 Z1.268 F60.000
G1 X46.902 Y8.643 Z1.247 F60.000
G1 X47.109 Y8.744 Z1.227 F60.000
G1 X47.293 Y8.884 Z1.206 F60.000
G1 X47.446 Y9.057 Z1.186 F60.000
G1 X47.562 Y9.256 Z1.166 F60.000
G1 X47.637 Y9.474 Z1.145 F60.000
G1 X47.668 Y9.703 Z1.125 F60.000
G1 X47.654 Y9.933 Z1.104 F60.000
G1 X47.595 Y10.156 Z1.084 F60.000
G1 X47.494 Y10.363 Z1.064 F60.000
G1 X47.354 Y10.547 Z1.043 F60.000
G1 X47.181 Y10.700 Z1.023 F60.000
G1 X46.982 Y10.816 Z1.003 F60.000
G1 X46.764 Y10.891 Z0.982 F60.000
G1 X46.535 Y10.922 Z0.962 F60.000
G1 X46.305 Y10.908 Z0.941 F60.000
G1 X46.082 Y10.849 Z0.921 F60.000
G1 X45.875 Y10.748 Z0.901 F60.000
G1 X45.691 Y10.608 Z0.880 F60.000
G1 X45.538 Y10.435 Z0.860 F60.000
G1 X45.422 Y10.236 Z0.839 F60.000
G1 X45.347 Y10.018 Z0.819 F60.000
G1 X45.316 Y9.789 Z0.799 F60.000
G1 X45.331 Y9.559 Z0.778 F60.000
G1 X45.389 Y9.336 Z0.758 F60.000
G1 X45.491 Y9.129 Z0.738 F60.000
G1 X45.630 Y8.945 Z0.717 F60.000
G1 X45.803 Y8.792 Z0.697 F60.000
G1 X46.002 Y8.676 Z0.676 F60.000
G1 X46.220 Y8.601 Z0.656 F60.000
G1 X46.449 Y8.570 Z0.636 F60.000
G1 X46.679 Y8.584 Z0.615 F60.000
G1 X46.902 Y8.643 Z0.595 F60.000
G1 X47.109 Y8.744 Z0.575 F60.000
G1 X47.293 Y8.884 Z0.554 F60.000
G1 X47.446 Y9.057 Z0.534 F60.000
G1 X47.562 Y9.256 Z0.513 F60.000
G1 X47.637 Y9.474 Z0.493 F60.000
G1 X47.668 Y9.703 Z0.473 F60.000
G1 X47.654 Y9.933 Z0.452 F60.000
G1 X47.595 Y10.156 Z0.432 F60.000
G1 X47.494 Y10.363 Z0.411 F60.000
G1 X47.354 Y10.547 Z0.391 F60.000
G1 X47.181 Y10.700 Z0.371 F60.000
G1 X46.982 Y10.816 Z0.350 F60.000
G1 X46.764 Y10.891 Z0.330 F60.000
G1 X46.535 Y10.922 Z0.310 F60.000
G1 X46.305 Y10.908 Z0.289 F60.000
G1 X46.082 Y10.849 Z0.269 F60.000
G1 X45.875 Y10.748 Z0.248 F60.000
G1 X45.691 Y10.608 Z0.228 F60.000
G1 X45.538 Y10.435 Z0.208 F60.000
G1 X45.422 Y10.236 Z0.187 F60.000
G1 X45.347 Y10.018 Z0.167 F60.000
G1 X45.316 Y9.789 Z0.146 F60.000
G1 X45.331 Y9.559 Z0.126 F60.000
G1 X45.389 Y9.336 Z0.106 F60.000
G1 X45.491 Y9.129 Z0.085 F60.000
G1 X45.630 Y8.945 Z0.065 F60.000
G1 X45.803 Y8.792 Z0.045 F60.000
G1 X46.002 Y8.676 Z0.024 F60.000
G1 X46.220 Y8.601 Z0.004 F60.000
G1 X46.449 Y8.570 Z0.000 F96.000
G1 X46.679 Y8.584 Z0.000 F96.000
G1 X46.902 Y8.643 Z0.000 F96.000
G1 X47.109 Y8.744 Z0.000 F96.000
G1 X47.293 Y8.884 Z0.000 F96.000
G1 X47.446 Y9.057 Z0.000 F96.000
G1 X47.562 Y9.256 Z0.000 F96.000
G1 X47.637 Y9.474 Z0.000 F96.000
G1 X47.668 Y9.703 Z0.000 F96.000
G1 X47.654 Y9.933 Z0.000 F96.000
G1 X47.595 Y10.156 Z0.000 F96.000
G1 X47.494 Y10.363 Z0.000 F96.000
G1 X47.354 Y10.547 Z0.000 F96.000
G1 X47.181 Y10.700 Z0.000 F96.000
G1 X46.982 Y10.816 Z0.000 F96.000
G1 X46.764 Y10.891 Z0.000 F96.000
G1 X46.535 Y10.922 Z0.000 F96.000
G1 X46.305 Y10.908 Z0.000 F96.000
G1 X46.082 Y10.849 Z0.000 F96.000
G1 X45.875 Y10.748 Z0.000 F96.000
G1 X45.691 Y10.608 Z0.000 F96.000
G1 X45.538 Y10.435 Z0.000 F96.000
G1 X45.422 Y10.236 Z0.000 F96.000
G1 X45.347 Y10.018 Z0.000 F96.000
G1 X45.316 Y9.789 Z0.000 F96.000
G1 X45.331 Y9.559 Z0.000 F96.000
G1 X45.389 Y9.336 Z0.000 F96.000
G1 X45.491 Y9.129 Z0.000 F96.000
G1 X45.630 Y8.945 Z0.000 F96.000
G1 X45.803 Y8.792 Z0.000 F96.000
G1 X46.002 Y8.676 Z0.000 F96.000
G1 X46.220 Y8.601 Z0.000 F96.000
(Adaptive - depth: 0.000000)
G1 X46.492 Y8.560 F96.000
G1 X46.536 Y8.512 F96.000
G1 X46.710 Y8.448 F96.000
G1 X46.889 Y8.437 F96.000
G1 X47.008 Y8.448 F96.000
G1 X47.369 Y8.595 F96.000
G1 X47.540 Y8.730 F96.000
G1 X47.635 Y8.829 F96.000
G1 X47.734 Y8.956 F96.000
G1 X47.841 Y9.139 F96.000
G1 X47.929 Y9.385 F96.000
G1 X47.968 Y9.579 F96.000
G1 X47.980 Y9.778 F96.000
G1 X47.960 Y9.992 F96.000
G1 X47.909 Y10.206 F96.000
G1 X47.829 Y10.405 F96.000
G1 X47.722 Y10.595 F96.000
G1 X47.587 Y10.766 F96.000
G1 X47.429 Y10.917 F96.000
G1 X47.246 Y11.036 F96.000
G1 X47.071 Y11.119 F96.000
G1 X46.873 Y11.187 F96.000
G1 X46.643 Y11.226 F96.000
G1 X46.417 Y11.234 F96.000
G1 X46.194 Y11.202 F96.000
G1 X46.000 Y11.151 F96.000
G1 X45.802 Y11.063 F96.000
G1 X45.619 Y10.956 F96.000
G1 X45.429 Y10.802 F96.000
G1 X45.282 Y10.631 F96.000
G1 X45.175 Y10.460 F96.000
G1 X45.095 Y10.282 F96.000
G1 X45.032 Y10.087 F96.000
G1 X44.988 Y9.829 F96.000
G1 X44.992 Y9.599 F96.000
G1 X45.016 Y9.409 F96.000
G1 X45.079 Y9.190 F96.000
G1 X45.171 Y8.996 F96.000
G1 X45.286 Y8.817 F96.000
G1 X45.429 Y8.659 F96.000
G1 X45.591 Y8.520 F96.000
G1 X45.766 Y8.397 F96.000
G1 X46.004 Y8.262 F96.000
G1 X46.480 Y8.095 F96.000
G1 X46.659 Y8.075 F96.000
G1 X47.048 Y8.111 F96.000
G1 X47.417 Y8.242 F96.000
G1 X47.575 Y8.337 F96.000
G1 X47.702 Y8.429 F96.000
G1 X47.853 Y8.571 F96.000
G1 X48.000 Y8.754 F96.000
G1 X48.127 Y8.968 F96.000
G1 X48.214 Y9.179 F96.000
G1 X48.278 Y9.405 F96.000
G1 X48.310 Y9.639 F96.000
G1 X48.310 Y9.873 F96.000
G1 X48.278 Y10.107 F96.000
G1 X48.214 Y10.337 F96.000
G1 X48.123 Y10.556 F96.000
G1 X48.004 Y10.762 F96.000
G1 X47.857 Y10.948 F96.000
G1 X47.687 Y11.115 F96.000
G1 X47.496 Y11.258 F96.000
G1 X47.290 Y11.381 F96.000
G1 X47.044 Y11.484 F96.000
G1 X46.802 Y11.540 F96.000
G1 X46.595 Y11.563 F96.000
G1 X46.357 Y11.563 F96.000
G1 X46.099 Y11.524 F96.000
G1 X45.873 Y11.460 F96.000
G1 X45.647 Y11.365 F96.000
G1 X45.437 Y11.242 F96.000
G1 X45.246 Y11.095 F96.000
G1 X45.071 Y10.921 F96.000
G1 X44.925 Y10.726 F96.000
G1 X44.802 Y10.516 F96.000
G1 X44.714 Y10.286 F96.000
G1 X44.663 Y10.079 F96.000
G1 X44.631 Y9.849 F96.000
G1 X44.627 Y9.591 F96.000
G1 X44.659 Y9.321 F96.000
G1 X44.734 Y9.079 F96.000
G1 X44.813 Y8.889 F96.000
G1 X44.933 Y8.683 F96.000
G1 X45.087 Y8.480 F96.000
G1 X45.266 Y8.290 F96.000
G1 X45.476 Y8.115 F96.000
G1 X45.694 Y7.972 F96.000
G1 X45.933 Y7.853 F96.000
G1 X46.187 Y7.766 F96.000
G1 X46.444 Y7.714 F96.000
G1 X46.690 Y7.698 F96.000
G1 X46.929 Y7.710 F96.000
G1 X47.171 Y7.754 F96.000
G1 X47.401 Y7.829 F96.000
G1 X47.623 Y7.933 F96.000
G1 X47.833 Y8.063 F96.000
G1 X48.020 Y8.218 F96.000
G1 X48.187 Y8.397 F96.000
G1 X48.333 Y8.591 F96.000
G1 X48.464 Y8.825 F96.000
G1 X48.560 Y9.060 F96.000
G1 X48.627 Y9.306 F96.000
G1 X48.667 Y9.563 F96.000
G1 X48.675 Y9.841 F96.000
G1 X48.651 Y10.103 F96.000
G1 X48.587 Y10.365 F96.000
G1 X48.508 Y10.583 F96.000
G1 X48.393 Y10.810 F96.000
G1 X48.258 Y11.020 F96.000
G1 X48.083 Y11.234 F96.000
G1 X47.873 Y11.433 F96.000
G1 X47.659 Y11.595 F96.000
G1 X47.413 Y11.726 F96.000
G1 X47.206 Y11.810 F96.000
G1 X46.960 Y11.881 F96.000
G1 X46.683 Y11.921 F96.000
G1 X46.433 Y11.929 F96.000
G1 X46.171 Y11.905 F96.000
G1 X45.913 Y11.853 F96.000
G1 X45.643 Y11.766 F96.000
G1 X45.397 Y11.651 F96.000
G1 X45.163 Y11.508 F96.000
G1 X44.944 Y11.337 F96.000
G1 X44.758 Y11.135 F96.000
G1 X44.623 Y10.956 F96.000
G1 X44.496 Y10.734 F96.000
G1 X44.393 Y10.508 F96.000
G1 X44.306 Y10.222 F96.000
G1 X44.258 Y9.956 F96.000
G1 X44.238 Y9.687 F96.000
G1 X44.254 Y9.413 F96.000
G1 X44.298 Y9.147 F96.000
G1 X44.381 Y8.889 F96.000
G1 X44.476 Y8.679 F96.000
G1 X44.603 Y8.456 F96.000
G1 X44.778 Y8.214 F96.000
G1 X44.988 Y7.988 F96.000
G1 X45.202 Y7.798 F96.000
G1 X45.448 Y7.631 F96.000
G1 X45.671 Y7.512 F96.000
G1 X45.929 Y7.409 F96.000
G1 X46.194 Y7.341 F96.000
G1 X46.460 Y7.298 F96.000
G1 X46.766 Y7.286 F96.000
G1 X47.048 Y7.317 F96.000
G1 X47.286 Y7.365 F96.000
G1 X47.548 Y7.452 F96.000
G1 X47.790 Y7.567 F96.000
G1 X48.012 Y7.698 F96.000
G1 X48.242 Y7.881 F96.000
G1 X48.437 Y8.071 F96.000
G1 X48.611 Y8.286 F96.000
G1 X48.762 Y8.520 F96.000
G1 X48.881 Y8.766 F96.000
G1 X48.972 Y9.024 F96.000
G1 X49.036 Y9.298 F96.000
G1 X49.067 Y9.571 F96.000
G1 X49.067 Y9.849 F96.000
G1 X49.036 Y10.127 F96.000
G1 X48.980 Y10.397 F96.000
G1 X48.881 Y10.698 F96.000
G1 X48.762 Y10.960 F96.000
G1 X48.607 Y11.210 F96.000
G1 X48.440 Y11.429 F96.000
G1 X48.242 Y11.635 F96.000
G1 X48.020 Y11.817 F96.000
G1 X47.786 Y11.972 F96.000
G1 X47.532 Y12.103 F96.000
G1 X47.262 Y12.202 F96.000
G1 X46.984 Y12.274 F96.000
G1 X46.698 Y12.313 F96.000
G1 X46.413 Y12.321 F96.000
G1 X46.127 Y12.298 F96.000
G1 X45.845 Y12.242 F96.000
G1 X45.567 Y12.163 F96.000
G1 X45.274 Y12.040 F96.000
G1 X45.012 Y11.897 F96.000
G1 X44.774 Y11.710 F96.000
G1 X44.607 Y11.556 F96.000
G1 X44.425 Y11.353 F96.000
G1 X44.242 Y11.095 F96.000
G1 X44.087 Y10.821 F96.000
G1 X43.976 Y10.544 F96.000
G1 X43.901 Y10.294 F96.000
G1 X43.845 Y10.012 F96.000
G1 X43.825 Y9.702 F96.000
G1 X43.833 Y9.421 F96.000
G1 X43.873 Y9.127 F96.000
G1 X43.944 Y8.841 F96.000
G1 X44.052 Y8.571 F96.000
G1 X44.171 Y8.345 F96.000
G1 X44.317 Y8.107 F96.000
G1 X44.528 Y7.833 F96.000
G1 X44.766 Y7.583 F96.000
G1 X45.016 Y7.381 F96.000
G1 X45.234 Y7.234 F96.000
G1 X45.504 Y7.095 F96.000
G1 X45.778 Y6.992 F96.000
G1 X46.052 Y6.917 F96.000
G1 X46.341 Y6.873 F96.000
G1 X46.631 Y6.853 F96.000
G1 X46.964 Y6.869 F96.000
G1 X47.266 Y6.913 F96.000
G1 X47.560 Y7.000 F96.000
G1 X47.794 Y7.095 F96.000
G1 X48.052 Y7.226 F96.000
G1 X48.325 Y7.405 F96.000
G1 X48.579 Y7.607 F96.000
G1 X48.794 Y7.833 F96.000
G1 X48.956 Y8.036 F96.000
G1 X49.111 Y8.286 F96.000
G1 X49.242 Y8.540 F96.000
G1 X49.361 Y8.857 F96.000
G1 X49.440 Y9.155 F96.000
G1 X49.480 Y9.464 F96.000
G1 X49.488 Y9.726 F96.000
G1 X49.472 Y10.016 F96.000
G1 X49.425 Y10.345 F96.000
G1 X49.337 Y10.687 F96.000
G1 X49.218 Y10.988 F96.000
G1 X49.095 Y11.234 F96.000
G1 X48.925 Y11.496 F96.000
G1 X48.730 Y11.734 F96.000
G1 X48.520 Y11.944 F96.000
G1 X48.282 Y12.139 F96.000
G1 X48.028 Y12.306 F96.000
G1 X47.758 Y12.444 F96.000
G1 X47.476 Y12.556 F96.000
G1 X47.187 Y12.643 F96.000
G1 X46.841 Y12.706 F96.000
G1 X46.524 Y12.734 F96.000
G1 X46.202 Y12.722 F96.000
G1 X45.929 Y12.687 F96.000
G1 X45.631 Y12.627 F96.000
G1 X45.290 Y12.512 F96.000
G1 X45.012 Y12.377 F96.000
G1 X44.786 Y12.242 F96.000
G1 X44.540 Y12.056 F96.000
G1 X44.321 Y11.861 F96.000
G1 X44.091 Y11.611 F96.000
G1 X43.885 Y11.333 F96.000
G1 X43.726 Y11.052 F96.000
G1 X43.615 Y10.806 F96.000
G1 X43.512 Y10.512 F96.000
G1 X43.440 Y10.179 F96.000
G1 X43.401 Y9.877 F96.000
G1 X43.393 Y9.563 F96.000
G1 X43.417 Y9.246 F96.000
G1 X43.468 Y8.940 F96.000
G1 X43.552 Y8.639 F96.000
G1 X43.667 Y8.345 F96.000
G1 X43.810 Y8.063 F96.000
G1 X43.976 Y7.798 F96.000
G1 X44.190 Y7.524 F96.000
G1 X44.413 Y7.286 F96.000
G1 X44.655 Y7.071 F96.000
G1 X44.925 Y6.877 F96.000
G1 X45.214 Y6.726 F96.000
G1 X45.456 Y6.623 F96.000
G1 X45.746 Y6.528 F96.000
G1 X46.083 Y6.448 F96.000
G1 X46.444 Y6.401 F96.000
G1 X46.778 Y6.401 F96.000
G1 X47.056 Y6.421 F96.000
G1 X47.369 Y6.480 F96.000
G1 X47.667 Y6.563 F96.000
G1 X47.984 Y6.690 F96.000
G1 X48.270 Y6.837 F96.000
G1 X48.548 Y7.012 F96.000
G1 X48.810 Y7.214 F96.000
G1 X49.048 Y7.440 F96.000
G1 X49.262 Y7.687 F96.000
G1 X49.440 Y7.960 F96.000
G1 X49.567 Y8.198 F96.000
G1 X49.694 Y8.476 F96.000
G1 X49.810 Y8.825 F96.000
G1 X49.881 Y9.179 F96.000
G1 X49.917 Y9.468 F96.000
G1 X49.925 Y9.802 F96.000
G1 X49.905 Y10.127 F96.000
G1 X49.849 Y10.480 F96.000
G1 X49.766 Y10.810 F96.000
G1 X49.643 Y11.127 F96.000
G1 X49.516 Y11.385 F96.000
G1 X49.345 Y11.659 F96.000
G1 X49.151 Y11.909 F96.000
G1 X48.940 Y12.139 F96.000
G1 X48.675 Y12.373 F96.000
G1 X48.409 Y12.563 F96.000
G1 X48.127 Y12.734 F96.000
G1 X47.825 Y12.877 F96.000
G1 X47.516 Y12.992 F96.000
G1 X47.159 Y13.087 F96.000
G1 X46.821 Y13.147 F96.000
G1 X46.060 Y13.139 F96.000
G1 X45.607 Y13.067 F96.000
G1 X45.230 Y12.952 F96.000
G1 X44.929 Y12.821 F96.000
G1 X44.683 Y12.687 F96.000
G1 X44.433 Y12.528 F96.000
G1 X44.143 Y12.302 F96.000
G1 X43.881 Y12.048 F96.000
G1 X43.663 Y11.786 F96.000
G1 X43.492 Y11.544 F96.000
G1 X43.325 Y11.258 F96.000
G1 X43.179 Y10.925 F96.000
G1 X43.071 Y10.615 F96.000
G1 X42.992 Y10.286 F96.000
G1 X42.944 Y9.944 F96.000
G1 X42.929 Y9.611 F96.000
G1 X42.944 Y9.274 F96.000
G1 X42.992 Y8.937 F96.000
G1 X43.067 Y8.607 F96.000
G1 X43.175 Y8.286 F96.000
G1 X43.313 Y7.976 F96.000
G1 X43.480 Y7.683 F96.000
G1 X43.671 Y7.405 F96.000
G1 X43.889 Y7.147 F96.000
G1 X44.123 Y6.905 F96.000
G1 X44.409 Y6.667 F96.000
G1 X44.694 Y6.468 F96.000
G1 X45.389 Y6.107 F96.000
G1 X46.044 Y5.937 F96.000
G1 X46.758 Y5.889 F96.000
G1 X47.234 Y5.933 F96.000
G1 X48.056 Y6.167 F96.000
G1 X48.440 Y6.349 F96.000
G1 X48.821 Y6.591 F96.000
G1 X49.123 Y6.837 F96.000
G1 X49.397 Y7.115 F96.000
G1 X49.591 Y7.357 F96.000
G1 X49.758 Y7.595 F96.000
G1 X49.952 Y7.933 F96.000
G1 X50.115 Y8.290 F96.000
G1 X50.230 Y8.627 F96.000
G1 X50.306 Y8.933 F96.000
G1 X50.357 Y9.278 F96.000
G1 X50.385 Y9.615 F96.000
G1 X50.377 Y10.004 F96.000
G1 X50.337 Y10.361 F96.000
G1 X50.270 Y10.718 F96.000
G1 X50.151 Y11.071 F96.000
G1 X50.044 Y11.329 F96.000
G1 X49.885 Y11.623 F96.000
G1 X49.714 Y11.897 F96.000
G1 X49.472 Y12.206 F96.000
G1 X49.234 Y12.464 F96.000
G1 X48.968 Y12.710 F96.000
G1 X48.671 Y12.937 F96.000
G1 X48.353 Y13.119 F96.000
G1 X48.091 Y13.246 F96.000
G1 X47.353 Y13.480 F96.000
G1 X46.528 Y13.579 F96.000
G1 X46.020 Y13.567 F96.000
G1 X45.385 Y13.452 F96.000
G1 X44.706 Y13.190 F96.000
G1 X44.242 Y12.937 F96.000
G1 X43.921 Y12.702 F96.000
G1 X43.627 Y12.437 F96.000
G1 X43.413 Y12.210 F96.000
G1 X43.210 Y11.952 F96.000
G1 X43.024 Y11.659 F96.000
G1 X42.869 Y11.369 F96.000
G1 X42.722 Y11.016 F96.000
G1 X42.615 Y10.679 F96.000
G1 X42.536 Y10.337 F96.000
G1 X42.484 Y9.976 F96.000
G1 X42.464 Y9.583 F96.000
G1 X42.472 Y9.214 F96.000
G1 X42.528 Y8.845 F96.000
G1 X42.595 Y8.548 F96.000
G1 X42.698 Y8.218 F96.000
G1 X42.841 Y7.865 F96.000
G1 X43.020 Y7.516 F96.000
G1 X43.214 Y7.198 F96.000
G1 X43.456 Y6.901 F96.000
G1 X43.655 Y6.687 F96.000
G1 X43.909 Y6.452 F96.000
G1 X44.619 Y5.909 F96.000
G1 X44.734 Y5.865 F96.000
G1 X44.794 Y5.853 F96.000
G1 X45.210 Y5.853 F96.000
G1 X45.210 Y5.853 F96.000
G1 X45.226 Y5.861 F96.000
G0 X45.234 Y5.873
G0 X45.234 Y5.889
G1 X45.230 Y5.901 F96.000
G1 X45.206 Y5.893 F96.000
G1 X45.210 Y5.869 F96.000
G1 X45.242 Y5.853 F96.000
G1 X45.242 Y5.853 F96.000
G1 X45.778 Y5.853 F96.000
G1 X45.778 Y5.853 F96.000
G1 X45.929 Y5.885 F96.000
G1 X45.960 Y5.901 F96.000
G1 X45.988 Y5.913 F96.000
G0 X46.020 Y5.921
G0 X46.377 Y5.933
G1 X46.409 Y5.933 F96.000
G1 X46.567 Y5.921 F96.000
G1 X46.758 Y5.857 F96.000
G1 X46.825 Y5.853 F96.000
G1 X46.825 Y5.853 F96.000
G1 X46.821 Y5.861 F96.000
G1 X48.254 Y5.869 F96.000
G1 X48.552 Y5.925 F96.000
G1 X49.032 Y6.190 F96.000
G1 X49.278 Y6.369 F96.000
G1 X49.567 Y6.631 F96.000
G1 X49.833 Y6.913 F96.000
G1 X50.075 Y7.218 F96.000
G1 X50.270 Y7.532 F96.000
G1 X50.421 Y7.813 F96.000
G1 X50.575 Y8.159 F96.000
G1 X50.694 Y8.532 F96.000
G1 X50.782 Y8.889 F96.000
G1 X50.841 Y9.266 F96.000
G1 X50.869 Y9.651 F96.000
G1 X50.865 Y10.028 F96.000
G1 X50.813 Y10.409 F96.000
G1 X50.754 Y10.706 F96.000
G1 X50.651 Y11.044 F96.000
G1 X50.528 Y11.365 F96.000
G1 X50.353 Y11.718 F96.000
G1 X50.163 Y12.036 F96.000
G1 X49.952 Y12.349 F96.000
G1 X49.702 Y12.651 F96.000
G1 X49.429 Y12.933 F96.000
G1 X49.119 Y13.175 F96.000
G1 X48.317 Y13.583 F96.000
G1 X48.127 Y13.635 F96.000
G1 X45.016 Y13.627 F96.000
G1 X44.698 Y13.571 F96.000
G1 X44.214 Y13.373 F96.000
G1 X43.758 Y13.103 F96.000
G1 X43.440 Y12.865 F96.000
G1 X43.155 Y12.591 F96.000
G1 X42.913 Y12.313 F96.000
G1 X42.722 Y12.040 F96.000
G1 X42.567 Y11.790 F96.000
G1 X42.385 Y11.440 F96.000
G1 X42.242 Y11.071 F96.000
G1 X42.131 Y10.726 F96.000
G1 X42.044 Y10.341 F96.000
G1 X41.988 Y9.948 F96.000
G1 X41.964 Y9.567 F96.000
G1 X41.984 Y9.179 F96.000
G1 X42.024 Y8.861 F96.000
G1 X42.095 Y8.504 F96.000
G1 X42.210 Y8.127 F96.000
G1 X42.333 Y7.790 F96.000
G1 X42.504 Y7.433 F96.000
G1 X42.702 Y7.091 F96.000
G1 X42.921 Y6.770 F96.000
G1 X43.171 Y6.464 F96.000
G1 X43.710 Y5.913 F96.000
G1 X43.817 Y5.853 F96.000
G1 X43.817 Y5.853 F96.000
G1 X43.968 Y5.885 F96.000
G1 X44.028 Y5.917 F96.000
G0 X44.052 Y5.937
G0 X44.484 Y6.222
G0 X45.230 Y6.187
G0 X46.337 Y6.218
G0 X47.655 Y6.238
G0 X47.992 Y6.040
G1 X48.016 Y6.024 F96.000
G1 X48.044 Y6.004 F96.000
G1 X48.242 Y5.885 F96.000
G1 X48.409 Y5.853 F96.000
G1 X48.409 Y5.853 F96.000
G1 X48.944 Y5.861 F96.000
G1 X49.242 Y5.917 F96.000
G1 X49.659 Y6.163 F96.000
G1 X49.940 Y6.389 F96.000
G1 X50.214 Y6.667 F96.000
G1 X50.460 Y6.968 F96.000
G1 X50.679 Y7.290 F96.000
G1 X50.849 Y7.611 F96.000
G1 X50.984 Y7.905 F96.000
G1 X51.119 Y8.270 F96.000
G1 X51.218 Y8.647 F96.000
G1 X51.290 Y9.020 F96.000
G1 X51.333 Y9.409 F96.000
G1 X51.345 Y9.798 F96.000
G1 X51.325 Y10.187 F96.000
G1 X51.274 Y10.575 F96.000
G1 X51.183 Y10.956 F96.000
G1 X51.083 Y11.274 F96.000
G1 X50.937 Y11.619 F96.000
G1 X50.774 Y11.948 F96.000
G1 X50.579 Y12.290 F96.000
G1 X50.357 Y12.611 F96.000
G1 X50.111 Y12.917 F96.000
G1 X49.833 Y13.194 F96.000
G1 X49.262 Y13.595 F96.000
G1 X49.139 Y13.639 F96.000
G1 X48.440 Y13.643 F96.000
G1 X48.440 Y13.643 F96.000
G1 X48.306 Y13.615 F96.000
G1 X48.246 Y13.583 F96.000
G1 X48.222 Y13.560 F96.000
G0 X48.210 Y13.536
G0 X48.198 Y13.421
G0 X48.893 Y6.155
G1 X48.897 Y6.099 F96.000
G1 X48.917 Y5.980 F96.000
G1 X48.952 Y5.925 F96.000
G1 X49.036 Y5.873 F96.000
G1 X49.171 Y5.853 F96.000
G1 X49.171 Y5.853 F96.000
G1 X49.587 Y5.861 F96.000
G1 X49.825 Y5.905 F96.000
G1 X49.937 Y5.948 F96.000
G1 X50.238 Y6.147 F96.000
G1 X50.516 Y6.381 F96.000
G1 X50.782 Y6.667 F96.000
G1 X51.016 Y6.980 F96.000
G1 X51.222 Y7.313 F96.000
G1 X51.377 Y7.623 F96.000
G1 X51.504 Y7.937 F96.000
G1 X51.619 Y8.278 F96.000
G1 X51.718 Y8.655 F96.000
G1 X51.786 Y9.040 F96.000
G1 X51.829 Y9.429 F96.000
G1 X51.841 Y9.817 F96.000
G1 X51.825 Y10.206 F96.000
G1 X51.766 Y10.591 F96.000
G1 X51.694 Y10.921 F96.000
G1 X51.587 Y11.298 F96.000
G1 X51.452 Y11.667 F96.000
G1 X51.290 Y12.024 F96.000
G1 X51.103 Y12.369 F96.000
G1 X50.893 Y12.698 F96.000
G1 X50.659 Y13.012 F96.000
G1 X50.389 Y13.298 F96.000
G1 X50.044 Y13.583 F96.000
G1 X49.929 Y13.639 F96.000
G1 X49.484 Y13.643 F96.000
G1 X49.484 Y13.643 F96.000
G1 X49.349 Y13.615 F96.000
G1 X49.266 Y13.560 F96.000
G0 X49.250 Y13.536
G0 X49.234 Y13.417
G0 X49.540 Y6.155
G1 X49.540 Y6.099 F96.000
G1 X49.556 Y5.980 F96.000
G1 X49.591 Y5.925 F96.000
G1 X49.671 Y5.873 F96.000
G1 X49.806 Y5.853 F96.000
G1 X49.806 Y5.853 F96.000
G1 X50.222 Y5.873 F96.000
G1 X50.401 Y5.913 F96.000
G1 X50.611 Y6.024 F96.000
G1 X50.996 Y6.325 F96.000
G1 X51.302 Y6.659 F96.000
G1 X51.536 Y6.972 F96.000
G1 X51.734 Y7.310 F96.000
G1 X51.881 Y7.615 F96.000
G1 X52.004 Y7.933 F96.000
G1 X52.119 Y8.282 F96.000
G1 X52.214 Y8.659 F96.000
G1 X52.278 Y9.044 F96.000
G1 X52.317 Y9.433 F96.000
G1 X52.329 Y9.821 F96.000
G1 X52.313 Y10.210 F96.000
G1 X52.274 Y10.599 F96.000
G1 X52.190 Y10.980 F96.000
G1 X52.095 Y11.329 F96.000
G1 X51.968 Y11.698 F96.000
G1 X51.817 Y12.060 F96.000
G1 X51.643 Y12.409 F96.000
G1 X51.444 Y12.746 F96.000
G1 X51.226 Y13.071 F96.000
G1 X50.972 Y13.369 F96.000
G1 X50.734 Y13.579 F96.000
G1 X50.619 Y13.639 F96.000
G1 X50.238 Y13.643 F96.000
G1 X50.238 Y13.643 F96.000
G1 X50.103 Y13.615 F96.000
G1 X50.020 Y13.560 F96.000
G0 X50.004 Y13.536
G0 X49.984 Y13.417
G0 X50.048 Y6.155
G1 X50.052 Y6.099 F96.000
G1 X50.060 Y5.980 F96.000
G1 X50.095 Y5.925 F96.000
G1 X50.175 Y5.873 F96.000
G1 X50.310 Y5.853 F96.000
G1 X50.310 Y5.853 F96.000
G1 X50.667 Y5.857 F96.000
G1 X50.964 Y5.917 F96.000
G1 X51.123 Y6.000 F96.000
G1 X51.504 Y6.302 F96.000
G1 X51.591 Y6.389 F96.000
G1 X51.849 Y6.683 F96.000
G1 X52.075 Y7.000 F96.000
G1 X52.270 Y7.337 F96.000
G1 X52.409 Y7.647 F96.000
G1 X52.520 Y7.940 F96.000
G1 X52.631 Y8.313 F96.000
G1 X52.718 Y8.694 F96.000
G1 X52.778 Y9.079 F96.000
G1 X52.813 Y9.468 F96.000
G1 X52.821 Y9.857 F96.000
G1 X52.802 Y10.246 F96.000
G1 X52.758 Y10.635 F96.000
G1 X52.687 Y11.020 F96.000
G1 X52.587 Y11.401 F96.000
G1 X52.464 Y11.774 F96.000
G1 X52.325 Y12.139 F96.000
G1 X52.159 Y12.492 F96.000
G1 X51.972 Y12.837 F96.000
G1 X51.714 Y13.210 F96.000
G1 X51.353 Y13.575 F96.000
G1 X51.302 Y13.611 F96.000
G1 X51.242 Y13.635 F96.000
G1 X50.671 Y13.643 F96.000
G1 X50.671 Y13.643 F96.000
G1 X50.536 Y13.615 F96.000
G1 X50.452 Y13.560 F96.000
G0 X50.437 Y13.536
G0 X50.421 Y13.417
G0 X50.615 Y6.155
G1 X50.619 Y6.099 F96.000
G1 X50.631 Y5.980 F96.000
G1 X50.667 Y5.925 F96.000
G1 X50.746 Y5.873 F96.000
G1 X50.881 Y5.853 F96.000
G1 X50.881 Y5.853 F96.000
G1 X51.238 Y5.861 F96.000
G1 X51.476 Y5.909 F96.000
G1 X51.587 Y5.956 F96.000
G1 X52.063 Y6.329 F96.000
G1 X52.361 Y6.667 F96.000
G1 X52.583 Y6.988 F96.000
G1 X52.766 Y7.313 F96.000
G1 X52.901 Y7.611 F96.000
G1 X53.020 Y7.929 F96.000
G1 X53.135 Y8.302 F96.000
G1 X53.222 Y8.683 F96.000
G1 X53.282 Y9.067 F96.000
G1 X53.313 Y9.456 F96.000
G1 X53.321 Y9.845 F96.000
G1 X53.302 Y10.234 F96.000
G1 X53.262 Y10.623 F96.000
G1 X53.194 Y11.008 F96.000
G1 X53.103 Y11.389 F96.000
G1 X53.000 Y11.766 F96.000
G1 X52.869 Y12.135 F96.000
G1 X52.718 Y12.496 F96.000
G1 X52.528 Y12.841 F96.000
G1 X52.333 Y13.163 F96.000
G1 X52.048 Y13.492 F96.000
G1 X51.952 Y13.579 F96.000
G1 X51.841 Y13.643 F96.000
G1 X51.270 Y13.643 F96.000
G1 X51.270 Y13.643 F96.000
G1 X51.135 Y13.615 F96.000
G1 X51.052 Y13.560 F96.000
G0 X51.036 Y13.536
G0 X51.016 Y13.417
G0 X51.127 Y6.155
G1 X51.131 Y6.099 F96.000
G1 X51.139 Y5.980 F96.000
G1 X51.175 Y5.925 F96.000
G1 X51.254 Y5.873 F96.000
G1 X51.389 Y5.853 F96.000
G1 X51.389 Y5.853 F96.000
G1 X51.746 Y5.857 F96.000
G1 X51.984 Y5.901 F96.000
G1 X52.099 Y5.948 F96.000
G1 X52.532 Y6.282 F96.000
G1 X52.619 Y6.369 F96.000
G1 X52.873 Y6.663 F96.000
G1 X53.091 Y6.984 F96.000
G1 X53.278 Y7.317 F96.000
G1 X53.409 Y7.615 F96.000
G1 X53.524 Y7.929 F96.000
G1 X53.639 Y8.302 F96.000
G1 X53.718 Y8.683 F96.000
G1 X53.798 Y9.425 F96.000
G1 X53.770 Y10.377 F96.000
G1 X53.540 Y11.567 F96.000
G1 X53.147 Y12.611 F96.000
G1 X52.758 Y13.258 F96.000
G1 X52.516 Y13.548 F96.000
G1 X52.401 Y13.611 F96.000
G1 X52.020 Y13.643 F96.000
G1 X52.020 Y13.643 F96.000
G1 X51.885 Y13.615 F96.000
G1 X51.802 Y13.560 F96.000
G0 X51.786 Y13.536
G0 X51.766 Y13.417
G0 X51.702 Y6.155
G1 X51.702 Y6.099 F96.000
G1 X51.710 Y5.980 F96.000
G1 X51.742 Y5.925 F96.000
G1 X51.821 Y5.873 F96.000
G1 X51.956 Y5.853 F96.000
G1 X51.956 Y5.853 F96.000
G1 X52.313 Y5.861 F96.000
G1 X52.492 Y5.897 F96.000
G1 X52.607 Y5.940 F96.000
G1 X52.952 Y6.190 F96.000
G1 X53.210 Y6.448 F96.000
G1 X53.452 Y6.754 F96.000
G1 X53.663 Y7.083 F96.000
G1 X53.841 Y7.429 F96.000
G1 X54.012 Y7.869 F96.000
G1 X54.171 Y8.524 F96.000
G1 X54.206 Y8.821 F96.000
G1 X54.202 Y9.119 F96.000
G1 X53.762 Y12.155 F96.000
G1 X53.599 Y12.627 F96.000
G1 X53.286 Y13.163 F96.000
G1 X53.206 Y13.266 F96.000
G1 X53.000 Y13.413 F96.000
G1 X52.647 Y13.571 F96.000
G1 X52.520 Y13.599 F96.000
G1 X52.520 Y13.599 F96.000
G1 X52.385 Y13.583 F96.000
G1 X52.302 Y13.540 F96.000
G0 X52.282 Y13.516
G0 X52.262 Y13.401
G0 X52.210 Y6.155
G1 X52.210 Y6.099 F96.000
G1 X52.218 Y5.980 F96.000
G1 X52.250 Y5.925 F96.000
G1 X52.329 Y5.873 F96.000
G1 X52.464 Y5.853 F96.000
G1 X52.464 Y5.853 F96.000
G1 X52.762 Y5.857 F96.000
G1 X53.000 Y5.901 F96.000
G1 X53.218 Y5.996 F96.000
G1 X53.548 Y6.258 F96.000
G1 X53.901 Y6.671 F96.000
G1 X54.298 Y7.361 F96.000
G1 X54.365 Y7.532 F96.000
G1 X54.397 Y7.710 F96.000
G1 X54.242 Y8.841 F96.000
G1 X54.242 Y8.841 F96.000
G1 X54.175 Y8.988 F96.000
G1 X54.139 Y9.024 F96.000
G0 X54.119 Y9.024
G0 X54.063 Y8.944
G0 X52.901 Y6.115
G1 X52.885 Y6.075 F96.000
G1 X52.853 Y5.972 F96.000
G1 X52.877 Y5.929 F96.000
G1 X52.956 Y5.893 F96.000
G1 X53.091 Y5.897 F96.000
G1 X53.091 Y5.897 F96.000
G1 X53.389 Y5.972 F96.000
G1 X53.611 Y6.067 F96.000
G1 X53.853 Y6.250 F96.000
G1 X54.131 Y6.560 F96.000
G1 X54.306 Y6.877 F96.000
G1 X54.393 Y7.171 F96.000
G1 X54.413 Y7.409 F96.000
G1 X54.413 Y7.409 F96.000
G1 X54.377 Y7.532 F96.000
G1 X54.329 Y7.615 F96.000
G0 X54.310 Y7.643
G0 X54.024 Y8.115
G0 X53.698 Y9.921
G0 X53.567 Y11.409
G0 X53.659 Y11.766
G1 X53.671 Y11.798 F96.000
G1 X53.710 Y11.925 F96.000
G1 X53.774 Y12.115 F96.000
G1 X53.778 Y12.218 F96.000
G1 X53.778 Y12.218 F96.000
G1 X53.730 Y12.456 F96.000
G1 X53.671 Y12.635 F96.000
G1 X53.560 Y12.857 F96.000
G1 X53.333 Y13.159 F96.000
G1 X53.242 Y13.246 F96.000
G1 X53.242 Y13.246 F96.000
G1 X53.083 Y13.306 F96.000
G1 X53.016 Y13.313 F96.000
G0 X52.984 Y13.313
G0 X52.806 Y13.306
G0 X50.837 Y13.175
G0 X45.984 Y13.298
G0 X45.587 Y13.246
G0 X45.282 Y13.429
G1 X45.254 Y13.448 F96.000
G1 X45.202 Y13.488 F96.000
G1 X45.012 Y13.615 F96.000
G1 X44.889 Y13.643 F96.000
G1 X44.889 Y13.643 F96.000
G1 X44.317 Y13.635 F96.000
G1 X44.000 Y13.579 F96.000
G1 X43.409 Y13.294 F96.000
G1 X43.135 Y13.103 F96.000
G1 X42.829 Y12.849 F96.000
G1 X42.556 Y12.563 F96.000
G1 X42.321 Y12.266 F96.000
G1 X42.151 Y11.992 F96.000
G1 X42.004 Y11.726 F96.000
G1 X41.841 Y11.365 F96.000
G1 X41.706 Y10.992 F96.000
G1 X41.599 Y10.611 F96.000
G1 X41.520 Y10.222 F96.000
G1 X41.480 Y9.829 F96.000
G1 X41.468 Y9.468 F96.000
G1 X41.488 Y9.075 F96.000
G1 X41.540 Y8.683 F96.000
G1 X41.619 Y8.310 F96.000
G1 X41.730 Y7.937 F96.000
G1 X41.873 Y7.575 F96.000
G1 X42.036 Y7.226 F96.000
G1 X42.230 Y6.885 F96.000
G1 X42.444 Y6.556 F96.000
G1 X42.925 Y5.944 F96.000
G1 X42.968 Y5.901 F96.000
G1 X43.020 Y5.869 F96.000
G1 X43.079 Y5.853 F96.000
G1 X43.079 Y5.853 F96.000
G1 X43.202 Y5.873 F96.000
G1 X43.282 Y5.921 F96.000
G0 X43.298 Y5.944
G0 X43.333 Y6.060
G0 X44.333 Y13.317
G1 X44.341 Y13.369 F96.000
G1 X44.353 Y13.512 F96.000
G1 X44.325 Y13.560 F96.000
G1 X44.254 Y13.615 F96.000
G1 X44.131 Y13.643 F96.000
G1 X44.131 Y13.643 F96.000
G1 X43.687 Y13.639 F96.000
G1 X43.369 Y13.579 F96.000
G1 X42.948 Y13.385 F96.000
G1 X42.571 Y13.111 F96.000
G1 X42.270 Y12.853 F96.000
G1 X42.004 Y12.560 F96.000
G1 X41.774 Y12.238 F96.000
G1 X41.615 Y11.976 F96.000
G1 X41.464 Y11.694 F96.000
G1 X41.306 Y11.333 F96.000
G1 X41.183 Y10.956 F96.000
G1 X41.083 Y10.579 F96.000
G1 X41.012 Y10.190 F96.000
G1 X40.972 Y9.798 F96.000
G1 X40.964 Y9.405 F96.000
G1 X40.984 Y9.012 F96.000
G1 X41.036 Y8.619 F96.000
G1 X41.115 Y8.234 F96.000
G1 X41.226 Y7.857 F96.000
G1 X41.357 Y7.484 F96.000
G1 X41.512 Y7.123 F96.000
G1 X41.694 Y6.774 F96.000
G1 X41.897 Y6.437 F96.000
G1 X42.234 Y5.964 F96.000
G1 X42.325 Y5.877 F96.000
G1 X42.381 Y5.853 F96.000
G1 X42.381 Y5.853 F96.000
G1 X42.504 Y5.873 F96.000
G1 X42.583 Y5.921 F96.000
G0 X42.599 Y5.944
G0 X42.635 Y6.060
G0 X43.635 Y13.317
G1 X43.643 Y13.369 F96.000
G1 X43.655 Y13.512 F96.000
G1 X43.627 Y13.560 F96.000
G1 X43.556 Y13.615 F96.000
G1 X43.433 Y13.643 F96.000
G1 X43.433 Y13.643 F96.000
G1 X43.052 Y13.635 F96.000
G1 X42.798 Y13.587 F96.000
G1 X42.496 Y13.456 F96.000
G1 X42.012 Y13.115 F96.000
G1 X41.718 Y12.849 F96.000
G1 X41.460 Y12.552 F96.000
G1 X41.246 Y12.246 F96.000
G1 X41.087 Y11.976 F96.000
G1 X40.940 Y11.687 F96.000
G1 X40.790 Y11.321 F96.000
G1 X40.671 Y10.944 F96.000
G1 X40.579 Y10.563 F96.000
G1 X40.516 Y10.175 F96.000
G1 X40.472 Y9.782 F96.000
G1 X40.460 Y9.389 F96.000
G1 X40.476 Y8.996 F96.000
G1 X40.520 Y8.603 F96.000
G1 X40.591 Y8.214 F96.000
G1 X40.690 Y7.833 F96.000
G1 X40.813 Y7.460 F96.000
G1 X40.956 Y7.091 F96.000
G1 X41.127 Y6.734 F96.000
G1 X41.317 Y6.389 F96.000
G1 X41.615 Y5.960 F96.000
G1 X41.706 Y5.873 F96.000
G1 X41.766 Y5.853 F96.000
G1 X41.766 Y5.853 F96.000
G1 X41.889 Y5.873 F96.000
G1 X41.968 Y5.921 F96.000
G0 X41.984 Y5.944
G0 X42.020 Y6.060
G0 X43.067 Y13.317
G1 X43.075 Y13.369 F96.000
G1 X43.087 Y13.512 F96.000
G1 X43.060 Y13.560 F96.000
G1 X42.988 Y13.615 F96.000
G1 X42.865 Y13.643 F96.000
G1 X42.865 Y13.643 F96.000
G1 X42.484 Y13.635 F96.000
G1 X42.230 Y13.587 F96.000
G1 X41.929 Y13.444 F96.000
G1 X41.448 Y13.095 F96.000
G1 X41.155 Y12.829 F96.000
G1 X40.905 Y12.524 F96.000
G1 X40.706 Y12.230 F96.000
G1 X40.552 Y11.960 F96.000
G1 X40.409 Y11.663 F96.000
G1 X40.262 Y11.294 F96.000
G1 X40.151 Y10.913 F96.000
G1 X40.060 Y10.536 F96.000
G1 X40.000 Y10.147 F96.000
G1 X39.960 Y9.754 F96.000
G1 X39.948 Y9.361 F96.000
G1 X39.964 Y8.968 F96.000
G1 X40.004 Y8.575 F96.000
G1 X40.071 Y8.187 F96.000
G1 X40.159 Y7.802 F96.000
G1 X40.270 Y7.425 F96.000
G1 X40.405 Y7.056 F96.000
G1 X40.560 Y6.694 F96.000
G1 X40.869 Y6.123 F96.000
G1 X40.980 Y5.968 F96.000
G1 X41.071 Y5.877 F96.000
G1 X41.127 Y5.853 F96.000
G1 X41.127 Y5.853 F96.000
G1 X41.250 Y5.873 F96.000
G1 X41.329 Y5.921 F96.000
G0 X41.345 Y5.944
G0 X41.381 Y6.060
G0 X42.492 Y13.317
G1 X42.500 Y13.373 F96.000
G1 X42.516 Y13.512 F96.000
G1 X42.488 Y13.560 F96.000
G1 X42.417 Y13.615 F96.000
G1 X42.294 Y13.643 F96.000
G1 X42.294 Y13.643 F96.000
G1 X41.849 Y13.619 F96.000
G1 X41.595 Y13.560 F96.000
G1 X41.417 Y13.472 F96.000
G1 X41.087 Y13.246 F96.000
G1 X40.933 Y13.115 F96.000
G1 X40.643 Y12.845 F96.000
G1 X40.393 Y12.540 F96.000
G1 X40.183 Y12.234 F96.000
G1 X40.028 Y11.952 F96.000
G1 X39.893 Y11.667 F96.000
G1 X39.750 Y11.306 F96.000
G1 X39.631 Y10.929 F96.000
G1 X39.544 Y10.544 F96.000
G1 X39.480 Y10.155 F96.000
G1 X39.444 Y9.762 F96.000
G1 X39.429 Y9.369 F96.000
G1 X39.444 Y8.976 F96.000
G1 X39.476 Y8.583 F96.000
G1 X39.536 Y8.194 F96.000
G1 X39.619 Y7.810 F96.000
G1 X39.722 Y7.429 F96.000
G1 X39.841 Y7.052 F96.000
G1 X39.984 Y6.687 F96.000
G1 X40.270 Y6.107 F96.000
G1 X40.381 Y5.948 F96.000
G1 X40.425 Y5.901 F96.000
G1 X40.476 Y5.865 F96.000
G1 X40.476 Y5.865 F96.000
G1 X40.599 Y5.885 F96.000
G1 X40.679 Y5.933 F96.000
G0 X40.694 Y5.956
G0 X40.734 Y6.071
G0 X41.984 Y13.317
G1 X41.992 Y13.373 F96.000
G1 X42.008 Y13.512 F96.000
G1 X41.980 Y13.560 F96.000
G1 X41.909 Y13.615 F96.000
G1 X41.786 Y13.643 F96.000
G1 X41.786 Y13.643 F96.000
G1 X41.405 Y13.635 F96.000
G1 X41.151 Y13.587 F96.000
G1 X40.909 Y13.480 F96.000
G1 X40.528 Y13.218 F96.000
G1 X40.234 Y12.948 F96.000
G1 X39.960 Y12.663 F96.000
G1 X39.627 Y12.175 F96.000
G1 X39.214 Y11.274 F96.000
G1 X38.952 Y10.194 F96.000
G1 X38.845 Y9.115 F96.000
G1 X38.984 Y7.909 F96.000
G1 X39.091 Y7.464 F96.000
G1 X39.214 Y7.087 F96.000
G1 X39.560 Y6.246 F96.000
G1 X39.730 Y5.980 F96.000
G1 X39.778 Y5.937 F96.000
G1 X39.893 Y5.897 F96.000
G1 X39.893 Y5.897 F96.000
G1 X40.048 Y5.901 F96.000
G1 X40.103 Y5.925 F96.000
G0 X40.123 Y5.944
G0 X40.163 Y6.056
G0 X41.417 Y13.317
G1 X41.425 Y13.373 F96.000
G1 X41.440 Y13.512 F96.000
G1 X41.413 Y13.560 F96.000
G1 X41.341 Y13.615 F96.000
G1 X41.218 Y13.643 F96.000
G1 X41.218 Y13.643 F96.000
G1 X40.901 Y13.639 F96.000
G1 X40.647 Y13.591 F96.000
G1 X40.460 Y13.528 F96.000
G1 X40.020 Y13.238 F96.000
G1 X39.639 Y12.873 F96.000
G1 X39.345 Y12.512 F96.000
G1 X39.218 Y12.278 F96.000
G1 X39.075 Y11.262 F96.000
G1 X39.075 Y11.262 F96.000
G1 X39.087 Y11.095 F96.000
G1 X39.111 Y11.052 F96.000
G0 X39.127 Y11.044
G0 X39.194 Y11.111
G0 X40.706 Y13.369
G1 X40.730 Y13.401 F96.000
G1 X40.790 Y13.512 F96.000
G1 X40.778 Y13.556 F96.000
G1 X40.702 Y13.595 F96.000
G1 X40.583 Y13.611 F96.000
G1 X40.583 Y13.611 F96.000
G1 X40.456 Y13.599 F96.000
G1 X39.968 Y13.397 F96.000
G1 X39.750 Y13.238 F96.000
G1 X39.611 Y13.103 F96.000
G1 X39.417 Y12.833 F96.000
G1 X39.302 Y12.595 F96.000
G1 X39.302 Y12.595 F96.000
G1 X39.294 Y12.425 F96.000
G1 X39.310 Y12.361 F96.000
G0 X39.317 Y12.325
G0 X39.464 Y11.583
G0 X39.365 Y10.198
G0 X39.048 Y9.722
G1 X39.028 Y9.690 F96.000
G1 X38.960 Y9.603 F96.000
G1 X38.841 Y9.440 F96.000
G1 X38.813 Y9.353 F96.000
G1 X38.813 Y9.353 F96.000
G1 X38.603 Y7.639 F96.000
G1 X38.623 Y7.321 F96.000
G1 X38.746 Y6.813 F96.000
G1 X38.794 Y6.694 F96.000
G1 X38.889 Y6.528 F96.000
G1 X39.194 Y6.202 F96.000
G1 X39.345 Y6.087 F96.000
G1 X39.345 Y6.087 F96.000
G1 X39.425 Y6.063 F96.000
G0 X39.437 Y6.071
G0 X39.385 Y6.433
G0 X39.127 Y6.833
G0 X39.020 Y7.254
G0 X38.901 Y7.353
G1 X38.869 Y7.369 F96.000
G1 X38.675 Y7.480 F96.000
G1 X38.623 Y7.488 F96.000
G1 X38.591 Y7.456 F96.000
G1 X38.575 Y7.405 F96.000
G1 X38.575 Y7.405 F96.000
G1 X38.611 Y7.151 F96.000
G1 X38.611 Y7.151 F96.000
G1 X38.623 Y7.135 F96.000
G0 X38.635 Y7.131
G0 X38.647 Y7.139
G1 X38.655 Y7.155 F96.000
G1 X38.635 Y7.179 F96.000
G1 X38.603 Y7.175 F96.000
G1 X38.583 Y7.147 F96.000
G1 X38.583 Y7.147 F96.000
G1 X38.667 Y6.877 F96.000
G1 X38.710 Y6.786 F96.000
G1 X38.889 Y6.484 F96.000
G1 X39.179 Y6.183 F96.000
G1 X39.317 Y6.075 F96.000
G1 X39.468 Y5.996 F96.000
G1 X39.635 Y5.933 F96.000
G1 X40.000 Y5.845 F96.000
G1 X40.258 Y5.825 F96.000
G1 X52.813 Y5.829 F96.000
G1 X52.960 Y5.841 F96.000
G1 X53.337 Y5.925 F96.000
G1 X53.413 Y5.948 F96.000
G1 X53.667 Y6.067 F96.000
G1 X53.877 Y6.230 F96.000
G1 X54.119 Y6.500 F96.000
G1 X54.175 Y6.579 F96.000
G1 X54.321 Y6.845 F96.000
G1 X54.417 Y7.147 F96.000
G1 X54.440 Y7.361 F96.000
G1 X54.433 Y7.663 F96.000
G1 X53.790 Y12.341 F96.000
G1 X53.702 Y12.639 F96.000
G1 X53.587 Y12.861 F96.000
G1 X53.385 Y13.147 F96.000
G1 X53.238 Y13.282 F96.000
G1 X53.032 Y13.429 F96.000
G1 X52.730 Y13.571 F96.000
G1 X52.635 Y13.603 F96.000
G1 X52.484 Y13.631 F96.000
G1 X52.024 Y13.671 F96.000
G1 X40.964 Y13.671 F96.000
G1 X40.444 Y13.623 F96.000
G1 X40.294 Y13.575 F96.000
G1 X39.964 Y13.421 F96.000
G1 X39.679 Y13.210 F96.000
G1 X39.611 Y13.143 F96.000
G1 X39.401 Y12.853 F96.000
G1 X39.270 Y12.579 F96.000
G1 X39.175 Y12.194 F96.000
G1 X38.567 Y7.722 F96.000
G1 X38.552 Y7.401 F96.000
G1 X38.583 Y7.147 F96.000
G1 X38.583 Y7.147 F96.000
G0 Z8.000
G0 Z8.000
(Finish operation: Adaptive001-LeftCutout)
(Begin operation: Adaptive002-RightMountPocket)
(Path: Adaptive002-RightMountPocket)
(Adaptive002)
(Helix to depth: 1.000000)
G0 Z8.000
G0 X87.910 Y8.788 Z8.000
G0 X87.910 Y8.788 Z6.000
G1 X87.910 Y8.788 Z3.000 F60.000
G1 X87.910 Y8.788 Z3.000 F60.000
G1 X88.111 Y8.674 Z2.980 F60.000
G1 X88.330 Y8.602 Z2.959 F60.000
G1 X88.559 Y8.574 Z2.939 F60.000
G1 X88.789 Y8.591 Z2.918 F60.000
G1 X89.011 Y8.652 Z2.898 F60.000
G1 X89.217 Y8.756 Z2.878 F60.000
G1 X89.399 Y8.898 Z2.857 F60.000
G1 X89.549 Y9.073 Z2.837 F60.000
G1 X89.663 Y9.273 Z2.817 F60.000
G1 X89.735 Y9.492 Z2.796 F60.000
G1 X89.763 Y9.721 Z2.776 F60.000
G1 X89.746 Y9.951 Z2.755 F60.000
G1 X89.685 Y10.174 Z2.735 F60.000
G1 X89.581 Y10.380 Z2.715 F60.000
G1 X89.439 Y10.561 Z2.694 F60.000
G1 X89.265 Y10.712 Z2.674 F60.000
G1 X89.064 Y10.826 Z2.654 F60.000
G1 X88.845 Y10.898 Z2.633 F60.000
G1 X88.616 Y10.926 Z2.613 F60.000
G1 X88.386 Y10.909 Z2.592 F60.000
G1 X88.164 Y10.848 Z2.572 F60.000
G1 X87.958 Y10.744 Z2.552 F60.000
G1 X87.776 Y10.602 Z2.531 F60.000
G1 X87.625 Y10.427 Z2.511 F60.000
G1 X87.512 Y10.227 Z2.490 F60.000
G1 X87.439 Y10.008 Z2.470 F60.000
G1 X87.411 Y9.779 Z2.450 F60.000
G1 X87.428 Y9.549 Z2.429 F60.000
G1 X87.490 Y9.326 Z2.409 F60.000
G1 X87.593 Y9.120 Z2.389 F60.000
G1 X87.735 Y8.939 Z2.368 F60.000
G1 X87.910 Y8.788 Z2.348 F60.000
G1 X88.111 Y8.674 Z2.327 F60.000
G1 X88.330 Y8.602 Z2.307 F60.000
G1 X88.559 Y8.574 Z2.287 F60.000
G1 X88.789 Y8.591 Z2.266 F60.000
G1 X89.011 Y8.652 Z2.246 F60.000
G1 X89.217 Y8.756 Z2.225 F60.000
G1 X89.399 Y8.898 Z2.205 F60.000
G1 X89.549 Y9.073 Z2.185 F60.000
G1 X89.663 Y9.273 Z2.164 F60.000
G1 X89.735 Y9.492 Z2.144 F60.000
G1 X89.763 Y9.721 Z2.124 F60.000
G1 X89.746 Y9.951 Z2.103 F60.000
G1 X89.685 Y10.174 Z2.083 F60.000
G1 X89.581 Y10.380 Z2.062 F60.000
G1 X89.439 Y10.561 Z2.042 F60.000
G1 X89.265 Y10.712 Z2.022 F60.000
G1 X89.064 Y10.826 Z2.001 F60.000
G1 X88.845 Y10.898 Z1.981 F60.000
G1 X88.616 Y10.926 Z1.961 F60.000
G1 X88.386 Y10.909 Z1.940 F60.000
G1 X88.164 Y10.848 Z1.920 F60.000
G1 X87.958 Y10.744 Z1.899 F60.000
G1 X87.776 Y10.602 Z1.879 F60.000
G1 X87.625 Y10.427 Z1.859 F60.000
G1 X87.512 Y10.227 Z1.838 F60.000
G1 X87.439 Y10.008 Z1.818 F60.000
G1 X87.411 Y9.779 Z1.797 F60.000
G1 X87.428 Y9.549 Z1.777 F60.000
G1 X87.490 Y9.326 Z1.757 F60.000
G1 X87.593 Y9.120 Z1.736 F60.000
G1 X87.735 Y8.939 Z1.716 F60.000
G1 X87.910 Y8.788 Z1.696 F60.000
G1 X88.111 Y8.674 Z1.675 F60.000
G1 X88.330 Y8.602 Z1.655 F60.000
G1 X88.559 Y8.574 Z1.634 F60.000
G1 X88.789 Y8.591 Z1.614 F60.000
G1 X89.011 Y8.652 Z1.594 F60.000
G1 X89.217 Y8.756 Z1.573 F60.000
G1 X89.399 Y8.898 Z1.553 F60.000
G1 X89.549 Y9.073 Z1.532 F60.000
G1 X89.663 Y9.273 Z1.512 F60.000
G1 X89.735 Y9.492 Z1.492 F60.000
G1 X89.763 Y9.721 Z1.471 F60.000
G1 X89.746 Y9.951 Z1.451 F60.000
G1 X89.685 Y10.174 Z1.431 F60.000
G1 X89.581 Y10.380 Z1.410 F60.000
G1 X89.439 Y10.561 Z1.390 F60.000
G1 X89.265 Y10.712 Z1.369 F60.000
G1 X89.064 Y10.826 Z1.349 F60.000
G1 X88.845 Y10.898 Z1.329 F60.000
G1 X88.616 Y10.926 Z1.308 F60.000
G1 X88.386 Y10.909 Z1.288 F60.000
G1 X88.164 Y10.848 Z1.268 F60.000
G1 X87.958 Y10.744 Z1.247 F60.000
G1 X87.776 Y10.602 Z1.227 F60.000
G1 X87.625 Y10.427 Z1.206 F60.000
G1 X87.512 Y10.227 Z1.186 F60.000
G1 X87.439 Y10.008 Z1.166 F60.000
G1 X87.411 Y9.779 Z1.145 F60.000
G1 X87.428 Y9.549 Z1.125 F60.000
G1 X87.490 Y9.326 Z1.104 F60.000
G1 X87.593 Y9.120 Z1.084 F60.000
G1 X87.735 Y8.939 Z1.064 F60.000
G1 X87.910 Y8.788 Z1.043 F60.000
G1 X88.111 Y8.674 Z1.023 F60.000
G1 X88.330 Y8.602 Z1.003 F60.000
G1 X88.559 Y8.574 Z1.000 F96.000
G1 X88.789 Y8.591 Z1.000 F96.000
G1 X89.011 Y8.652 Z1.000 F96.000
G1 X89.217 Y8.756 Z1.000 F96.000
G1 X89.399 Y8.898 Z1.000 F96.000
G1 X89.549 Y9.073 Z1.000 F96.000
G1 X89.663 Y9.273 Z1.000 F96.000
G1 X89.735 Y9.492 Z1.000 F96.000
G1 X89.763 Y9.721 Z1.000 F96.000
G1 X89.746 Y9.951 Z1.000 F96.000
G1 X89.685 Y10.174 Z1.000 F96.000
G1 X89.581 Y10.380 Z1.000 F96.000
G1 X89.439 Y10.561 Z1.000 F96.000
G1 X89.265 Y10.712 Z1.000 F96.000
G1 X89.064 Y10.826 Z1.000 F96.000
G1 X88.845 Y10.898 Z1.000 F96.000
G1 X88.616 Y10.926 Z1.000 F96.000
G1 X88.386 Y10.909 Z1.000 F96.000
G1 X88.164 Y10.848 Z1.000 F96.000
G1 X87.958 Y10.744 Z1.000 F96.000
G1 X87.776 Y10.602 Z1.000 F96.000
G1 X87.625 Y10.427 Z1.000 F96.000
G1 X87.512 Y10.227 Z1.000 F96.000
G1 X87.439 Y10.008 Z1.000 F96.000
G1 X87.411 Y9.779 Z1.000 F96.000
G1 X87.428 Y9.549 Z1.000 F96.000
G1 X87.490 Y9.326 Z1.000 F96.000
G1 X87.593 Y9.120 Z1.000 F96.000
G1 X87.735 Y8.939 Z1.000 F96.000
G1 X87.910 Y8.788 Z1.000 F96.000
G1 X88.111 Y8.674 Z1.000 F96.000
G1 X88.330 Y8.602 Z1.000 F96.000
(Adaptive - depth: 1.000000)
G1 X88.587 Y8.563 F96.000
G1 X88.631 Y8.516 F96.000
G1 X88.806 Y8.452 F96.000
G1 X88.984 Y8.440 F96.000
G1 X89.103 Y8.452 F96.000
G1 X89.464 Y8.595 F96.000
G1 X89.635 Y8.726 F96.000
G1 X89.730 Y8.821 F96.000
G1 X89.825 Y8.944 F96.000
G1 X89.929 Y9.115 F96.000
G1 X90.028 Y9.369 F96.000
G1 X90.067 Y9.583 F96.000
G1 X90.075 Y9.770 F96.000
G1 X90.063 Y9.960 F96.000
G1 X90.012 Y10.187 F96.000
G1 X89.929 Y10.401 F96.000
G1 X89.817 Y10.587 F96.000
G1 X89.690 Y10.746 F96.000
G1 X89.532 Y10.893 F96.000
G1 X89.361 Y11.016 F96.000
G1 X89.159 Y11.119 F96.000
G1 X88.952 Y11.187 F96.000
G1 X88.738 Y11.226 F96.000
G1 X88.516 Y11.234 F96.000
G1 X88.298 Y11.210 F96.000
G1 X88.087 Y11.151 F96.000
G1 X87.905 Y11.071 F96.000
G1 X87.718 Y10.964 F96.000
G1 X87.528 Y10.806 F96.000
G1 X87.385 Y10.643 F96.000
G1 X87.270 Y10.472 F96.000
G1 X87.175 Y10.274 F96.000
G1 X87.111 Y10.071 F96.000
G1 X87.079 Y9.861 F96.000
G1 X87.079 Y9.647 F96.000
G1 X87.111 Y9.437 F96.000
G1 X87.167 Y9.234 F96.000
G1 X87.262 Y9.024 F96.000
G1 X87.377 Y8.837 F96.000
G1 X87.516 Y8.671 F96.000
G1 X87.683 Y8.524 F96.000
G1 X87.861 Y8.397 F96.000
G1 X88.079 Y8.274 F96.000
G1 X88.464 Y8.123 F96.000
G1 X88.702 Y8.075 F96.000
G1 X88.762 Y8.071 F96.000
G1 X89.151 Y8.111 F96.000
G1 X89.480 Y8.226 F96.000
G1 X89.643 Y8.313 F96.000
G1 X89.782 Y8.409 F96.000
G1 X89.937 Y8.548 F96.000
G1 X90.099 Y8.750 F96.000
G1 X90.222 Y8.944 F96.000
G1 X90.317 Y9.155 F96.000
G1 X90.385 Y9.385 F96.000
G1 X90.421 Y9.615 F96.000
G1 X90.425 Y9.849 F96.000
G1 X90.397 Y10.083 F96.000
G1 X90.333 Y10.310 F96.000
G1 X90.250 Y10.508 F96.000
G1 X90.139 Y10.706 F96.000
G1 X89.992 Y10.909 F96.000
G1 X89.806 Y11.103 F96.000
G1 X89.607 Y11.254 F96.000
G1 X89.417 Y11.369 F96.000
G1 X89.190 Y11.464 F96.000
G1 X88.960 Y11.528 F96.000
G1 X88.726 Y11.563 F96.000
G1 X88.484 Y11.567 F96.000
G1 X88.246 Y11.540 F96.000
G1 X88.012 Y11.480 F96.000
G1 X87.786 Y11.397 F96.000
G1 X87.548 Y11.266 F96.000
G1 X87.349 Y11.115 F96.000
G1 X87.190 Y10.964 F96.000
G1 X87.040 Y10.774 F96.000
G1 X86.921 Y10.567 F96.000
G1 X86.829 Y10.353 F96.000
G1 X86.766 Y10.123 F96.000
G1 X86.734 Y9.889 F96.000
G1 X86.726 Y9.655 F96.000
G1 X86.758 Y9.389 F96.000
G1 X86.813 Y9.151 F96.000
G1 X86.901 Y8.921 F96.000
G1 X87.020 Y8.698 F96.000
G1 X87.163 Y8.496 F96.000
G1 X87.329 Y8.310 F96.000
G1 X87.520 Y8.147 F96.000
G1 X87.722 Y8.004 F96.000
G1 X87.976 Y7.865 F96.000
G1 X88.250 Y7.774 F96.000
G1 X88.468 Y7.718 F96.000
G1 X88.730 Y7.690 F96.000
G1 X88.984 Y7.698 F96.000
G1 X89.226 Y7.742 F96.000
G1 X89.440 Y7.806 F96.000
G1 X89.663 Y7.897 F96.000
G1 X89.897 Y8.032 F96.000
G1 X90.111 Y8.194 F96.000
G1 X90.290 Y8.381 F96.000
G1 X90.425 Y8.556 F96.000
G1 X90.556 Y8.766 F96.000
G1 X90.663 Y9.016 F96.000
G1 X90.734 Y9.254 F96.000
G1 X90.778 Y9.508 F96.000
G1 X90.794 Y9.762 F96.000
G1 X90.774 Y10.044 F96.000
G1 X90.714 Y10.302 F96.000
G1 X90.643 Y10.520 F96.000
G1 X90.536 Y10.754 F96.000
G1 X90.389 Y10.992 F96.000
G1 X90.218 Y11.210 F96.000
G1 X90.028 Y11.401 F96.000
G1 X89.810 Y11.563 F96.000
G1 X89.603 Y11.687 F96.000
G1 X89.361 Y11.790 F96.000
G1 X89.115 Y11.869 F96.000
G1 X88.841 Y11.921 F96.000
G1 X88.575 Y11.937 F96.000
G1 X88.310 Y11.925 F96.000
G1 X88.040 Y11.877 F96.000
G1 X87.782 Y11.802 F96.000
G1 X87.532 Y11.694 F96.000
G1 X87.298 Y11.552 F96.000
G1 X87.107 Y11.405 F96.000
G1 X86.921 Y11.222 F96.000
G1 X86.762 Y11.020 F96.000
G1 X86.627 Y10.806 F96.000
G1 X86.504 Y10.544 F96.000
G1 X86.421 Y10.294 F96.000
G1 X86.365 Y10.032 F96.000
G1 X86.341 Y9.762 F96.000
G1 X86.349 Y9.496 F96.000
G1 X86.389 Y9.230 F96.000
G1 X86.460 Y8.972 F96.000
G1 X86.556 Y8.722 F96.000
G1 X86.694 Y8.460 F96.000
G1 X86.849 Y8.234 F96.000
G1 X87.028 Y8.024 F96.000
G1 X87.234 Y7.833 F96.000
G1 X87.456 Y7.667 F96.000
G1 X87.694 Y7.528 F96.000
G1 X87.952 Y7.417 F96.000
G1 X88.218 Y7.333 F96.000
G1 X88.492 Y7.282 F96.000
G1 X88.770 Y7.262 F96.000
G1 X89.048 Y7.286 F96.000
G1 X89.278 Y7.329 F96.000
G1 X89.528 Y7.397 F96.000
G1 X89.817 Y7.512 F96.000
G1 X90.083 Y7.655 F96.000
G1 X90.313 Y7.833 F96.000
G1 X90.476 Y7.984 F96.000
G1 X90.651 Y8.187 F96.000
G1 X90.817 Y8.425 F96.000
G1 X90.956 Y8.683 F96.000
G1 X91.063 Y8.944 F96.000
G1 X91.143 Y9.226 F96.000
G1 X91.190 Y9.512 F96.000
G1 X91.194 Y9.798 F96.000
G1 X91.175 Y10.032 F96.000
G1 X91.127 Y10.298 F96.000
G1 X91.040 Y10.583 F96.000
G1 X90.921 Y10.865 F96.000
G1 X90.782 Y11.123 F96.000
G1 X90.611 Y11.369 F96.000
G1 X90.409 Y11.587 F96.000
G1 X90.214 Y11.762 F96.000
G1 X89.980 Y11.929 F96.000
G1 X89.730 Y12.063 F96.000
G1 X89.472 Y12.171 F96.000
G1 X89.198 Y12.250 F96.000
G1 X88.921 Y12.302 F96.000
G1 X88.611 Y12.325 F96.000
G1 X88.321 Y12.313 F96.000
G1 X88.028 Y12.274 F96.000
G1 X87.738 Y12.202 F96.000
G1 X87.460 Y12.099 F96.000
G1 X87.198 Y11.960 F96.000
G1 X86.988 Y11.821 F96.000
G1 X86.774 Y11.639 F96.000
G1 X86.583 Y11.440 F96.000
G1 X86.405 Y11.202 F96.000
G1 X86.258 Y10.956 F96.000
G1 X86.135 Y10.702 F96.000
G1 X86.032 Y10.401 F96.000
G1 X85.964 Y10.111 F96.000
G1 X85.937 Y9.813 F96.000
G1 X85.937 Y9.556 F96.000
G1 X85.960 Y9.274 F96.000
G1 X86.024 Y8.964 F96.000
G1 X86.119 Y8.667 F96.000
G1 X86.238 Y8.389 F96.000
G1 X86.389 Y8.119 F96.000
G1 X86.575 Y7.877 F96.000
G1 X86.746 Y7.690 F96.000
G1 X86.960 Y7.496 F96.000
G1 X87.218 Y7.302 F96.000
